(G-CODE GENERATED BY FLATCAM v8.994 - www.flatcam.org - Version Date: 2020/11/7)

(Name: CoilGun_PCB.GBL_edit_iso_combined_cnc)
(Type: G-code from Geometry)
(Units: MM)

(Created on Monday, 30 May 2022 at 12:45)

(This preprocessor is the default preprocessor used by FlatCAM.)
(It is made to work with MACH3 compatible motion controllers.)

(TOOL DIAMETER: 0.4 mm)
(Feedrate_XY: 100.0 mm/min)
(Feedrate_Z: 60.0 mm/min)
(Feedrate rapids 1500.0 mm/min)

(Z_Cut: -0.05 mm)
(Z_Move: 2.0 mm)
(Z Start: None mm)
(Z End: 15.0 mm)
(X,Y End: None mm)
(Steps per circle: 64)
(Preprocessor Geometry: default)

(X range:   -0.2660 ...   78.2951  mm)
(Y range:   -0.2906 ...   72.3402  mm)

(Spindle Speed: 15000.0 RPM)
G21
G90
G94

G01 F100.00

M5
G00 Z15.0000
G00 X0.0000 Y0.0000
T2
M6    
(MSG, Change to Tool Dia = 0.4000)
M0
G00 Z15.0000

M03 S15000.0
G01 F100.00
G00 X0.4543 Y10.3402
G01 F60.00
G01 Z-0.0500
G01 F100.00
G01 X0.4642 Y10.1433
G01 X0.4945 Y9.9394
G01 X0.4967 Y9.9296
G01 X0.5446 Y9.7393
G01 X0.5478 Y9.7294
G01 X0.6144 Y9.5440
G01 X0.7025 Y9.3576
G01 X0.7076 Y9.3487
G01 X0.8088 Y9.1802
G01 X0.9318 Y9.0143
G01 X1.0641 Y8.8680
G01 X3.3009 Y6.6309
G01 X3.4507 Y6.4948
G01 X3.4617 Y6.4860
G01 X3.6202 Y6.3688
G01 X3.7887 Y6.2676
G01 X3.8060 Y6.2583
G01 X3.9840 Y6.1744
G01 X4.1694 Y6.1078
G01 X4.1881 Y6.1021
G01 X4.3794 Y6.0545
G01 X4.5833 Y6.0242
G01 X4.5934 Y6.0235
G01 X4.7900 Y6.0140
G01 X7.1349 Y6.0141
G01 X7.3367 Y6.0242
G01 X7.5406 Y6.0545
G01 X7.7319 Y6.1021
G01 X7.7506 Y6.1078
G01 X7.9360 Y6.1744
G01 X8.1140 Y6.2583
G01 X8.1313 Y6.2676
G01 X8.2998 Y6.3688
G01 X8.4583 Y6.4860
G01 X8.4693 Y6.4948
G01 X8.6120 Y6.6241
G01 X8.6259 Y6.6380
G01 X8.7582 Y6.7843
G01 X8.8783 Y6.9460
G01 X8.8863 Y6.9583
G01 X8.9824 Y7.1187
G01 X8.9898 Y7.1321
G01 X9.0736 Y7.3094
G01 X9.0792 Y7.3232
G01 X9.1101 Y7.4097
G01 X12.5423 Y7.4097
G01 X12.5778 Y7.3884
G01 X12.5912 Y7.3811
G01 X12.6515 Y7.3525
G01 X12.6650 Y7.3468
G01 X12.7382 Y7.3208
G01 X12.8127 Y7.3020
G01 X12.8268 Y7.2994
G01 X12.8884 Y7.2902
G01 X12.9079 Y7.2883
G01 X12.9800 Y7.2850
G01 X13.0521 Y7.2883
G01 X13.0621 Y7.2891
G01 X13.1426 Y7.3010
G01 X13.2129 Y7.3183
G01 X13.2317 Y7.3240
G01 X13.2997 Y7.3486
G01 X13.3648 Y7.3792
G01 X13.3822 Y7.3884
G01 X13.4437 Y7.4256
G01 X13.5094 Y7.4743
G01 X13.5633 Y7.5228
G01 X13.5772 Y7.5367
G01 X13.6257 Y7.5906
G01 X13.6744 Y7.6563
G01 X13.7116 Y7.7178
G01 X13.7208 Y7.7352
G01 X13.7514 Y7.8003
G01 X13.7777 Y7.8732
G01 X13.7817 Y7.8871
G01 X13.7990 Y7.9574
G01 X13.8109 Y8.0379
G01 X13.8117 Y8.0479
G01 X13.8150 Y8.1200
G01 X13.8117 Y8.1921
G01 X13.8109 Y8.2021
G01 X13.7990 Y8.2826
G01 X13.7968 Y8.2925
G01 X13.7792 Y8.3618
G01 X13.7760 Y8.3717
G01 X13.7514 Y8.4397
G01 X13.7208 Y8.5048
G01 X13.7116 Y8.5222
G01 X13.6795 Y8.5756
G01 X13.6686 Y8.5919
G01 X13.6315 Y8.6420
G01 X13.6227 Y8.6530
G01 X13.5772 Y8.7033
G01 X13.5633 Y8.7172
G01 X13.5094 Y8.7657
G01 X13.4437 Y8.8144
G01 X13.3822 Y8.8516
G01 X13.3733 Y8.8566
G01 X13.3085 Y8.8875
G01 X13.2904 Y8.8950
G01 X13.2218 Y8.9192
G01 X13.1525 Y8.9368
G01 X13.1426 Y8.9390
G01 X13.0621 Y8.9509
G01 X12.9898 Y8.9548
G01 X12.9751 Y8.9549
G01 X12.8979 Y8.9509
G01 X12.8268 Y8.9406
G01 X12.8075 Y8.9368
G01 X12.7382 Y8.9192
G01 X12.6696 Y8.8950
G01 X12.6558 Y8.8894
G01 X12.5867 Y8.8566
G01 X12.5423 Y8.8303
G01 X9.1101 Y8.8303
G01 X9.0792 Y8.9168
G01 X9.0736 Y8.9306
G01 X8.9917 Y9.1040
G01 X8.9850 Y9.1169
G01 X8.8812 Y9.2898
G01 X8.7640 Y9.4483
G01 X8.7552 Y9.4593
G01 X8.6191 Y9.6091
G01 X8.4734 Y9.7415
G01 X8.4657 Y9.7482
G01 X8.2998 Y9.8712
G01 X8.1313 Y9.9724
G01 X8.1224 Y9.9775
G01 X7.9360 Y10.0656
G01 X7.7506 Y10.1322
G01 X7.7407 Y10.1354
G01 X7.5504 Y10.1833
G01 X7.5406 Y10.1855
G01 X7.3367 Y10.2158
G01 X7.3266 Y10.2165
G01 X7.1300 Y10.2260
G01 X5.6623 Y10.2260
G01 X4.6660 Y11.2223
G01 X4.6660 Y16.1740
G01 X7.1300 Y16.1740
G01 X7.3266 Y16.1835
G01 X7.3462 Y16.1854
G01 X7.5312 Y16.2128
G01 X7.5504 Y16.2167
G01 X7.7407 Y16.2646
G01 X7.7506 Y16.2678
G01 X7.9268 Y16.3308
G01 X7.9449 Y16.3383
G01 X8.1224 Y16.4225
G01 X8.2917 Y16.5237
G01 X8.3080 Y16.5346
G01 X8.4657 Y16.6518
G01 X8.6120 Y16.7841
G01 X8.6259 Y16.7980
G01 X8.7582 Y16.9443
G01 X8.8812 Y17.1102
G01 X8.9824 Y17.2787
G01 X8.9875 Y17.2876
G01 X9.0717 Y17.4651
G01 X9.0792 Y17.4832
G01 X9.1422 Y17.6594
G01 X9.1454 Y17.6693
G01 X9.1933 Y17.8596
G01 X9.1955 Y17.8694
G01 X9.2246 Y18.0638
G01 X9.2265 Y18.0834
G01 X9.2360 Y18.2800
G01 X9.2265 Y18.4766
G01 X9.2246 Y18.4962
G01 X9.1955 Y18.6906
G01 X9.1933 Y18.7004
G01 X9.1454 Y18.8907
G01 X9.1422 Y18.9006
G01 X9.0792 Y19.0768
G01 X9.0717 Y19.0949
G01 X8.9875 Y19.2724
G01 X8.9824 Y19.2813
G01 X8.8812 Y19.4498
G01 X8.7582 Y19.6157
G01 X8.6259 Y19.7620
G01 X8.6120 Y19.7759
G01 X8.4657 Y19.9082
G01 X8.3080 Y20.0254
G01 X8.2917 Y20.0363
G01 X8.1224 Y20.1375
G01 X7.9449 Y20.2217
G01 X7.9268 Y20.2292
G01 X7.7506 Y20.2922
G01 X7.7407 Y20.2954
G01 X7.5504 Y20.3433
G01 X7.5312 Y20.3472
G01 X7.3462 Y20.3746
G01 X7.3266 Y20.3765
G01 X7.1300 Y20.3860
G01 X4.6660 Y20.3860
G01 X4.6660 Y26.3340
G01 X7.1300 Y26.3340
G01 X7.3266 Y26.3435
G01 X7.3462 Y26.3454
G01 X7.5312 Y26.3728
G01 X7.5504 Y26.3767
G01 X7.7407 Y26.4246
G01 X7.7506 Y26.4278
G01 X7.9268 Y26.4908
G01 X7.9449 Y26.4983
G01 X8.1224 Y26.5825
G01 X8.2917 Y26.6837
G01 X8.3080 Y26.6946
G01 X8.4657 Y26.8118
G01 X8.6120 Y26.9441
G01 X8.6259 Y26.9580
G01 X8.7582 Y27.1043
G01 X8.8812 Y27.2702
G01 X8.9824 Y27.4387
G01 X8.9875 Y27.4476
G01 X9.0717 Y27.6251
G01 X9.0792 Y27.6432
G01 X9.1422 Y27.8194
G01 X9.1454 Y27.8293
G01 X9.1933 Y28.0196
G01 X9.1955 Y28.0294
G01 X9.2246 Y28.2238
G01 X9.2265 Y28.2434
G01 X9.2360 Y28.4400
G01 X9.2265 Y28.6366
G01 X9.2246 Y28.6562
G01 X9.1955 Y28.8506
G01 X9.1933 Y28.8604
G01 X9.1454 Y29.0507
G01 X9.1422 Y29.0606
G01 X9.0792 Y29.2368
G01 X9.0717 Y29.2549
G01 X8.9875 Y29.4324
G01 X8.9824 Y29.4413
G01 X8.8812 Y29.6098
G01 X8.7582 Y29.7757
G01 X8.6259 Y29.9220
G01 X8.6120 Y29.9359
G01 X8.4657 Y30.0682
G01 X8.3080 Y30.1854
G01 X8.2917 Y30.1963
G01 X8.1224 Y30.2975
G01 X7.9449 Y30.3817
G01 X7.9268 Y30.3892
G01 X7.7506 Y30.4522
G01 X7.7407 Y30.4554
G01 X7.5504 Y30.5033
G01 X7.5312 Y30.5072
G01 X7.3462 Y30.5346
G01 X7.3266 Y30.5365
G01 X7.1300 Y30.5460
G01 X4.6660 Y30.5460
G01 X4.6660 Y36.4940
G01 X7.1300 Y36.4940
G01 X7.3266 Y36.5035
G01 X7.3462 Y36.5054
G01 X7.5312 Y36.5328
G01 X7.5504 Y36.5367
G01 X7.7407 Y36.5846
G01 X7.7506 Y36.5878
G01 X7.9268 Y36.6508
G01 X7.9449 Y36.6583
G01 X8.1224 Y36.7425
G01 X8.2917 Y36.8437
G01 X8.3080 Y36.8546
G01 X8.4657 Y36.9718
G01 X8.6120 Y37.1041
G01 X8.6259 Y37.1180
G01 X8.7582 Y37.2643
G01 X8.8812 Y37.4302
G01 X8.9824 Y37.5987
G01 X8.9875 Y37.6076
G01 X9.0717 Y37.7851
G01 X9.0792 Y37.8032
G01 X9.1422 Y37.9794
G01 X9.1454 Y37.9893
G01 X9.1933 Y38.1796
G01 X9.1955 Y38.1894
G01 X9.2246 Y38.3838
G01 X9.2265 Y38.4034
G01 X9.2360 Y38.6000
G01 X9.2265 Y38.7966
G01 X9.2246 Y38.8162
G01 X9.1955 Y39.0106
G01 X9.1933 Y39.0204
G01 X9.1454 Y39.2107
G01 X9.1422 Y39.2206
G01 X9.0792 Y39.3968
G01 X9.0717 Y39.4149
G01 X8.9875 Y39.5924
G01 X8.9824 Y39.6013
G01 X8.8812 Y39.7698
G01 X8.7582 Y39.9357
G01 X8.6259 Y40.0820
G01 X8.6120 Y40.0959
G01 X8.4657 Y40.2282
G01 X8.3080 Y40.3454
G01 X8.2917 Y40.3563
G01 X8.1224 Y40.4575
G01 X7.9449 Y40.5417
G01 X7.9268 Y40.5492
G01 X7.7506 Y40.6122
G01 X7.7407 Y40.6154
G01 X7.5504 Y40.6633
G01 X7.5312 Y40.6672
G01 X7.3462 Y40.6946
G01 X7.3266 Y40.6965
G01 X7.1300 Y40.7060
G01 X4.6660 Y40.7060
G01 X4.6660 Y45.3977
G01 X5.9223 Y46.6540
G01 X7.1349 Y46.6541
G01 X7.3367 Y46.6642
G01 X7.5312 Y46.6928
G01 X7.5452 Y46.6954
G01 X7.7407 Y46.7446
G01 X7.7506 Y46.7478
G01 X7.9268 Y46.8108
G01 X7.9449 Y46.8183
G01 X8.1224 Y46.9025
G01 X8.1313 Y46.9076
G01 X8.2998 Y47.0088
G01 X8.4583 Y47.1260
G01 X8.4734 Y47.1385
G01 X8.6120 Y47.2641
G01 X8.6259 Y47.2780
G01 X8.7582 Y47.4243
G01 X8.8754 Y47.5820
G01 X8.8863 Y47.5983
G01 X8.9875 Y47.7676
G01 X9.0756 Y47.9540
G01 X9.1422 Y48.1394
G01 X9.1479 Y48.1581
G01 X9.1955 Y48.3494
G01 X9.2258 Y48.5533
G01 X9.2357 Y48.7502
G01 X9.2357 Y48.7698
G01 X9.2258 Y48.9667
G01 X9.1972 Y49.1612
G01 X9.1933 Y49.1804
G01 X9.1454 Y49.3707
G01 X9.1422 Y49.3806
G01 X9.0876 Y49.5332
G01 X15.1245 Y55.5700
G01 X15.5200 Y55.5700
G01 X15.5347 Y55.5705
G01 X15.5494 Y55.5722
G01 X15.5687 Y55.5760
G01 X15.5875 Y55.5817
G01 X15.6057 Y55.5893
G01 X15.6229 Y55.5985
G01 X15.6392 Y55.6094
G01 X15.6469 Y55.6154
G01 X15.6579 Y55.6252
G01 X15.6714 Y55.6393
G01 X15.6835 Y55.6548
G01 X15.6915 Y55.6671
G01 X15.6986 Y55.6799
G01 X15.7047 Y55.6933
G01 X15.7099 Y55.7071
G01 X15.7140 Y55.7213
G01 X15.7170 Y55.7357
G01 X15.7190 Y55.7504
G01 X15.7199 Y55.7651
G01 X15.7200 Y56.9700
G01 X15.7195 Y56.9847
G01 X15.7178 Y56.9994
G01 X15.7151 Y57.0139
G01 X15.7113 Y57.0282
G01 X15.7065 Y57.0421
G01 X15.7007 Y57.0557
G01 X15.6939 Y57.0687
G01 X15.6862 Y57.0812
G01 X15.6776 Y57.0931
G01 X15.6682 Y57.1043
G01 X15.6579 Y57.1148
G01 X15.6469 Y57.1246
G01 X15.6352 Y57.1335
G01 X15.6229 Y57.1415
G01 X15.6101 Y57.1486
G01 X15.5967 Y57.1547
G01 X15.5829 Y57.1599
G01 X15.5639 Y57.1651
G01 X15.5494 Y57.1678
G01 X15.5347 Y57.1695
G01 X15.5200 Y57.1700
G01 X14.3151 Y57.1699
G01 X14.2955 Y57.1685
G01 X14.2809 Y57.1661
G01 X14.2665 Y57.1627
G01 X14.2479 Y57.1565
G01 X14.2343 Y57.1507
G01 X14.2171 Y57.1415
G01 X14.2048 Y57.1335
G01 X14.1893 Y57.1214
G01 X14.1752 Y57.1079
G01 X14.1624 Y57.0931
G01 X14.1538 Y57.0812
G01 X14.1437 Y57.0644
G01 X14.1353 Y57.0467
G01 X14.1287 Y57.0282
G01 X14.1239 Y57.0091
G01 X14.1215 Y56.9945
G01 X14.1202 Y56.9798
G01 X14.1200 Y56.9700
G01 X14.1200 Y56.5745
G01 X8.1480 Y50.6024
G01 X8.1269 Y50.6150
G01 X8.1179 Y50.6198
G01 X7.9360 Y50.7056
G01 X7.7506 Y50.7722
G01 X7.7319 Y50.7779
G01 X7.5406 Y50.8255
G01 X7.3462 Y50.8546
G01 X7.3266 Y50.8565
G01 X7.1300 Y50.8660
G01 X5.0500 Y50.8660
G01 X4.8483 Y50.8562
G01 X4.8338 Y50.8546
G01 X4.6394 Y50.8255
G01 X4.6296 Y50.8233
G01 X4.4393 Y50.7754
G01 X4.4294 Y50.7722
G01 X4.2440 Y50.7056
G01 X4.0621 Y50.6198
G01 X4.0487 Y50.6124
G01 X3.8883 Y50.5163
G01 X3.8720 Y50.5054
G01 X3.7143 Y50.3882
G01 X3.7066 Y50.3815
G01 X3.5644 Y50.2526
G01 X1.0675 Y47.7557
G01 X0.9385 Y47.6134
G01 X0.9260 Y47.5983
G01 X0.8088 Y47.4398
G01 X0.7076 Y47.2713
G01 X0.6983 Y47.2540
G01 X0.6144 Y47.0760
G01 X0.5461 Y46.8857
G01 X0.5421 Y46.8719
G01 X0.4967 Y46.6904
G01 X0.4928 Y46.6712
G01 X0.4642 Y46.4767
G01 X0.4635 Y46.4666
G01 X0.4540 Y46.2700
G01 X0.4543 Y10.3402
G00 Z2.0000
G00 X5.3860 Y15.4220
G01 F60.00
G01 Z-0.0500
G01 F100.00
G01 X5.4292 Y15.4540
G01 X5.3860 Y15.4540
G01 X5.3860 Y15.4220
G00 Z2.0000
G00 X5.4292 Y21.1060
G01 F60.00
G01 Z-0.0500
G01 F100.00
G01 X5.3860 Y21.1380
G01 X5.3860 Y21.1060
G01 X5.4292 Y21.1060
G00 Z2.0000
G00 X5.3860 Y25.5820
G01 F60.00
G01 Z-0.0500
G01 F100.00
G01 X5.4292 Y25.6140
G01 X5.3860 Y25.6140
G01 X5.3860 Y25.5820
G00 Z2.0000
G00 X5.3860 Y31.2980
G01 F60.00
G01 Z-0.0500
G01 F100.00
G01 X5.3860 Y31.2660
G01 X5.4292 Y31.2660
G01 X5.3860 Y31.2980
G00 Z2.0000
G00 X5.0260 Y32.2382
G01 F60.00
G01 Z-0.0500
G01 F100.00
G01 X5.0260 Y30.9060
G01 X7.1300 Y30.9060
G01 X7.1575 Y30.9053
G01 X7.3443 Y30.8961
G01 X7.3725 Y30.8940
G01 X7.3990 Y30.8907
G01 X7.5840 Y30.8633
G01 X7.6103 Y30.8587
G01 X7.6379 Y30.8525
G01 X7.8193 Y30.8071
G01 X7.8442 Y30.8003
G01 X7.8719 Y30.7911
G01 X8.0480 Y30.7281
G01 X8.0740 Y30.7181
G01 X8.0988 Y30.7071
G01 X8.2679 Y30.6271
G01 X8.2916 Y30.6152
G01 X8.3164 Y30.6012
G01 X8.4768 Y30.5051
G01 X8.4995 Y30.4907
G01 X8.5225 Y30.4745
G01 X8.6727 Y30.3631
G01 X8.6935 Y30.3470
G01 X8.7152 Y30.3283
G01 X8.8538 Y30.2026
G01 X8.8737 Y30.1837
G01 X8.8926 Y30.1638
G01 X9.0183 Y30.0252
G01 X9.0370 Y30.0035
G01 X9.0531 Y29.9827
G01 X9.1645 Y29.8325
G01 X9.1807 Y29.8095
G01 X9.1951 Y29.7868
G01 X9.2912 Y29.6264
G01 X9.3052 Y29.6016
G01 X9.3171 Y29.5779
G01 X9.3971 Y29.4088
G01 X9.4081 Y29.3840
G01 X9.4181 Y29.3580
G01 X9.4811 Y29.1819
G01 X9.4903 Y29.1542
G01 X9.4971 Y29.1293
G01 X9.5425 Y28.9479
G01 X9.5487 Y28.9203
G01 X9.5533 Y28.8940
G01 X9.5807 Y28.7090
G01 X9.5840 Y28.6825
G01 X9.5861 Y28.6543
G01 X9.5953 Y28.4675
G01 X9.5960 Y28.4400
G01 X9.5953 Y28.4125
G01 X9.5861 Y28.2257
G01 X9.5840 Y28.1975
G01 X9.5807 Y28.1710
G01 X9.5533 Y27.9860
G01 X9.5487 Y27.9597
G01 X9.5425 Y27.9321
G01 X9.4971 Y27.7507
G01 X9.4903 Y27.7258
G01 X9.4811 Y27.6981
G01 X9.4181 Y27.5220
G01 X9.4081 Y27.4960
G01 X9.3971 Y27.4712
G01 X9.3171 Y27.3021
G01 X9.3052 Y27.2784
G01 X9.2912 Y27.2536
G01 X9.1951 Y27.0932
G01 X9.1807 Y27.0705
G01 X9.1645 Y27.0475
G01 X9.0531 Y26.8973
G01 X9.0369 Y26.8765
G01 X9.0183 Y26.8548
G01 X8.8926 Y26.7162
G01 X8.8737 Y26.6963
G01 X8.8538 Y26.6774
G01 X8.7152 Y26.5517
G01 X8.6935 Y26.5330
G01 X8.6727 Y26.5169
G01 X8.5225 Y26.4055
G01 X8.4995 Y26.3893
G01 X8.4768 Y26.3749
G01 X8.3164 Y26.2788
G01 X8.2916 Y26.2648
G01 X8.2679 Y26.2529
G01 X8.0988 Y26.1729
G01 X8.0740 Y26.1619
G01 X8.0480 Y26.1519
G01 X7.8719 Y26.0889
G01 X7.8442 Y26.0797
G01 X7.8193 Y26.0729
G01 X7.6379 Y26.0275
G01 X7.6103 Y26.0213
G01 X7.5840 Y26.0167
G01 X7.3990 Y25.9893
G01 X7.3725 Y25.9860
G01 X7.3443 Y25.9839
G01 X7.1575 Y25.9747
G01 X7.1300 Y25.9740
G01 X5.0260 Y25.9740
G01 X5.0260 Y24.6418
G01 X5.0720 Y24.7182
G01 X5.0872 Y24.7411
G01 X5.2148 Y24.9132
G01 X5.2315 Y24.9336
G01 X5.2417 Y24.9452
G01 X5.3767 Y25.0939
G01 X5.3961 Y25.1133
G01 X5.4062 Y25.1226
G01 X5.5448 Y25.2483
G01 X5.5665 Y25.2670
G01 X5.5873 Y25.2831
G01 X5.7489 Y25.4028
G01 X5.7605 Y25.4107
G01 X5.7832 Y25.4251
G01 X5.9436 Y25.5212
G01 X5.9684 Y25.5352
G01 X5.9921 Y25.5471
G01 X6.1612 Y25.6271
G01 X6.1860 Y25.6381
G01 X6.2120 Y25.6481
G01 X6.3881 Y25.7111
G01 X6.4158 Y25.7203
G01 X6.4407 Y25.7271
G01 X6.6221 Y25.7725
G01 X6.6367 Y25.7760
G01 X6.6628 Y25.7812
G01 X6.8610 Y25.8107
G01 X6.8875 Y25.8140
G01 X6.9157 Y25.8161
G01 X7.1025 Y25.8253
G01 X7.1300 Y25.8260
G01 X12.3374 Y25.8260
G01 X17.7063 Y31.2037
G01 X17.7262 Y31.2226
G01 X17.8633 Y31.3470
G01 X17.8842 Y31.3651
G01 X17.9073 Y31.3831
G01 X18.0558 Y31.4934
G01 X18.0805 Y31.5107
G01 X18.1032 Y31.5251
G01 X18.2738 Y31.6272
G01 X18.2874 Y31.6347
G01 X18.3121 Y31.6471
G01 X18.4793 Y31.7263
G01 X18.5047 Y31.7376
G01 X18.5320 Y31.7481
G01 X18.7061 Y31.8105
G01 X18.7325 Y31.8192
G01 X18.7607 Y31.8271
G01 X18.9401 Y31.8721
G01 X18.9687 Y31.8785
G01 X18.9960 Y31.8833
G01 X19.1790 Y31.9105
G01 X19.2059 Y31.9138
G01 X19.2219 Y31.9152
G01 X19.4205 Y31.9253
G01 X19.4482 Y31.9260
G01 X23.1045 Y31.9260
G01 X23.1045 Y33.9903
G01 X23.0178 Y33.9258
G01 X22.9948 Y33.9097
G01 X22.9721 Y33.8953
G01 X22.8866 Y33.8441
G01 X22.8618 Y33.8301
G01 X22.8491 Y33.8235
G01 X22.7480 Y33.7756
G01 X22.7233 Y33.7646
G01 X22.6973 Y33.7545
G01 X22.6034 Y33.7210
G01 X22.5757 Y33.7118
G01 X22.5509 Y33.7050
G01 X22.4542 Y33.6808
G01 X22.4266 Y33.6746
G01 X22.4003 Y33.6701
G01 X22.3017 Y33.6554
G01 X22.2753 Y33.6522
G01 X22.2470 Y33.6501
G01 X22.1475 Y33.6452
G01 X22.1200 Y33.6445
G01 X22.0925 Y33.6452
G01 X21.9930 Y33.6501
G01 X21.9647 Y33.6522
G01 X21.9383 Y33.6554
G01 X21.8397 Y33.6701
G01 X21.8135 Y33.6746
G01 X21.7858 Y33.6808
G01 X21.6767 Y33.7083
G01 X21.6504 Y33.7162
G01 X21.6366 Y33.7210
G01 X21.5427 Y33.7545
G01 X21.5297 Y33.7594
G01 X21.5039 Y33.7701
G01 X21.4019 Y33.8182
G01 X21.3782 Y33.8301
G01 X21.3534 Y33.8441
G01 X21.2679 Y33.8953
G01 X21.2452 Y33.9097
G01 X21.2222 Y33.9258
G01 X21.1422 Y33.9852
G01 X21.1214 Y34.0014
G01 X21.0997 Y34.0201
G01 X21.0155 Y34.0966
G01 X19.9763 Y35.1358
G01 X19.9001 Y35.2197
G01 X19.8814 Y35.2414
G01 X19.8652 Y35.2622
G01 X19.8058 Y35.3422
G01 X19.7897 Y35.3652
G01 X19.7753 Y35.3879
G01 X19.7241 Y35.4734
G01 X19.7101 Y35.4982
G01 X19.6982 Y35.5219
G01 X19.6556 Y35.6120
G01 X19.6446 Y35.6367
G01 X19.6345 Y35.6627
G01 X19.6010 Y35.7566
G01 X19.5918 Y35.7843
G01 X19.5850 Y35.8091
G01 X19.5608 Y35.9058
G01 X19.5546 Y35.9334
G01 X19.5501 Y35.9597
G01 X19.5336 Y36.0715
G01 X19.5309 Y36.0988
G01 X19.5301 Y36.1130
G01 X19.5252 Y36.2125
G01 X19.5245 Y36.2400
G01 X19.5245 Y37.0832
G01 X19.3762 Y37.2174
G01 X19.3563 Y37.2363
G01 X19.3374 Y37.2562
G01 X19.2117 Y37.3948
G01 X19.1930 Y37.4165
G01 X19.1769 Y37.4373
G01 X19.0655 Y37.5875
G01 X19.0493 Y37.6105
G01 X19.0349 Y37.6332
G01 X18.9388 Y37.7936
G01 X18.9248 Y37.8184
G01 X18.9129 Y37.8421
G01 X18.8329 Y38.0112
G01 X18.8219 Y38.0360
G01 X18.8119 Y38.0620
G01 X18.7489 Y38.2381
G01 X18.7397 Y38.2658
G01 X18.7329 Y38.2907
G01 X18.6875 Y38.4721
G01 X18.6813 Y38.4997
G01 X18.6767 Y38.5260
G01 X18.6493 Y38.7110
G01 X18.6460 Y38.7375
G01 X18.6439 Y38.7657
G01 X18.6347 Y38.9525
G01 X18.6340 Y38.9800
G01 X18.6347 Y39.0075
G01 X18.6439 Y39.1943
G01 X18.6460 Y39.2225
G01 X18.6493 Y39.2490
G01 X18.6767 Y39.4340
G01 X18.6813 Y39.4603
G01 X18.6875 Y39.4879
G01 X18.7329 Y39.6693
G01 X18.7397 Y39.6942
G01 X18.7489 Y39.7219
G01 X18.8119 Y39.8980
G01 X18.8219 Y39.9240
G01 X18.8329 Y39.9488
G01 X18.9129 Y40.1179
G01 X18.9248 Y40.1416
G01 X18.9388 Y40.1664
G01 X19.0349 Y40.3268
G01 X19.0493 Y40.3495
G01 X19.0572 Y40.3611
G01 X19.1769 Y40.5227
G01 X19.1931 Y40.5435
G01 X19.2117 Y40.5652
G01 X19.3467 Y40.7139
G01 X19.3661 Y40.7333
G01 X19.3762 Y40.7426
G01 X19.5264 Y40.8785
G01 X19.5365 Y40.8870
G01 X19.5573 Y40.9031
G01 X19.6394 Y40.9640
G01 X19.4222 Y40.9640
G01 X10.2437 Y31.7763
G01 X10.2238 Y31.7574
G01 X10.0861 Y31.6325
G01 X10.0645 Y31.6139
G01 X10.0427 Y31.5969
G01 X9.8935 Y31.4862
G01 X9.8701 Y31.4697
G01 X9.8468 Y31.4549
G01 X9.6874 Y31.3594
G01 X9.6634 Y31.3457
G01 X9.6379 Y31.3329
G01 X9.4700 Y31.2534
G01 X9.4438 Y31.2418
G01 X9.4180 Y31.2319
G01 X9.2431 Y31.1692
G01 X9.2169 Y31.1606
G01 X9.1893 Y31.1529
G01 X9.0091 Y31.1077
G01 X8.9822 Y31.1016
G01 X8.9540 Y31.0967
G01 X8.7702 Y31.0694
G01 X8.7435 Y31.0661
G01 X8.7143 Y31.0639
G01 X8.5287 Y31.0547
G01 X8.5010 Y31.0540
G01 X7.1163 Y31.0542
G01 X6.9157 Y31.0639
G01 X6.8875 Y31.0660
G01 X6.8610 Y31.0693
G01 X6.6628 Y31.0988
G01 X6.6367 Y31.1040
G01 X6.6221 Y31.1075
G01 X6.4407 Y31.1529
G01 X6.4158 Y31.1597
G01 X6.3881 Y31.1689
G01 X6.2120 Y31.2319
G01 X6.1860 Y31.2419
G01 X6.1612 Y31.2529
G01 X5.9921 Y31.3329
G01 X5.9684 Y31.3448
G01 X5.9436 Y31.3588
G01 X5.7832 Y31.4549
G01 X5.7605 Y31.4693
G01 X5.7489 Y31.4772
G01 X5.5873 Y31.5969
G01 X5.5665 Y31.6130
G01 X5.5448 Y31.6317
G01 X5.4062 Y31.7574
G01 X5.3961 Y31.7667
G01 X5.3767 Y31.7861
G01 X5.2417 Y31.9348
G01 X5.2315 Y31.9464
G01 X5.2148 Y31.9668
G01 X5.0872 Y32.1389
G01 X5.0720 Y32.1618
G01 X5.0260 Y32.2382
G00 Z2.0000
G00 X5.4292 Y35.7740
G01 F60.00
G01 Z-0.0500
G01 F100.00
G01 X5.3860 Y35.7740
G01 X5.3860 Y35.7420
G01 X5.4292 Y35.7740
G00 Z2.0000
G00 X7.6929 Y36.2012
G01 F60.00
G01 Z-0.0500
G01 F100.00
G01 X7.6233 Y36.1840
G01 X7.5972 Y36.1788
G01 X7.3858 Y36.1475
G01 X7.3584 Y36.1448
G01 X7.3443 Y36.1439
G01 X7.1437 Y36.1342
G01 X5.0260 Y36.1340
G01 X5.0260 Y34.8018
G01 X5.0720 Y34.8782
G01 X5.0872 Y34.9011
G01 X5.2148 Y35.0732
G01 X5.2315 Y35.0936
G01 X5.2417 Y35.1052
G01 X5.3674 Y35.2438
G01 X5.3767 Y35.2539
G01 X5.3961 Y35.2733
G01 X5.5448 Y35.4083
G01 X5.5665 Y35.4270
G01 X5.5873 Y35.4431
G01 X5.7375 Y35.5545
G01 X5.7605 Y35.5707
G01 X5.7832 Y35.5851
G01 X5.9436 Y35.6812
G01 X5.9684 Y35.6952
G01 X5.9921 Y35.7071
G01 X6.1612 Y35.7871
G01 X6.1860 Y35.7981
G01 X6.2120 Y35.8081
G01 X6.3881 Y35.8711
G01 X6.4158 Y35.8803
G01 X6.4407 Y35.8871
G01 X6.6221 Y35.9325
G01 X6.6497 Y35.9387
G01 X6.6760 Y35.9433
G01 X6.8610 Y35.9707
G01 X6.8875 Y35.9740
G01 X6.9157 Y35.9761
G01 X7.1163 Y35.9858
G01 X7.4778 Y35.9860
G01 X7.6929 Y36.2012
G00 Z2.0000
G00 X8.8308 Y40.8540
G01 F60.00
G01 Z-0.0500
G01 F100.00
G01 X8.9044 Y40.7992
G01 X8.9213 Y40.7857
G01 X8.9379 Y40.7718
G01 X8.9570 Y40.7550
G01 X9.1121 Y40.6140
G01 X9.1283 Y40.5983
G01 X9.1440 Y40.5821
G01 X9.1594 Y40.5655
G01 X9.2850 Y40.4270
G01 X9.3018 Y40.4079
G01 X9.3157 Y40.3913
G01 X9.3292 Y40.3744
G01 X9.3423 Y40.3572
G01 X9.4537 Y40.2069
G01 X9.4672 Y40.1882
G01 X9.4802 Y40.1692
G01 X9.4923 Y40.1507
G01 X9.5039 Y40.1319
G01 X9.6000 Y39.9714
G01 X9.6118 Y39.9512
G01 X9.6230 Y39.9307
G01 X9.6338 Y39.9099
G01 X9.6426 Y39.8918
G01 X9.7225 Y39.7227
G01 X9.7316 Y39.7030
G01 X9.7406 Y39.6820
G01 X9.7491 Y39.6608
G01 X9.7571 Y39.6393
G01 X9.8201 Y39.4632
G01 X9.8279 Y39.4405
G01 X9.8351 Y39.4176
G01 X9.8463 Y39.3768
G01 X9.8918 Y39.1954
G01 X9.8974 Y39.1714
G01 X9.9019 Y39.1500
G01 X9.9059 Y39.1284
G01 X9.9094 Y39.1068
G01 X9.9323 Y38.9523
G01 X16.4018 Y45.4283
G01 X16.4179 Y45.4440
G01 X16.4345 Y45.4594
G01 X16.5720 Y45.5841
G01 X16.5914 Y45.6012
G01 X16.6063 Y45.6137
G01 X16.6248 Y45.6285
G01 X16.6428 Y45.6423
G01 X16.7919 Y45.7529
G01 X16.8103 Y45.7662
G01 X16.8308 Y45.7802
G01 X16.8493 Y45.7923
G01 X16.8681 Y45.8039
G01 X17.0469 Y45.9108
G01 X17.0677 Y45.9222
G01 X17.0901 Y45.9338
G01 X17.1082 Y45.9426
G01 X17.2760 Y46.0220
G01 X17.2961 Y46.0312
G01 X17.3175 Y46.0404
G01 X17.3394 Y46.0492
G01 X17.3607 Y46.0571
G01 X17.5354 Y46.1197
G01 X17.5569 Y46.1271
G01 X17.5824 Y46.1351
G01 X17.6232 Y46.1463
G01 X17.8032 Y46.1915
G01 X17.8277 Y46.1972
G01 X17.8485 Y46.2016
G01 X17.8708 Y46.2058
G01 X17.8932 Y46.2094
G01 X18.0768 Y46.2367
G01 X18.0987 Y46.2396
G01 X18.1228 Y46.2423
G01 X18.1454 Y46.2443
G01 X18.1680 Y46.2457
G01 X18.3534 Y46.2548
G01 X18.3761 Y46.2557
G01 X18.3988 Y46.2560
G01 X22.7245 Y46.2560
G01 X22.7245 Y48.6219
G01 X22.7020 Y48.6142
G01 X22.6791 Y48.6070
G01 X22.6588 Y48.6012
G01 X22.5417 Y48.5716
G01 X22.5177 Y48.5659
G01 X22.4963 Y48.5614
G01 X22.4747 Y48.5574
G01 X22.4531 Y48.5540
G01 X22.3328 Y48.5364
G01 X22.3111 Y48.5339
G01 X22.2879 Y48.5319
G01 X22.2647 Y48.5305
G01 X22.1651 Y48.5256
G01 X22.1426 Y48.5248
G01 X22.1200 Y48.5245
G01 X22.0974 Y48.5248
G01 X22.0749 Y48.5256
G01 X21.9521 Y48.5319
G01 X21.9289 Y48.5339
G01 X21.9072 Y48.5364
G01 X21.8855 Y48.5393
G01 X21.7869 Y48.5540
G01 X21.7653 Y48.5574
G01 X21.7437 Y48.5614
G01 X21.7223 Y48.5659
G01 X21.6983 Y48.5716
G01 X21.5812 Y48.6012
G01 X21.5609 Y48.6070
G01 X21.5380 Y48.6142
G01 X21.5153 Y48.6220
G01 X21.4000 Y48.6635
G01 X21.3788 Y48.6721
G01 X21.3577 Y48.6811
G01 X21.2479 Y48.7327
G01 X21.2299 Y48.7415
G01 X21.2091 Y48.7523
G01 X21.1885 Y48.7635
G01 X21.0828 Y48.8265
G01 X21.0640 Y48.8381
G01 X21.0455 Y48.8501
G01 X21.0265 Y48.8632
G01 X21.0078 Y48.8767
G01 X20.9105 Y48.9491
G01 X20.8936 Y48.9626
G01 X20.8770 Y48.9765
G01 X20.8579 Y48.9933
G01 X20.7832 Y49.0611
G01 X20.7671 Y49.0760
G01 X20.7514 Y49.0914
G01 X19.8155 Y50.0272
G01 X19.3164 Y49.5299
G01 X11.4683 Y41.6817
G01 X11.4521 Y41.6660
G01 X11.4355 Y41.6506
G01 X11.2970 Y41.5250
G01 X11.2779 Y41.5082
G01 X11.2613 Y41.4943
G01 X11.2444 Y41.4808
G01 X11.2272 Y41.4677
G01 X11.0769 Y41.3563
G01 X11.0582 Y41.3428
G01 X11.0392 Y41.3298
G01 X11.0207 Y41.3177
G01 X11.0019 Y41.3061
G01 X10.8414 Y41.2100
G01 X10.8212 Y41.1982
G01 X10.8007 Y41.1870
G01 X10.7799 Y41.1762
G01 X10.7618 Y41.1674
G01 X10.5927 Y41.0875
G01 X10.5730 Y41.0784
G01 X10.5520 Y41.0694
G01 X10.5308 Y41.0609
G01 X10.5093 Y41.0529
G01 X10.3332 Y40.9899
G01 X10.3105 Y40.9821
G01 X10.2876 Y40.9749
G01 X10.2673 Y40.9691
G01 X10.0654 Y40.9182
G01 X10.0414 Y40.9126
G01 X10.0200 Y40.9081
G01 X9.9984 Y40.9041
G01 X9.9768 Y40.9006
G01 X9.7918 Y40.8732
G01 X9.7701 Y40.8702
G01 X9.7484 Y40.8678
G01 X9.7252 Y40.8658
G01 X9.7020 Y40.8643
G01 X9.4926 Y40.8543
G01 X9.4700 Y40.8540
G01 X8.8308 Y40.8540
G00 Z2.0000
G00 X5.3860 Y41.4580
G01 F60.00
G01 Z-0.0500
G01 F100.00
G01 X5.3860 Y41.4260
G01 X5.4292 Y41.4260
G01 X5.3860 Y41.4580
G00 Z2.0000
G00 X5.0260 Y42.3982
G01 F60.00
G01 Z-0.0500
G01 F100.00
G01 X5.0260 Y41.0660
G01 X7.1437 Y41.0658
G01 X7.3443 Y41.0561
G01 X7.3725 Y41.0540
G01 X7.3990 Y41.0507
G01 X7.5840 Y41.0233
G01 X7.6103 Y41.0187
G01 X7.6379 Y41.0125
G01 X7.8193 Y40.9671
G01 X7.8442 Y40.9603
G01 X7.8719 Y40.9511
G01 X8.0480 Y40.8881
G01 X8.0740 Y40.8781
G01 X8.0988 Y40.8671
G01 X8.2679 Y40.7871
G01 X8.2916 Y40.7752
G01 X8.3164 Y40.7612
G01 X8.4768 Y40.6651
G01 X8.4995 Y40.6507
G01 X8.5225 Y40.6345
G01 X8.6727 Y40.5231
G01 X8.6935 Y40.5069
G01 X8.7152 Y40.4883
G01 X8.8639 Y40.3533
G01 X8.8833 Y40.3339
G01 X8.8926 Y40.3238
G01 X9.0183 Y40.1852
G01 X9.0369 Y40.1635
G01 X9.0531 Y40.1427
G01 X9.1645 Y39.9925
G01 X9.1807 Y39.9695
G01 X9.1951 Y39.9468
G01 X9.2912 Y39.7864
G01 X9.3052 Y39.7616
G01 X9.3171 Y39.7379
G01 X9.3971 Y39.5688
G01 X9.4081 Y39.5440
G01 X9.4181 Y39.5180
G01 X9.4811 Y39.3419
G01 X9.4903 Y39.3142
G01 X9.4971 Y39.2893
G01 X9.5425 Y39.1079
G01 X9.5487 Y39.0803
G01 X9.5533 Y39.0540
G01 X9.5807 Y38.8690
G01 X9.5840 Y38.8425
G01 X9.5861 Y38.8143
G01 X9.5958 Y38.6137
G01 X9.5958 Y38.5863
G01 X9.5953 Y38.5725
G01 X9.5861 Y38.3857
G01 X9.5852 Y38.3716
G01 X9.5825 Y38.3442
G01 X9.5512 Y38.1328
G01 X9.5460 Y38.1067
G01 X9.5294 Y38.0396
G01 X16.6563 Y45.1737
G01 X16.6762 Y45.1926
G01 X16.8139 Y45.3175
G01 X16.8348 Y45.3355
G01 X16.8573 Y45.3531
G01 X17.0065 Y45.4638
G01 X17.0305 Y45.4807
G01 X17.0532 Y45.4951
G01 X17.2245 Y45.5976
G01 X17.2374 Y45.6047
G01 X17.2621 Y45.6171
G01 X17.4300 Y45.6966
G01 X17.4553 Y45.7078
G01 X17.4820 Y45.7181
G01 X17.6569 Y45.7808
G01 X17.6858 Y45.7903
G01 X17.7107 Y45.7971
G01 X17.8909 Y45.8423
G01 X17.9188 Y45.8485
G01 X17.9460 Y45.8533
G01 X18.1298 Y45.8806
G01 X18.1582 Y45.8841
G01 X18.1857 Y45.8861
G01 X18.3713 Y45.8953
G01 X18.3989 Y45.8960
G01 X23.0845 Y45.8960
G01 X23.0845 Y49.2153
G01 X23.0178 Y49.1658
G01 X22.9948 Y49.1497
G01 X22.9721 Y49.1353
G01 X22.8866 Y49.0841
G01 X22.8618 Y49.0701
G01 X22.8491 Y49.0635
G01 X22.7480 Y49.0156
G01 X22.7233 Y49.0046
G01 X22.6973 Y48.9945
G01 X22.6034 Y48.9610
G01 X22.5757 Y48.9518
G01 X22.5509 Y48.9450
G01 X22.4542 Y48.9208
G01 X22.4265 Y48.9146
G01 X22.4003 Y48.9101
G01 X22.2885 Y48.8936
G01 X22.2611 Y48.8909
G01 X22.2470 Y48.8901
G01 X22.1475 Y48.8852
G01 X22.1200 Y48.8845
G01 X22.0925 Y48.8852
G01 X21.9930 Y48.8901
G01 X21.9647 Y48.8922
G01 X21.9383 Y48.8954
G01 X21.8397 Y48.9101
G01 X21.8134 Y48.9146
G01 X21.7858 Y48.9208
G01 X21.6891 Y48.9450
G01 X21.6643 Y48.9518
G01 X21.6366 Y48.9610
G01 X21.5427 Y48.9945
G01 X21.5167 Y49.0046
G01 X21.4920 Y49.0156
G01 X21.4019 Y49.0582
G01 X21.3782 Y49.0701
G01 X21.3534 Y49.0841
G01 X21.2679 Y49.1353
G01 X21.2452 Y49.1497
G01 X21.2336 Y49.1576
G01 X21.1422 Y49.2252
G01 X21.1214 Y49.2414
G01 X21.0997 Y49.2601
G01 X21.0253 Y49.3275
G01 X21.0059 Y49.3459
G01 X19.8160 Y50.5359
G01 X19.0621 Y49.7847
G01 X11.2039 Y41.9267
G01 X11.0552 Y41.7917
G01 X11.0335 Y41.7731
G01 X11.0127 Y41.7569
G01 X10.8625 Y41.6455
G01 X10.8395 Y41.6293
G01 X10.8168 Y41.6149
G01 X10.6564 Y41.5188
G01 X10.6316 Y41.5048
G01 X10.6079 Y41.4929
G01 X10.4388 Y41.4129
G01 X10.4140 Y41.4019
G01 X10.4011 Y41.3967
G01 X10.2119 Y41.3289
G01 X10.1842 Y41.3197
G01 X10.1593 Y41.3129
G01 X9.9779 Y41.2675
G01 X9.9503 Y41.2613
G01 X9.9240 Y41.2567
G01 X9.7390 Y41.2293
G01 X9.7125 Y41.2260
G01 X9.6843 Y41.2239
G01 X9.4837 Y41.2142
G01 X7.1163 Y41.2142
G01 X6.9157 Y41.2239
G01 X6.8875 Y41.2260
G01 X6.8610 Y41.2293
G01 X6.6760 Y41.2567
G01 X6.6497 Y41.2613
G01 X6.6221 Y41.2675
G01 X6.4407 Y41.3129
G01 X6.4158 Y41.3197
G01 X6.3881 Y41.3289
G01 X6.2120 Y41.3919
G01 X6.1860 Y41.4019
G01 X6.1612 Y41.4129
G01 X5.9921 Y41.4929
G01 X5.9684 Y41.5048
G01 X5.9436 Y41.5188
G01 X5.7832 Y41.6149
G01 X5.7605 Y41.6293
G01 X5.7489 Y41.6372
G01 X5.5873 Y41.7569
G01 X5.5665 Y41.7731
G01 X5.5448 Y41.7917
G01 X5.4062 Y41.9174
G01 X5.3863 Y41.9363
G01 X5.3767 Y41.9461
G01 X5.2417 Y42.0948
G01 X5.2315 Y42.1064
G01 X5.2148 Y42.1268
G01 X5.0872 Y42.2989
G01 X5.0720 Y42.3218
G01 X5.0260 Y42.3982
G00 Z2.0000
G00 X11.9544 Y51.3818
G01 F60.00
G01 Z-0.0500
G01 F100.00
G01 X9.8986 Y49.3259
G01 X9.9059 Y49.2884
G01 X9.9094 Y49.2668
G01 X9.9368 Y49.0818
G01 X9.9398 Y49.0601
G01 X9.9422 Y49.0384
G01 X9.9442 Y49.0152
G01 X9.9457 Y48.9920
G01 X9.9548 Y48.8051
G01 X9.9557 Y48.7826
G01 X9.9560 Y48.7600
G01 X9.9557 Y48.7374
G01 X9.9457 Y48.5280
G01 X9.9442 Y48.5048
G01 X9.9422 Y48.4816
G01 X9.9398 Y48.4599
G01 X9.9094 Y48.2532
G01 X9.9059 Y48.2316
G01 X9.9019 Y48.2100
G01 X9.8974 Y48.1886
G01 X9.8918 Y48.1646
G01 X9.8696 Y48.0761
G01 X12.0497 Y50.2562
G01 X12.0497 Y51.1996
G01 X12.0177 Y51.2537
G01 X12.0064 Y51.2742
G01 X11.9957 Y51.2950
G01 X11.9869 Y51.3131
G01 X11.9544 Y51.3818
G00 Z2.0000
G00 X12.1717 Y52.1081
G01 F60.00
G01 Z-0.0500
G01 F100.00
G01 X9.5003 Y49.4367
G01 X9.5425 Y49.2679
G01 X9.5487 Y49.2403
G01 X9.5533 Y49.2140
G01 X9.5807 Y49.0290
G01 X9.5840 Y49.0025
G01 X9.5861 Y48.9743
G01 X9.5953 Y48.7875
G01 X9.5960 Y48.7600
G01 X9.5953 Y48.7325
G01 X9.5861 Y48.5457
G01 X9.5840 Y48.5175
G01 X9.5807 Y48.4910
G01 X9.5533 Y48.3060
G01 X9.5487 Y48.2797
G01 X9.5425 Y48.2521
G01 X9.4971 Y48.0707
G01 X9.4903 Y48.0458
G01 X9.4811 Y48.0181
G01 X9.4181 Y47.8420
G01 X9.4081 Y47.8160
G01 X9.3971 Y47.7912
G01 X9.3171 Y47.6221
G01 X9.3052 Y47.5984
G01 X9.2912 Y47.5736
G01 X9.1951 Y47.4132
G01 X9.1807 Y47.3905
G01 X9.1645 Y47.3675
G01 X9.0531 Y47.2173
G01 X9.0370 Y47.1965
G01 X9.0183 Y47.1748
G01 X8.8926 Y47.0362
G01 X8.8737 Y47.0163
G01 X8.8538 Y46.9974
G01 X8.7152 Y46.8717
G01 X8.6935 Y46.8531
G01 X8.6727 Y46.8369
G01 X8.5225 Y46.7255
G01 X8.4995 Y46.7093
G01 X8.4768 Y46.6949
G01 X8.3164 Y46.5988
G01 X8.2916 Y46.5848
G01 X8.2679 Y46.5729
G01 X8.0988 Y46.4929
G01 X8.0740 Y46.4819
G01 X8.0480 Y46.4719
G01 X7.8719 Y46.4089
G01 X7.8442 Y46.3997
G01 X7.8193 Y46.3929
G01 X7.6379 Y46.3475
G01 X7.6103 Y46.3413
G01 X7.5840 Y46.3367
G01 X7.3990 Y46.3093
G01 X7.3725 Y46.3060
G01 X7.3443 Y46.3039
G01 X7.1575 Y46.2947
G01 X7.1300 Y46.2940
G01 X6.0714 Y46.2940
G01 X5.0260 Y45.2486
G01 X5.0260 Y44.9618
G01 X5.0720 Y45.0382
G01 X5.0872 Y45.0611
G01 X5.2069 Y45.2227
G01 X5.2230 Y45.2435
G01 X5.2315 Y45.2536
G01 X5.3674 Y45.4038
G01 X5.3863 Y45.4237
G01 X5.4062 Y45.4426
G01 X5.5448 Y45.5683
G01 X5.5564 Y45.5785
G01 X5.5768 Y45.5952
G01 X5.7375 Y45.7145
G01 X5.7605 Y45.7307
G01 X5.7832 Y45.7451
G01 X5.9436 Y45.8412
G01 X5.9684 Y45.8552
G01 X5.9921 Y45.8671
G01 X6.1612 Y45.9471
G01 X6.1860 Y45.9581
G01 X6.2120 Y45.9681
G01 X6.3881 Y46.0311
G01 X6.4158 Y46.0403
G01 X6.4407 Y46.0471
G01 X6.6221 Y46.0925
G01 X6.6497 Y46.0987
G01 X6.6760 Y46.1033
G01 X6.8610 Y46.1307
G01 X6.8875 Y46.1340
G01 X6.9157 Y46.1361
G01 X7.1025 Y46.1453
G01 X7.1300 Y46.1460
G01 X8.4486 Y46.1460
G01 X12.4097 Y50.1071
G01 X12.4097 Y51.3055
G01 X12.3905 Y51.3327
G01 X12.3761 Y51.3554
G01 X12.3311 Y51.4309
G01 X12.3177 Y51.4560
G01 X12.2809 Y51.5336
G01 X12.2699 Y51.5583
G01 X12.2598 Y51.5843
G01 X12.2350 Y51.6536
G01 X12.2259 Y51.6814
G01 X12.2191 Y51.7062
G01 X12.2012 Y51.7776
G01 X12.1950 Y51.8052
G01 X12.1905 Y51.8315
G01 X12.1779 Y51.9175
G01 X12.1752 Y51.9449
G01 X12.1743 Y51.9590
G01 X12.1702 Y52.0463
G01 X12.1702 Y52.0737
G01 X12.1717 Y52.1081
G00 Z2.0000
G00 X11.0748 Y54.5475
G01 F60.00
G01 Z-0.0500
G01 F100.00
G01 X11.5132 Y54.9859
G01 X11.4560 Y55.0206
G01 X11.4374 Y55.0326
G01 X11.4184 Y55.0456
G01 X11.3997 Y55.0591
G01 X11.3226 Y55.1166
G01 X11.3057 Y55.1301
G01 X11.2891 Y55.1440
G01 X11.2583 Y55.1715
G01 X11.2460 Y55.1562
G01 X11.2315 Y55.1389
G01 X11.2166 Y55.1221
G01 X11.2013 Y55.1056
G01 X11.1802 Y55.0842
G01 X11.1799 Y55.0374
G01 X11.1791 Y55.0149
G01 X11.1758 Y54.9544
G01 X11.1738 Y54.9312
G01 X11.1714 Y54.9094
G01 X11.1629 Y54.8508
G01 X11.1595 Y54.8292
G01 X11.1555 Y54.8077
G01 X11.1510 Y54.7863
G01 X11.1453 Y54.7623
G01 X11.1309 Y54.7056
G01 X11.1250 Y54.6853
G01 X11.1178 Y54.6624
G01 X11.0975 Y54.6046
G01 X11.0895 Y54.5831
G01 X11.0748 Y54.5475
G00 Z2.0000
G00 X13.6729 Y56.6365
G01 F60.00
G01 Z-0.0500
G01 F100.00
G01 X13.7600 Y56.7236
G01 X13.7600 Y56.9700
G01 X13.7607 Y56.9975
G01 X13.7627 Y57.0250
G01 X13.7642 Y57.0387
G01 X13.7683 Y57.0660
G01 X13.7737 Y57.0930
G01 X13.7804 Y57.1197
G01 X13.7884 Y57.1461
G01 X13.7929 Y57.1591
G01 X13.8028 Y57.1848
G01 X13.8083 Y57.1975
G01 X13.8140 Y57.2099
G01 X13.8263 Y57.2344
G01 X13.8399 Y57.2582
G01 X13.8471 Y57.2699
G01 X13.8545 Y57.2814
G01 X13.8703 Y57.3038
G01 X13.8872 Y57.3254
G01 X13.8960 Y57.3359
G01 X13.9144 Y57.3562
G01 X13.9240 Y57.3660
G01 X13.9338 Y57.3756
G01 X13.9541 Y57.3940
G01 X13.9646 Y57.4028
G01 X13.9862 Y57.4197
G01 X13.9973 Y57.4277
G01 X14.0201 Y57.4429
G01 X14.0436 Y57.4570
G01 X14.0678 Y57.4700
G01 X14.0801 Y57.4760
G01 X14.1052 Y57.4872
G01 X14.1180 Y57.4923
G01 X14.1439 Y57.5016
G01 X14.1703 Y57.5096
G01 X14.1970 Y57.5163
G01 X14.2105 Y57.5192
G01 X14.2376 Y57.5239
G01 X14.2650 Y57.5273
G01 X14.2787 Y57.5285
G01 X14.3062 Y57.5298
G01 X14.3200 Y57.5300
G01 X15.0583 Y57.5300
G01 X14.9092 Y57.6798
G01 X14.0089 Y57.6798
G01 X13.9919 Y57.6679
G01 X13.9806 Y57.6606
G01 X13.9248 Y57.6272
G01 X13.9123 Y57.6204
G01 X13.8887 Y57.6085
G01 X13.8549 Y57.5925
G01 X13.8301 Y57.5815
G01 X13.8042 Y57.5715
G01 X13.7690 Y57.5589
G01 X13.7413 Y57.5498
G01 X13.7164 Y57.5430
G01 X13.6802 Y57.5339
G01 X13.6526 Y57.5277
G01 X13.6263 Y57.5232
G01 X13.5894 Y57.5177
G01 X13.5630 Y57.5144
G01 X13.5347 Y57.5123
G01 X13.4837 Y57.5100
G01 X13.1284 Y57.5098
G01 X13.1962 Y57.4593
G01 X13.2166 Y57.4427
G01 X13.2835 Y57.3823
G01 X13.3034 Y57.3634
G01 X13.3130 Y57.3535
G01 X13.3724 Y57.2882
G01 X13.3911 Y57.2665
G01 X13.4073 Y57.2457
G01 X13.4517 Y57.1858
G01 X13.4599 Y57.1744
G01 X13.4752 Y57.1516
G01 X13.5206 Y57.0762
G01 X13.5346 Y57.0514
G01 X13.5465 Y57.0277
G01 X13.5784 Y56.9603
G01 X13.5894 Y56.9355
G01 X13.5946 Y56.9226
G01 X13.6245 Y56.8393
G01 X13.6293 Y56.8255
G01 X13.6372 Y56.7991
G01 X13.6621 Y56.6997
G01 X13.6672 Y56.6736
G01 X13.6729 Y56.6365
G00 Z2.0000
G00 X16.0800 Y56.5032
G01 F60.00
G01 Z-0.0500
G01 F100.00
G01 X16.0800 Y55.7700
G01 X16.0793 Y55.7425
G01 X16.0773 Y55.7150
G01 X16.0758 Y55.7013
G01 X16.0717 Y55.6740
G01 X16.0692 Y55.6605
G01 X16.0663 Y55.6470
G01 X16.0596 Y55.6203
G01 X16.0558 Y55.6071
G01 X16.0471 Y55.5809
G01 X16.0372 Y55.5552
G01 X16.0317 Y55.5426
G01 X16.0260 Y55.5301
G01 X16.0137 Y55.5056
G01 X16.0070 Y55.4936
G01 X15.9929 Y55.4701
G01 X15.9777 Y55.4473
G01 X15.9697 Y55.4362
G01 X15.9528 Y55.4146
G01 X15.9440 Y55.4041
G01 X15.9255 Y55.3838
G01 X15.9160 Y55.3740
G01 X15.8961 Y55.3551
G01 X15.8859 Y55.3460
G01 X15.8647 Y55.3286
G01 X15.8538 Y55.3203
G01 X15.8427 Y55.3123
G01 X15.8199 Y55.2971
G01 X15.8082 Y55.2899
G01 X15.7844 Y55.2763
G01 X15.7599 Y55.2640
G01 X15.7474 Y55.2583
G01 X15.7348 Y55.2528
G01 X15.7091 Y55.2429
G01 X15.6829 Y55.2342
G01 X15.6697 Y55.2304
G01 X15.6430 Y55.2237
G01 X15.6160 Y55.2183
G01 X15.6024 Y55.2161
G01 X15.5750 Y55.2127
G01 X15.5475 Y55.2107
G01 X15.5200 Y55.2100
G01 X15.2736 Y55.2100
G01 X13.4319 Y53.3683
G01 X13.4663 Y53.3698
G01 X13.4937 Y53.3698
G01 X13.5810 Y53.3657
G01 X13.5951 Y53.3648
G01 X13.6225 Y53.3621
G01 X13.7085 Y53.3495
G01 X13.7348 Y53.3450
G01 X13.7624 Y53.3388
G01 X13.8338 Y53.3209
G01 X13.8586 Y53.3141
G01 X13.8864 Y53.3050
G01 X13.9557 Y53.2802
G01 X13.9817 Y53.2701
G01 X14.0064 Y53.2591
G01 X14.0730 Y53.2277
G01 X14.0966 Y53.2158
G01 X14.1214 Y53.2018
G01 X14.1960 Y53.1569
G01 X14.2189 Y53.1416
G01 X14.2894 Y53.0896
G01 X14.3101 Y53.0734
G01 X14.3319 Y53.0547
G01 X14.3864 Y53.0053
G01 X14.4063 Y52.9863
G01 X14.4253 Y52.9664
G01 X14.4747 Y52.9119
G01 X14.4934 Y52.8901
G01 X14.5096 Y52.8694
G01 X14.5534 Y52.8103
G01 X14.5616 Y52.7989
G01 X14.5769 Y52.7760
G01 X14.6218 Y52.7014
G01 X14.6358 Y52.6766
G01 X14.6477 Y52.6530
G01 X14.6846 Y52.5744
G01 X14.6953 Y52.5487
G01 X14.7250 Y52.4664
G01 X14.7297 Y52.4526
G01 X14.7357 Y52.4331
G01 X15.5791 Y53.2765
G01 X16.3798 Y54.0743
G01 X16.3798 Y56.2019
G01 X16.0800 Y56.5032
G00 Z2.0000
G00 X16.0198 Y54.9977
G01 F60.00
G01 Z-0.0500
G01 F100.00
G01 X15.9935 Y54.9812
G01 X15.9740 Y54.9698
G01 X15.9543 Y54.9590
G01 X15.9343 Y54.9486
G01 X15.9141 Y54.9387
G01 X15.8936 Y54.9293
G01 X15.8728 Y54.9204
G01 X15.8518 Y54.9119
G01 X15.8306 Y54.9040
G01 X15.8092 Y54.8966
G01 X15.7877 Y54.8898
G01 X15.7659 Y54.8835
G01 X15.7440 Y54.8777
G01 X15.7220 Y54.8725
G01 X15.6999 Y54.8678
G01 X15.6776 Y54.8636
G01 X15.6553 Y54.8600
G01 X15.6329 Y54.8570
G01 X15.6104 Y54.8545
G01 X15.5878 Y54.8525
G01 X15.5652 Y54.8511
G01 X15.5426 Y54.8503
G01 X15.4227 Y54.8500
G01 X14.1582 Y53.5856
G01 X14.2269 Y53.5531
G01 X14.2450 Y53.5443
G01 X14.2658 Y53.5336
G01 X14.2863 Y53.5223
G01 X14.3065 Y53.5106
G01 X14.3697 Y53.4727
G01 X14.3885 Y53.4611
G01 X14.4070 Y53.4491
G01 X14.4260 Y53.4361
G01 X14.5038 Y53.3787
G01 X14.5210 Y53.3656
G01 X14.5379 Y53.3521
G01 X14.5545 Y53.3383
G01 X14.5736 Y53.3214
G01 X14.6282 Y53.2720
G01 X14.6447 Y53.2566
G01 X14.6609 Y53.2409
G01 X14.6766 Y53.2247
G01 X14.7414 Y53.1536
G01 X14.7583 Y53.1345
G01 X14.7721 Y53.1179
G01 X14.7856 Y53.1010
G01 X14.7987 Y53.0838
G01 X14.8322 Y53.0387
G01 X15.3248 Y53.5313
G01 X16.0198 Y54.2238
G01 X16.0198 Y54.9977
G00 Z2.0000
G00 X17.1108 Y58.1332
G01 F60.00
G01 Z-0.0500
G01 F100.00
G01 X17.9960 Y57.2433
G01 X18.0288 Y57.2073
G01 X18.0472 Y57.1859
G01 X18.0625 Y57.1665
G01 X18.0859 Y57.1348
G01 X18.1021 Y57.1119
G01 X18.1103 Y57.0992
G01 X18.1356 Y57.0571
G01 X18.1499 Y57.0318
G01 X18.1626 Y57.0066
G01 X18.1775 Y56.9749
G01 X18.1892 Y56.9483
G01 X18.1993 Y56.9220
G01 X18.2111 Y56.8890
G01 X18.2199 Y56.8623
G01 X18.2276 Y56.8342
G01 X18.2361 Y56.8002
G01 X18.2423 Y56.7727
G01 X18.2472 Y56.7441
G01 X18.2523 Y56.7094
G01 X18.2556 Y56.6830
G01 X18.2578 Y56.6524
G01 X18.2595 Y56.6175
G01 X18.2602 Y56.5900
G01 X18.2602 Y55.9479
G01 X18.3593 Y56.0464
G01 X18.5082 Y56.1811
G01 X18.5314 Y56.2009
G01 X18.5493 Y56.2295
G01 X18.5655 Y56.2525
G01 X18.6769 Y56.4027
G01 X18.6931 Y56.4235
G01 X18.7117 Y56.4452
G01 X18.8374 Y56.5838
G01 X18.8563 Y56.6037
G01 X18.8762 Y56.6226
G01 X19.0264 Y56.7585
G01 X19.0365 Y56.7670
G01 X19.0573 Y56.7831
G01 X19.1697 Y56.8665
G01 X19.1697 Y57.6044
G01 X19.1440 Y57.6083
G01 X19.1170 Y57.6137
G01 X19.0903 Y57.6204
G01 X19.0771 Y57.6242
G01 X19.0509 Y57.6329
G01 X19.0380 Y57.6377
G01 X19.0252 Y57.6428
G01 X19.0001 Y57.6540
G01 X18.9756 Y57.6663
G01 X18.9636 Y57.6729
G01 X18.9401 Y57.6871
G01 X18.9286 Y57.6945
G01 X18.9062 Y57.7103
G01 X18.8953 Y57.7186
G01 X18.8741 Y57.7360
G01 X18.8538 Y57.7544
G01 X18.8345 Y57.7738
G01 X18.8160 Y57.7941
G01 X18.8072 Y57.8046
G01 X18.7903 Y57.8262
G01 X18.7823 Y57.8373
G01 X18.7671 Y57.8601
G01 X18.7530 Y57.8836
G01 X18.7463 Y57.8956
G01 X18.7400 Y57.9078
G01 X18.7283 Y57.9326
G01 X18.7228 Y57.9452
G01 X18.7129 Y57.9709
G01 X18.7084 Y57.9839
G01 X18.7004 Y58.0103
G01 X18.6937 Y58.0370
G01 X18.6908 Y58.0505
G01 X18.6861 Y58.0776
G01 X18.6827 Y58.1050
G01 X18.6807 Y58.1325
G01 X18.6800 Y58.1600
G01 X18.6800 Y59.4904
G01 X18.5996 Y59.4100
G01 X18.5948 Y59.3149
G01 X18.5936 Y59.3008
G01 X18.5903 Y59.2743
G01 X18.5795 Y59.2015
G01 X18.5750 Y59.1752
G01 X18.5688 Y59.1476
G01 X18.5509 Y59.0762
G01 X18.5441 Y59.0514
G01 X18.5397 Y59.0374
G01 X18.5053 Y58.9413
G01 X18.5001 Y58.9283
G01 X18.4891 Y58.9036
G01 X18.4577 Y58.8370
G01 X18.4458 Y58.8134
G01 X18.4318 Y58.7886
G01 X18.3939 Y58.7254
G01 X18.3795 Y58.7027
G01 X18.3634 Y58.6797
G01 X18.3196 Y58.6206
G01 X18.3034 Y58.5999
G01 X18.2847 Y58.5781
G01 X18.2353 Y58.5236
G01 X18.2163 Y58.5037
G01 X18.1964 Y58.4847
G01 X18.1302 Y58.4251
G01 X18.1201 Y58.4166
G01 X18.0994 Y58.4004
G01 X18.0403 Y58.3566
G01 X18.0173 Y58.3404
G01 X17.9946 Y58.3261
G01 X17.9314 Y58.2882
G01 X17.9066 Y58.2742
G01 X17.8830 Y58.2623
G01 X17.8164 Y58.2309
G01 X17.7917 Y58.2199
G01 X17.7657 Y58.2098
G01 X17.6964 Y58.1850
G01 X17.6826 Y58.1803
G01 X17.6562 Y58.1724
G01 X17.5724 Y58.1512
G01 X17.5448 Y58.1450
G01 X17.5185 Y58.1405
G01 X17.4457 Y58.1297
G01 X17.4192 Y58.1264
G01 X17.4051 Y58.1252
G01 X17.3175 Y58.1207
G01 X17.2900 Y58.1200
G01 X17.2763 Y58.1202
G01 X17.1749 Y58.1252
G01 X17.1475 Y58.1279
G01 X17.1108 Y58.1332
G00 Z2.0000
G00 X17.8816 Y57.8689
G01 F60.00
G01 Z-0.0500
G01 F100.00
G01 X18.2416 Y57.5071
G01 X18.2574 Y57.4909
G01 X18.2956 Y57.4490
G01 X18.3124 Y57.4299
G01 X18.3264 Y57.4132
G01 X18.3505 Y57.3825
G01 X18.3886 Y57.3306
G01 X18.4022 Y57.3106
G01 X18.4148 Y57.2912
G01 X18.4269 Y57.2715
G01 X18.4561 Y57.2222
G01 X18.4672 Y57.2019
G01 X18.4783 Y57.1805
G01 X18.4884 Y57.1597
G01 X18.5120 Y57.1091
G01 X18.5217 Y57.0865
G01 X18.5306 Y57.0641
G01 X18.5386 Y57.0424
G01 X18.5576 Y56.9884
G01 X18.5645 Y56.9663
G01 X18.5712 Y56.9432
G01 X18.5771 Y56.9208
G01 X18.5853 Y56.8877
G01 X18.5938 Y56.8501
G01 X18.6179 Y56.8740
G01 X18.6345 Y56.8894
G01 X18.7730 Y57.0150
G01 X18.7922 Y57.0318
G01 X18.8097 Y57.0465
G01 X18.8097 Y57.3469
G01 X18.7860 Y57.3598
G01 X18.7665 Y57.3712
G01 X18.7474 Y57.3830
G01 X18.7285 Y57.3953
G01 X18.7099 Y57.4081
G01 X18.6917 Y57.4213
G01 X18.6738 Y57.4349
G01 X18.6562 Y57.4490
G01 X18.6390 Y57.4635
G01 X18.6221 Y57.4784
G01 X18.6056 Y57.4937
G01 X18.5895 Y57.5095
G01 X18.5737 Y57.5256
G01 X18.5584 Y57.5421
G01 X18.5435 Y57.5589
G01 X18.5290 Y57.5762
G01 X18.5149 Y57.5937
G01 X18.5013 Y57.6117
G01 X18.4881 Y57.6299
G01 X18.4753 Y57.6485
G01 X18.4630 Y57.6673
G01 X18.4512 Y57.6865
G01 X18.4399 Y57.7059
G01 X18.4290 Y57.7257
G01 X18.4186 Y57.7456
G01 X18.4087 Y57.7659
G01 X18.3993 Y57.7863
G01 X18.3904 Y57.8071
G01 X18.3819 Y57.8281
G01 X18.3740 Y57.8494
G01 X18.3667 Y57.8707
G01 X18.3598 Y57.8923
G01 X18.3535 Y57.9141
G01 X18.3477 Y57.9359
G01 X18.3425 Y57.9580
G01 X18.3378 Y57.9801
G01 X18.3336 Y58.0023
G01 X18.3300 Y58.0247
G01 X18.3270 Y58.0471
G01 X18.3245 Y58.0696
G01 X18.3225 Y58.0922
G01 X18.3210 Y58.1168
G01 X18.2547 Y58.0674
G01 X18.2360 Y58.0539
G01 X18.2170 Y58.0409
G01 X18.1985 Y58.0289
G01 X18.1797 Y58.0173
G01 X18.0963 Y57.9677
G01 X18.0758 Y57.9564
G01 X18.0550 Y57.9457
G01 X17.9704 Y57.9054
G01 X17.9507 Y57.8964
G01 X17.9296 Y57.8874
G01 X17.9084 Y57.8788
G01 X17.8816 Y57.8689
G00 Z2.0000
G00 X17.4110 Y60.3715
G01 F60.00
G01 Z-0.0500
G01 F100.00
G01 X17.3881 Y60.3749
G01 X17.3784 Y60.3758
G01 X17.2949 Y60.3799
G01 X17.2802 Y60.3798
G01 X17.2016 Y60.3758
G01 X17.1871 Y60.3742
G01 X17.1050 Y60.3618
G01 X17.0192 Y60.3405
G01 X17.0049 Y60.3360
G01 X16.9263 Y60.3076
G01 X16.8425 Y60.2680
G01 X16.8336 Y60.2630
G01 X16.7624 Y60.2200
G01 X16.6913 Y60.1676
G01 X16.6799 Y60.1579
G01 X16.6182 Y60.1018
G01 X16.5621 Y60.0401
G01 X16.5554 Y60.0323
G01 X16.5000 Y59.9576
G01 X16.4570 Y59.8864
G01 X16.4520 Y59.8775
G01 X16.4124 Y59.7937
G01 X16.3840 Y59.7151
G01 X16.3807 Y59.7052
G01 X16.3604 Y59.6249
G01 X16.3582 Y59.6150
G01 X16.3451 Y59.5281
G01 X16.3439 Y59.5133
G01 X16.3400 Y59.4300
G01 X16.3439 Y59.3467
G01 X16.3446 Y59.3366
G01 X16.3582 Y59.2450
G01 X16.3604 Y59.2351
G01 X16.3807 Y59.1548
G01 X16.3840 Y59.1449
G01 X16.4124 Y59.0663
G01 X16.4520 Y58.9825
G01 X16.4570 Y58.9736
G01 X16.5000 Y58.9024
G01 X16.5554 Y58.8277
G01 X16.5621 Y58.8199
G01 X16.6182 Y58.7582
G01 X16.6799 Y58.7021
G01 X16.6877 Y58.6954
G01 X16.7624 Y58.6400
G01 X16.8336 Y58.5970
G01 X16.8425 Y58.5920
G01 X16.9263 Y58.5524
G01 X17.0049 Y58.5240
G01 X17.0148 Y58.5207
G01 X17.0951 Y58.5004
G01 X17.1050 Y58.4982
G01 X17.1919 Y58.4851
G01 X17.2067 Y58.4839
G01 X17.2900 Y58.4800
G01 X17.3733 Y58.4839
G01 X17.3834 Y58.4846
G01 X17.4750 Y58.4982
G01 X17.5563 Y58.5183
G01 X17.5751 Y58.5240
G01 X17.6444 Y58.5488
G01 X17.6625 Y58.5563
G01 X17.7375 Y58.5920
G01 X17.8095 Y58.6349
G01 X17.8258 Y58.6458
G01 X17.8923 Y58.6954
G01 X17.9001 Y58.7021
G01 X17.9618 Y58.7582
G01 X18.0179 Y58.8199
G01 X18.0246 Y58.8277
G01 X18.0742 Y58.8942
G01 X18.0851 Y58.9105
G01 X18.1280 Y58.9825
G01 X18.1637 Y59.0575
G01 X18.1712 Y59.0756
G01 X18.1977 Y59.1498
G01 X18.2017 Y59.1637
G01 X18.2218 Y59.2450
G01 X18.2342 Y59.3271
G01 X18.2358 Y59.3416
G01 X18.2398 Y59.4202
G01 X18.2399 Y59.4349
G01 X18.2358 Y59.5184
G01 X18.2349 Y59.5281
G01 X18.2315 Y59.5510
G01 X18.9403 Y60.2598
G01 X21.2400 Y60.2600
G01 X21.2547 Y60.2605
G01 X21.2694 Y60.2622
G01 X21.2839 Y60.2649
G01 X21.2935 Y60.2673
G01 X21.3075 Y60.2717
G01 X21.3167 Y60.2753
G01 X21.3257 Y60.2793
G01 X21.3387 Y60.2861
G01 X21.3512 Y60.2938
G01 X21.3592 Y60.2994
G01 X21.3707 Y60.3086
G01 X21.3779 Y60.3152
G01 X21.3848 Y60.3221
G01 X21.3946 Y60.3331
G01 X21.4006 Y60.3408
G01 X21.4089 Y60.3529
G01 X21.4139 Y60.3613
G01 X21.4207 Y60.3743
G01 X21.4283 Y60.3925
G01 X21.4340 Y60.4113
G01 X21.4378 Y60.4306
G01 X21.4395 Y60.4453
G01 X21.4400 Y60.4600
G01 X21.4400 Y60.6298
G01 X25.3400 Y60.6298
G01 X25.3400 Y59.3100
G01 X25.3405 Y59.2953
G01 X25.3415 Y59.2855
G01 X25.3439 Y59.2709
G01 X25.3473 Y59.2565
G01 X25.3517 Y59.2425
G01 X25.3593 Y59.2243
G01 X25.3661 Y59.2113
G01 X25.3765 Y59.1948
G01 X25.3854 Y59.1831
G01 X25.3986 Y59.1686
G01 X25.4131 Y59.1554
G01 X25.4248 Y59.1465
G01 X25.4413 Y59.1361
G01 X25.4543 Y59.1293
G01 X25.4725 Y59.1217
G01 X25.4865 Y59.1173
G01 X25.5009 Y59.1139
G01 X25.5155 Y59.1115
G01 X25.5302 Y59.1102
G01 X25.5400 Y59.1100
G01 X27.5400 Y59.1100
G01 X27.5547 Y59.1105
G01 X27.5645 Y59.1115
G01 X27.5839 Y59.1149
G01 X27.6029 Y59.1201
G01 X27.6212 Y59.1272
G01 X27.6344 Y59.1337
G01 X27.6429 Y59.1385
G01 X27.6592 Y59.1494
G01 X27.6743 Y59.1618
G01 X27.6882 Y59.1757
G01 X27.6976 Y59.1869
G01 X27.7035 Y59.1948
G01 X27.7139 Y59.2113
G01 X27.7228 Y59.2288
G01 X27.7299 Y59.2471
G01 X27.7351 Y59.2661
G01 X27.7385 Y59.2855
G01 X27.7398 Y59.3002
G01 X27.7400 Y59.3598
G01 X30.8300 Y59.3598
G01 X30.8771 Y59.3619
G01 X30.8919 Y59.3632
G01 X30.9429 Y59.3709
G01 X30.9890 Y59.3822
G01 X31.0077 Y59.3879
G01 X31.0521 Y59.4040
G01 X31.0987 Y59.4258
G01 X31.1120 Y59.4332
G01 X31.1522 Y59.4575
G01 X31.1977 Y59.4912
G01 X31.2055 Y59.4979
G01 X31.2403 Y59.5297
G01 X31.8003 Y60.0897
G01 X31.8321 Y60.1245
G01 X31.8445 Y60.1397
G01 X31.8725 Y60.1778
G01 X31.8968 Y60.2180
G01 X31.9042 Y60.2313
G01 X31.9220 Y60.2690
G01 X31.9296 Y60.2871
G01 X31.9454 Y60.3322
G01 X31.9591 Y60.3871
G01 X31.9674 Y60.4428
G01 X31.9701 Y60.4951
G01 X31.9702 Y60.8150
G01 X32.5700 Y60.8150
G01 X32.5798 Y60.8152
G01 X32.5945 Y60.8165
G01 X32.6043 Y60.8180
G01 X32.6187 Y60.8210
G01 X32.6375 Y60.8267
G01 X32.6557 Y60.8343
G01 X32.6687 Y60.8411
G01 X32.6771 Y60.8461
G01 X32.6852 Y60.8515
G01 X32.6969 Y60.8604
G01 X32.7114 Y60.8736
G01 X32.7246 Y60.8881
G01 X32.7335 Y60.8998
G01 X32.7389 Y60.9079
G01 X32.7463 Y60.9206
G01 X32.7528 Y60.9338
G01 X32.7583 Y60.9475
G01 X32.7613 Y60.9568
G01 X32.7640 Y60.9663
G01 X32.7670 Y60.9807
G01 X32.7690 Y60.9954
G01 X32.7699 Y61.0101
G01 X32.7700 Y62.2650
G01 X32.7698 Y62.2748
G01 X32.7685 Y62.2895
G01 X32.7661 Y62.3041
G01 X32.7627 Y62.3185
G01 X32.7583 Y62.3325
G01 X32.7528 Y62.3462
G01 X32.7439 Y62.3637
G01 X32.7362 Y62.3762
G01 X32.7276 Y62.3881
G01 X32.7182 Y62.3993
G01 X32.7079 Y62.4098
G01 X32.6969 Y62.4196
G01 X32.6852 Y62.4285
G01 X32.6687 Y62.4389
G01 X32.6512 Y62.4478
G01 X32.6375 Y62.4533
G01 X32.6235 Y62.4577
G01 X32.6091 Y62.4611
G01 X32.5896 Y62.4640
G01 X32.5700 Y62.4650
G01 X31.8551 Y62.4650
G01 X31.8325 Y62.5022
G01 X31.8045 Y62.5403
G01 X31.7921 Y62.5555
G01 X31.7603 Y62.5903
G01 X30.1918 Y64.1587
G01 X30.1760 Y64.2021
G01 X30.1561 Y64.2447
G01 X30.1494 Y64.2576
G01 X30.1277 Y64.2940
G01 X30.1168 Y64.3104
G01 X30.0888 Y64.3477
G01 X30.0537 Y64.3867
G01 X28.8203 Y65.6203
G01 X28.7855 Y65.6521
G01 X28.7777 Y65.6588
G01 X28.7404 Y65.6868
G01 X28.7281 Y65.6951
G01 X28.6920 Y65.7168
G01 X28.6787 Y65.7242
G01 X28.6367 Y65.7440
G01 X28.6275 Y65.7478
G01 X28.6034 Y65.7565
G01 X26.3794 Y67.9711
G01 X26.3455 Y68.0021
G01 X26.3306 Y68.0144
G01 X26.2922 Y68.0425
G01 X26.2520 Y68.0668
G01 X26.2380 Y68.0746
G01 X26.1918 Y68.0961
G01 X26.1477 Y68.1121
G01 X26.1326 Y68.1169
G01 X26.0876 Y68.1281
G01 X26.0723 Y68.1309
G01 X26.0259 Y68.1375
G01 X25.9749 Y68.1401
G01 X23.3600 Y68.1402
G01 X23.3096 Y68.1380
G01 X23.2946 Y68.1363
G01 X23.2480 Y68.1293
G01 X23.2039 Y68.1186
G01 X23.1854 Y68.1131
G01 X23.1419 Y68.0976
G01 X23.0998 Y68.0784
G01 X23.0827 Y68.0695
G01 X23.0424 Y68.0456
G01 X23.0053 Y68.0190
G01 X22.9966 Y68.0123
G01 X22.9592 Y67.9795
G01 X22.7437 Y67.7702
G01 X21.8403 Y67.7702
G01 X21.2149 Y68.3957
G01 X21.2091 Y68.4329
G01 X21.1978 Y68.4790
G01 X21.1938 Y68.4928
G01 X21.1778 Y68.5375
G01 X21.1720 Y68.5510
G01 X21.1561 Y68.5847
G01 X21.1494 Y68.5976
G01 X21.1251 Y68.6381
G01 X21.1120 Y68.6567
G01 X21.1153 Y68.6738
G01 X21.1259 Y68.7464
G01 X21.1298 Y68.8202
G01 X21.1298 Y68.8398
G01 X21.1259 Y68.9136
G01 X21.1153 Y68.9862
G01 X21.1115 Y69.0054
G01 X21.0948 Y69.0717
G01 X21.0903 Y69.0861
G01 X21.0652 Y69.1554
G01 X21.0298 Y69.2304
G01 X21.0248 Y69.2392
G01 X20.9869 Y69.3021
G01 X20.9431 Y69.3615
G01 X20.9343 Y69.3725
G01 X20.8878 Y69.4239
G01 X20.8739 Y69.4378
G01 X20.8189 Y69.4873
G01 X20.7603 Y69.5311
G01 X20.7439 Y69.5420
G01 X20.6804 Y69.5798
G01 X20.6054 Y69.6152
G01 X20.5361 Y69.6403
G01 X20.5173 Y69.6460
G01 X20.4455 Y69.6637
G01 X20.3731 Y69.6747
G01 X20.3535 Y69.6766
G01 X20.2800 Y69.6800
G01 X20.2065 Y69.6766
G01 X20.1917 Y69.6753
G01 X20.1145 Y69.6637
G01 X20.0427 Y69.6460
G01 X20.0239 Y69.6403
G01 X19.9639 Y69.6188
G01 X19.9457 Y69.6113
G01 X19.8796 Y69.5798
G01 X19.8161 Y69.5420
G01 X19.7997 Y69.5311
G01 X19.7411 Y69.4873
G01 X19.7333 Y69.4806
G01 X19.6790 Y69.4310
G01 X19.6294 Y69.3767
G01 X19.6227 Y69.3689
G01 X19.5731 Y69.3021
G01 X19.5352 Y69.2392
G01 X19.5302 Y69.2304
G01 X19.4987 Y69.1643
G01 X19.4912 Y69.1461
G01 X19.4664 Y69.0762
G01 X19.4485 Y69.0054
G01 X19.4447 Y68.9862
G01 X19.4353 Y68.9231
G01 X19.4334 Y68.9035
G01 X19.4300 Y68.8300
G01 X19.4334 Y68.7565
G01 X19.4341 Y68.7464
G01 X19.4463 Y68.6645
G01 X19.4640 Y68.5927
G01 X19.4697 Y68.5739
G01 X19.4912 Y68.5139
G01 X19.4987 Y68.4957
G01 X19.5302 Y68.4296
G01 X19.5680 Y68.3661
G01 X19.5789 Y68.3497
G01 X19.6227 Y68.2911
G01 X19.6755 Y68.2325
G01 X19.6861 Y68.2222
G01 X19.7333 Y68.1794
G01 X19.7485 Y68.1669
G01 X19.8079 Y68.1231
G01 X19.8752 Y68.0826
G01 X19.8881 Y68.0760
G01 X19.9457 Y68.0487
G01 X19.9592 Y68.0429
G01 X20.0289 Y68.0180
G01 X20.0427 Y68.0140
G01 X20.0787 Y68.0050
G01 X20.0833 Y67.9866
G01 X20.0862 Y67.9772
G01 X20.1022 Y67.9325
G01 X20.1080 Y67.9190
G01 X20.1239 Y67.8853
G01 X20.1306 Y67.8724
G01 X20.1549 Y67.8319
G01 X20.1632 Y67.8196
G01 X20.1912 Y67.7823
G01 X20.2230 Y67.7469
G01 X21.1897 Y66.7797
G01 X21.2287 Y66.7443
G01 X21.2397 Y66.7355
G01 X21.2696 Y66.7132
G01 X21.2860 Y66.7023
G01 X21.3268 Y66.6781
G01 X21.3779 Y66.6540
G01 X21.4223 Y66.6379
G01 X21.4322 Y66.6346
G01 X21.4772 Y66.6231
G01 X21.4965 Y66.6193
G01 X21.5334 Y66.6138
G01 X21.5479 Y66.6122
G01 X21.6000 Y66.6098
G01 X22.9600 Y66.6098
G01 X23.0071 Y66.6119
G01 X23.0219 Y66.6132
G01 X23.0635 Y66.6193
G01 X23.0828 Y66.6231
G01 X23.1278 Y66.6346
G01 X23.1775 Y66.6522
G01 X23.1910 Y66.6580
G01 X23.2332 Y66.6781
G01 X23.2740 Y66.7023
G01 X23.2830 Y66.7081
G01 X23.3209 Y66.7302
G01 X23.3363 Y66.7403
G01 X23.3710 Y66.7658
G01 X23.3813 Y66.7743
G01 X23.4107 Y66.8005
G01 X23.5954 Y66.9798
G01 X25.7304 Y66.9798
G01 X27.9206 Y64.7989
G01 X27.9545 Y64.7679
G01 X27.9627 Y64.7609
G01 X27.9996 Y64.7332
G01 X28.0127 Y64.7243
G01 X28.0480 Y64.7032
G01 X28.0620 Y64.6954
G01 X28.1033 Y64.6760
G01 X28.1146 Y64.6713
G01 X28.1357 Y64.6638
G01 X29.0882 Y63.7113
G01 X29.1040 Y63.6679
G01 X29.1239 Y63.6253
G01 X29.1306 Y63.6124
G01 X29.1523 Y63.5760
G01 X29.1632 Y63.5596
G01 X29.1912 Y63.5223
G01 X29.2263 Y63.4833
G01 X30.7698 Y61.9397
G01 X30.7701 Y61.0101
G01 X30.7710 Y60.9954
G01 X30.7739 Y60.9759
G01 X30.7773 Y60.9615
G01 X30.7817 Y60.9475
G01 X30.7872 Y60.9338
G01 X30.7937 Y60.9206
G01 X30.8011 Y60.9079
G01 X30.8098 Y60.8953
G01 X30.8098 Y60.7403
G01 X30.5897 Y60.5202
G01 X27.7400 Y60.5202
G01 X27.7399 Y63.1149
G01 X27.7390 Y63.1296
G01 X27.7361 Y63.1491
G01 X27.7327 Y63.1635
G01 X27.7283 Y63.1775
G01 X27.7228 Y63.1912
G01 X27.7163 Y63.2044
G01 X27.7062 Y63.2212
G01 X27.6976 Y63.2331
G01 X27.6848 Y63.2479
G01 X27.6743 Y63.2582
G01 X27.6669 Y63.2646
G01 X27.6512 Y63.2762
G01 X27.6387 Y63.2839
G01 X27.6301 Y63.2886
G01 X27.6167 Y63.2947
G01 X27.6075 Y63.2983
G01 X27.5887 Y63.3040
G01 X27.5743 Y63.3070
G01 X27.5645 Y63.3085
G01 X27.5449 Y63.3099
G01 X25.5351 Y63.3099
G01 X25.5155 Y63.3085
G01 X25.5009 Y63.3061
G01 X25.4818 Y63.3013
G01 X25.4679 Y63.2965
G01 X25.4543 Y63.2907
G01 X25.4371 Y63.2815
G01 X25.4208 Y63.2706
G01 X25.4057 Y63.2582
G01 X25.3918 Y63.2443
G01 X25.3794 Y63.2292
G01 X25.3685 Y63.2129
G01 X25.3614 Y63.2001
G01 X25.3535 Y63.1821
G01 X25.3487 Y63.1682
G01 X25.3439 Y63.1491
G01 X25.3415 Y63.1345
G01 X25.3405 Y63.1247
G01 X25.3400 Y63.1100
G01 X25.3400 Y61.7902
G01 X21.4400 Y61.7902
G01 X21.4400 Y61.9600
G01 X21.4395 Y61.9747
G01 X21.4378 Y61.9894
G01 X21.4340 Y62.0087
G01 X21.4283 Y62.0275
G01 X21.4228 Y62.0412
G01 X21.4186 Y62.0501
G01 X21.4115 Y62.0629
G01 X21.4062 Y62.0712
G01 X21.3976 Y62.0831
G01 X21.3914 Y62.0907
G01 X21.3814 Y62.1014
G01 X21.3707 Y62.1114
G01 X21.3631 Y62.1176
G01 X21.3552 Y62.1235
G01 X21.3429 Y62.1315
G01 X21.3301 Y62.1386
G01 X21.3212 Y62.1428
G01 X21.3075 Y62.1483
G01 X21.2982 Y62.1513
G01 X21.2887 Y62.1540
G01 X21.2743 Y62.1570
G01 X21.2596 Y62.1590
G01 X21.2400 Y62.1600
G01 X19.2400 Y62.1600
G01 X19.2204 Y62.1590
G01 X19.2057 Y62.1570
G01 X19.1913 Y62.1540
G01 X19.1771 Y62.1499
G01 X19.1633 Y62.1447
G01 X19.1499 Y62.1386
G01 X19.1371 Y62.1315
G01 X19.1248 Y62.1235
G01 X19.1131 Y62.1146
G01 X19.1021 Y62.1048
G01 X19.0918 Y62.0943
G01 X19.0824 Y62.0831
G01 X19.0738 Y62.0712
G01 X19.0661 Y62.0587
G01 X19.0593 Y62.0457
G01 X19.0535 Y62.0321
G01 X19.0487 Y62.0182
G01 X19.0449 Y62.0039
G01 X19.0430 Y61.9943
G01 X19.0410 Y61.9796
G01 X19.0400 Y61.9600
G01 X19.0400 Y61.4202
G01 X18.7000 Y61.4202
G01 X18.6529 Y61.4181
G01 X18.6334 Y61.4162
G01 X18.5918 Y61.4100
G01 X18.5772 Y61.4069
G01 X18.5322 Y61.3954
G01 X18.4871 Y61.3796
G01 X18.4690 Y61.3720
G01 X18.4268 Y61.3519
G01 X18.3819 Y61.3251
G01 X18.3696 Y61.3168
G01 X18.3323 Y61.2888
G01 X18.3245 Y61.2821
G01 X18.2897 Y61.2503
G01 X17.4110 Y60.3715
G00 Z2.0000
G00 X15.0189 Y59.9202
G01 F60.00
G01 Z-0.0500
G01 F100.00
G01 X15.3000 Y59.9202
G01 X15.3226 Y59.9199
G01 X15.3453 Y59.9191
G01 X15.4058 Y59.9158
G01 X15.4289 Y59.9138
G01 X15.4509 Y59.9113
G01 X15.4728 Y59.9083
G01 X15.5313 Y59.8994
G01 X15.5527 Y59.8954
G01 X15.5740 Y59.8909
G01 X15.5986 Y59.8851
G01 X15.6551 Y59.8707
G01 X15.6780 Y59.8640
G01 X15.6852 Y59.8917
G01 X15.6911 Y59.9121
G01 X15.6983 Y59.9350
G01 X15.7224 Y60.0034
G01 X15.6815 Y60.0146
G01 X15.6586 Y60.0218
G01 X15.5805 Y60.0495
G01 X15.5590 Y60.0574
G01 X15.5378 Y60.0659
G01 X15.5168 Y60.0750
G01 X15.4904 Y60.0872
G01 X15.1871 Y60.0883
G01 X15.0189 Y59.9202
G00 Z2.0000
G00 X14.1498 Y59.5602
G01 F60.00
G01 Z-0.0500
G01 F100.00
G01 X15.3000 Y59.5602
G01 X15.3276 Y59.5595
G01 X15.3649 Y59.5577
G01 X15.3931 Y59.5556
G01 X15.4198 Y59.5522
G01 X15.4699 Y59.5446
G01 X15.4959 Y59.5395
G01 X15.5472 Y59.5268
G01 X15.5716 Y59.5201
G01 X15.5999 Y59.5108
G01 X15.6480 Y59.4933
G01 X15.6734 Y59.4828
G01 X15.7218 Y59.4600
G01 X15.7454 Y59.4480
G01 X15.7685 Y59.4349
G01 X15.8005 Y59.4156
G01 X15.8238 Y59.4008
G01 X15.8463 Y59.3849
G01 X15.8865 Y59.3547
G01 X15.9063 Y59.3386
G01 X15.9469 Y59.3019
G01 X15.9665 Y59.2832
G01 X15.9922 Y59.2573
G01 X15.9879 Y59.2875
G01 X15.9852 Y59.3149
G01 X15.9802 Y59.4163
G01 X15.9802 Y59.4437
G01 X15.9807 Y59.4575
G01 X15.9852 Y59.5451
G01 X15.9864 Y59.5592
G01 X15.9897 Y59.5857
G01 X16.0005 Y59.6585
G01 X16.0050 Y59.6848
G01 X16.0112 Y59.7124
G01 X16.0291 Y59.7838
G01 X16.0359 Y59.8086
G01 X16.0403 Y59.8226
G01 X16.0698 Y59.9057
G01 X16.0799 Y59.9317
G01 X16.0854 Y59.9444
G01 X16.1277 Y60.0340
G01 X16.1342 Y60.0466
G01 X16.1482 Y60.0714
G01 X16.1931 Y60.1460
G01 X16.2084 Y60.1689
G01 X16.2166 Y60.1803
G01 X16.2604 Y60.2394
G01 X16.2766 Y60.2601
G01 X16.2953 Y60.2819
G01 X16.3399 Y60.3311
G01 X16.3192 Y60.3276
G01 X16.2610 Y60.3190
G01 X16.2345 Y60.3157
G01 X16.2063 Y60.3136
G01 X16.1475 Y60.3107
G01 X16.1200 Y60.3100
G01 X16.0925 Y60.3107
G01 X16.0337 Y60.3136
G01 X16.0055 Y60.3157
G01 X15.9790 Y60.3190
G01 X15.9208 Y60.3276
G01 X15.8945 Y60.3321
G01 X15.8815 Y60.3349
G01 X15.8098 Y60.3526
G01 X15.7849 Y60.3595
G01 X15.7572 Y60.3686
G01 X15.7017 Y60.3884
G01 X15.6758 Y60.3984
G01 X15.6510 Y60.4094
G01 X15.5977 Y60.4346
G01 X15.5735 Y60.4468
G01 X15.0385 Y60.4489
G01 X14.1498 Y59.5602
G00 Z2.0000
G00 X16.1650 Y64.4200
G01 F60.00
G01 Z-0.0500
G01 F100.00
G01 X17.4150 Y64.4200
G01 X17.4297 Y64.4205
G01 X17.4444 Y64.4222
G01 X17.4589 Y64.4249
G01 X17.4685 Y64.4273
G01 X17.4871 Y64.4335
G01 X17.4962 Y64.4372
G01 X17.5094 Y64.4437
G01 X17.5179 Y64.4485
G01 X17.5302 Y64.4565
G01 X17.5381 Y64.4624
G01 X17.5493 Y64.4718
G01 X17.5598 Y64.4821
G01 X17.5664 Y64.4893
G01 X17.5726 Y64.4969
G01 X17.5812 Y64.5088
G01 X17.5865 Y64.5171
G01 X17.5936 Y64.5299
G01 X17.6015 Y64.5479
G01 X17.6063 Y64.5618
G01 X17.6101 Y64.5761
G01 X17.6128 Y64.5906
G01 X17.6148 Y64.6102
G01 X17.6150 Y64.8097
G01 X23.2549 Y64.8098
G01 X23.3098 Y64.8124
G01 X23.3294 Y64.8144
G01 X23.3883 Y64.8233
G01 X23.4467 Y64.8377
G01 X23.4655 Y64.8434
G01 X23.5219 Y64.8639
G01 X23.5845 Y64.8934
G01 X23.5934 Y64.8984
G01 X23.6444 Y64.9293
G01 X23.6928 Y64.9649
G01 X23.7039 Y64.9737
G01 X23.7487 Y65.0143
G01 X23.8785 Y65.1441
G01 X23.9325 Y65.1120
G01 X24.0075 Y65.0763
G01 X24.0209 Y65.0705
G01 X24.1048 Y65.0407
G01 X24.1851 Y65.0204
G01 X24.1996 Y65.0173
G01 X24.2866 Y65.0046
G01 X24.2967 Y65.0039
G01 X24.3800 Y65.0000
G01 X24.4633 Y65.0039
G01 X24.4734 Y65.0046
G01 X24.5650 Y65.0182
G01 X24.5749 Y65.0204
G01 X24.6552 Y65.0407
G01 X24.6651 Y65.0440
G01 X24.7437 Y65.0724
G01 X24.8275 Y65.1120
G01 X24.8364 Y65.1170
G01 X24.9076 Y65.1600
G01 X24.9823 Y65.2154
G01 X24.9901 Y65.2221
G01 X25.0518 Y65.2783
G01 X25.1079 Y65.3399
G01 X25.1146 Y65.3477
G01 X25.1700 Y65.4224
G01 X25.2130 Y65.4936
G01 X25.2180 Y65.5025
G01 X25.2576 Y65.5863
G01 X25.2860 Y65.6649
G01 X25.2893 Y65.6748
G01 X25.3096 Y65.7551
G01 X25.3118 Y65.7650
G01 X25.3254 Y65.8566
G01 X25.3261 Y65.8667
G01 X25.3300 Y65.9500
G01 X25.3261 Y66.0333
G01 X25.3254 Y66.0434
G01 X25.3118 Y66.1350
G01 X25.3096 Y66.1449
G01 X25.2893 Y66.2252
G01 X25.2860 Y66.2351
G01 X25.2576 Y66.3137
G01 X25.2180 Y66.3975
G01 X25.1751 Y66.4695
G01 X25.1642 Y66.4858
G01 X25.1204 Y66.5449
G01 X25.1079 Y66.5601
G01 X25.0518 Y66.6218
G01 X24.9901 Y66.6779
G01 X24.9823 Y66.6846
G01 X24.9076 Y66.7400
G01 X24.8364 Y66.7830
G01 X24.8191 Y66.7922
G01 X24.7525 Y66.8237
G01 X24.7344 Y66.8312
G01 X24.6552 Y66.8593
G01 X24.5749 Y66.8796
G01 X24.5650 Y66.8818
G01 X24.4734 Y66.8954
G01 X24.3849 Y66.8999
G01 X24.3702 Y66.8998
G01 X24.2866 Y66.8954
G01 X24.1950 Y66.8818
G01 X24.1851 Y66.8796
G01 X24.1048 Y66.8593
G01 X24.0256 Y66.8312
G01 X24.0118 Y66.8257
G01 X23.9325 Y66.7880
G01 X23.8605 Y66.7451
G01 X23.8442 Y66.7342
G01 X23.7851 Y66.6904
G01 X23.7699 Y66.6779
G01 X23.7082 Y66.6218
G01 X23.6612 Y66.5703
G01 X23.5851 Y66.5702
G01 X23.5251 Y66.5672
G01 X23.5106 Y66.5656
G01 X23.4564 Y66.5575
G01 X23.4419 Y66.5545
G01 X23.3844 Y66.5398
G01 X23.3274 Y66.5197
G01 X23.3092 Y66.5122
G01 X23.2555 Y66.4866
G01 X23.2037 Y66.4558
G01 X23.1874 Y66.4449
G01 X23.1397 Y66.4093
G01 X23.0913 Y66.3657
G01 X22.9558 Y66.2303
G01 X18.2182 Y66.2303
G01 X18.7240 Y66.7395
G01 X18.7663 Y66.7861
G01 X18.7766 Y66.7991
G01 X18.8107 Y66.8456
G01 X18.8171 Y66.8558
G01 X18.8466 Y66.9055
G01 X18.8519 Y66.9162
G01 X18.8763 Y66.9685
G01 X18.8802 Y66.9784
G01 X18.8966 Y67.0245
G01 X18.8998 Y67.0342
G01 X18.9030 Y67.0457
G01 X18.9145 Y67.0919
G01 X18.9179 Y67.1085
G01 X18.9269 Y67.1707
G01 X18.9278 Y67.1826
G01 X18.9302 Y67.2351
G01 X18.9303 Y68.2829
G01 X18.9373 Y68.2911
G01 X18.9431 Y68.2985
G01 X18.9811 Y68.3497
G01 X18.9920 Y68.3661
G01 X19.0298 Y68.4296
G01 X19.0613 Y68.4957
G01 X19.0688 Y68.5139
G01 X19.0936 Y68.5838
G01 X19.1115 Y68.6546
G01 X19.1137 Y68.6645
G01 X19.1259 Y68.7464
G01 X19.1298 Y68.8202
G01 X19.1299 Y68.8349
G01 X19.1259 Y68.9136
G01 X19.1153 Y68.9862
G01 X19.1115 Y69.0054
G01 X19.0936 Y69.0762
G01 X19.0688 Y69.1461
G01 X19.0613 Y69.1643
G01 X19.0340 Y69.2219
G01 X19.0248 Y69.2392
G01 X18.9869 Y69.3021
G01 X18.9373 Y69.3689
G01 X18.9306 Y69.3767
G01 X18.8810 Y69.4310
G01 X18.8267 Y69.4806
G01 X18.8189 Y69.4873
G01 X18.7521 Y69.5369
G01 X18.6892 Y69.5748
G01 X18.6719 Y69.5840
G01 X18.6143 Y69.6113
G01 X18.5961 Y69.6188
G01 X18.5262 Y69.6436
G01 X18.4554 Y69.6615
G01 X18.4362 Y69.6653
G01 X18.3636 Y69.6759
G01 X18.3535 Y69.6766
G01 X18.2800 Y69.6800
G01 X18.2065 Y69.6766
G01 X18.1964 Y69.6759
G01 X18.1145 Y69.6637
G01 X18.0427 Y69.6460
G01 X18.0239 Y69.6403
G01 X17.9546 Y69.6152
G01 X17.8796 Y69.5798
G01 X17.8161 Y69.5420
G01 X17.7997 Y69.5311
G01 X17.7411 Y69.4873
G01 X17.6861 Y69.4378
G01 X17.6722 Y69.4239
G01 X17.6227 Y69.3689
G01 X17.5789 Y69.3103
G01 X17.5680 Y69.2939
G01 X17.5302 Y69.2304
G01 X17.4987 Y69.1643
G01 X17.4912 Y69.1461
G01 X17.4697 Y69.0861
G01 X17.4652 Y69.0717
G01 X17.4463 Y68.9955
G01 X17.4353 Y68.9231
G01 X17.4334 Y68.9035
G01 X17.4302 Y68.8398
G01 X17.4301 Y68.8251
G01 X17.4341 Y68.7464
G01 X17.4447 Y68.6738
G01 X17.4473 Y68.6598
G01 X17.4640 Y68.5927
G01 X17.4680 Y68.5789
G01 X17.4929 Y68.5092
G01 X17.4967 Y68.5000
G01 X17.5097 Y68.4724
G01 X17.5097 Y67.5327
G01 X16.6033 Y66.6200
G01 X16.1650 Y66.6200
G01 X16.1454 Y66.6190
G01 X16.1259 Y66.6161
G01 X16.1115 Y66.6127
G01 X16.1021 Y66.6099
G01 X16.0929 Y66.6065
G01 X16.0793 Y66.6007
G01 X16.0663 Y66.5940
G01 X16.0579 Y66.5889
G01 X16.0458 Y66.5806
G01 X16.0343 Y66.5714
G01 X16.0236 Y66.5614
G01 X16.0136 Y66.5507
G01 X16.0044 Y66.5392
G01 X15.9988 Y66.5312
G01 X15.9935 Y66.5229
G01 X15.9864 Y66.5101
G01 X15.9803 Y66.4967
G01 X15.9767 Y66.4875
G01 X15.9710 Y66.4687
G01 X15.9680 Y66.4543
G01 X15.9660 Y66.4396
G01 X15.9650 Y66.4200
G01 X15.9650 Y64.6200
G01 X15.9660 Y64.6004
G01 X15.9680 Y64.5857
G01 X15.9723 Y64.5665
G01 X15.9785 Y64.5479
G01 X15.9864 Y64.5299
G01 X15.9961 Y64.5129
G01 X16.0074 Y64.4969
G01 X16.0202 Y64.4821
G01 X16.0307 Y64.4718
G01 X16.0458 Y64.4594
G01 X16.0621 Y64.4485
G01 X16.0793 Y64.4393
G01 X16.0929 Y64.4335
G01 X16.1115 Y64.4273
G01 X16.1259 Y64.4239
G01 X16.1454 Y64.4210
G01 X16.1650 Y64.4200
G00 Z2.0000
G00 X17.9172 Y64.3722
G01 F60.00
G01 Z-0.0500
G01 F100.00
G01 X17.9459 Y64.3772
G01 X17.9806 Y64.3823
G01 X18.0070 Y64.3856
G01 X18.0375 Y64.3878
G01 X18.0863 Y64.3900
G01 X18.6954 Y64.3902
G01 X18.7004 Y64.4097
G01 X18.7042 Y64.4229
G01 X18.7131 Y64.4497
G01 X17.9484 Y64.4497
G01 X17.9421 Y64.4309
G01 X17.9322 Y64.4052
G01 X17.9267 Y64.3926
G01 X17.9172 Y64.3722
G00 Z2.0000
G00 X18.8481 Y62.3600
G01 F60.00
G01 Z-0.0500
G01 F100.00
G01 X18.8344 Y62.3738
G01 X18.8160 Y62.3941
G01 X18.7986 Y62.4153
G01 X18.7903 Y62.4262
G01 X18.7745 Y62.4486
G01 X18.7599 Y62.4718
G01 X18.7463 Y62.4956
G01 X18.7390 Y62.5098
G01 X18.4881 Y62.5098
G01 X17.2658 Y61.2934
G01 X17.2603 Y61.2576
G01 X17.2551 Y61.2315
G01 X17.2374 Y61.1598
G01 X17.2305 Y61.1349
G01 X17.2214 Y61.1072
G01 X17.1967 Y61.0387
G01 X17.1916 Y61.0258
G01 X17.1806 Y61.0010
G01 X17.1554 Y60.9477
G01 X17.1435 Y60.9241
G01 X17.1295 Y60.8993
G01 X17.0922 Y60.8373
G01 X17.0769 Y60.8144
G01 X17.0687 Y60.8031
G01 X17.0256 Y60.7453
G01 X17.0090 Y60.7249
G01 X16.9909 Y60.7046
G01 X17.0222 Y60.7123
G01 X17.0484 Y60.7174
G01 X17.1475 Y60.7321
G01 X17.1749 Y60.7348
G01 X17.1890 Y60.7357
G01 X17.2700 Y60.7396
G01 X18.0450 Y61.5144
G01 X18.0944 Y61.5591
G01 X18.1147 Y61.5757
G01 X18.1666 Y61.6141
G01 X18.1894 Y61.6294
G01 X18.2329 Y61.6556
G01 X18.2577 Y61.6696
G01 X18.2813 Y61.6815
G01 X18.3151 Y61.6975
G01 X18.3399 Y61.7085
G01 X18.3528 Y61.7137
G01 X18.4010 Y61.7311
G01 X18.4287 Y61.7402
G01 X18.4536 Y61.7470
G01 X18.5043 Y61.7595
G01 X18.5174 Y61.7623
G01 X18.5437 Y61.7668
G01 X18.5806 Y61.7723
G01 X18.6070 Y61.7756
G01 X18.6353 Y61.7777
G01 X18.6800 Y61.7798
G01 X18.6800 Y61.9600
G01 X18.6802 Y61.9738
G01 X18.6815 Y62.0013
G01 X18.6842 Y62.0287
G01 X18.6883 Y62.0560
G01 X18.6937 Y62.0830
G01 X18.7004 Y62.1097
G01 X18.7042 Y62.1229
G01 X18.7129 Y62.1491
G01 X18.7228 Y62.1748
G01 X18.7283 Y62.1874
G01 X18.7400 Y62.2122
G01 X18.7463 Y62.2244
G01 X18.7599 Y62.2482
G01 X18.7745 Y62.2714
G01 X18.7823 Y62.2827
G01 X18.7986 Y62.3047
G01 X18.8160 Y62.3259
G01 X18.8251 Y62.3361
G01 X18.8344 Y62.3462
G01 X18.8481 Y62.3600
G00 Z2.0000
G00 X21.6319 Y60.0600
G01 F60.00
G01 Z-0.0500
G01 F100.00
G01 X21.6455 Y60.0462
G01 X21.6640 Y60.0259
G01 X21.6814 Y60.0047
G01 X21.6977 Y59.9827
G01 X21.7129 Y59.9599
G01 X21.7270 Y59.9364
G01 X21.7337 Y59.9244
G01 X21.7460 Y59.8999
G01 X21.7572 Y59.8748
G01 X21.7671 Y59.8491
G01 X21.7758 Y59.8229
G01 X21.7831 Y59.7964
G01 X21.7863 Y59.7830
G01 X21.7917 Y59.7560
G01 X21.7958 Y59.7287
G01 X21.7985 Y59.7013
G01 X21.7993 Y59.6875
G01 X21.8000 Y59.6600
G01 X21.8000 Y58.1600
G01 X21.7993 Y58.1325
G01 X21.7985 Y58.1187
G01 X21.7958 Y58.0913
G01 X21.7939 Y58.0776
G01 X21.7892 Y58.0505
G01 X21.7863 Y58.0370
G01 X21.7796 Y58.0103
G01 X21.7758 Y57.9971
G01 X21.7671 Y57.9709
G01 X21.7572 Y57.9452
G01 X21.7460 Y57.9201
G01 X21.7400 Y57.9078
G01 X21.7270 Y57.8836
G01 X21.7129 Y57.8601
G01 X21.6977 Y57.8373
G01 X21.6897 Y57.8262
G01 X21.6728 Y57.8046
G01 X21.6549 Y57.7839
G01 X21.6360 Y57.7640
G01 X21.6161 Y57.7451
G01 X21.6059 Y57.7360
G01 X21.5847 Y57.7186
G01 X21.5738 Y57.7103
G01 X21.5514 Y57.6945
G01 X21.5399 Y57.6871
G01 X21.5164 Y57.6729
G01 X21.4922 Y57.6600
G01 X21.4674 Y57.6483
G01 X21.4420 Y57.6377
G01 X21.4161 Y57.6284
G01 X21.4029 Y57.6242
G01 X21.3764 Y57.6169
G01 X21.3630 Y57.6137
G01 X21.3360 Y57.6083
G01 X21.3103 Y57.6044
G01 X21.3103 Y57.3260
G01 X27.9504 Y57.3260
G01 X27.9363 Y57.3506
G01 X27.9240 Y57.3751
G01 X27.9183 Y57.3876
G01 X27.9077 Y57.4130
G01 X27.8984 Y57.4389
G01 X27.8942 Y57.4521
G01 X27.8904 Y57.4653
G01 X27.8837 Y57.4920
G01 X27.8783 Y57.5190
G01 X27.8742 Y57.5463
G01 X27.8715 Y57.5737
G01 X27.8707 Y57.5875
G01 X27.8700 Y57.6150
G01 X27.8700 Y58.8576
G01 X27.8514 Y58.8445
G01 X27.8282 Y58.8299
G01 X27.8044 Y58.8163
G01 X27.7922 Y58.8100
G01 X27.7674 Y58.7983
G01 X27.7548 Y58.7928
G01 X27.7291 Y58.7829
G01 X27.7160 Y58.7784
G01 X27.7029 Y58.7742
G01 X27.6764 Y58.7669
G01 X27.6630 Y58.7637
G01 X27.6360 Y58.7583
G01 X27.6087 Y58.7542
G01 X27.5950 Y58.7527
G01 X27.5813 Y58.7515
G01 X27.5538 Y58.7502
G01 X25.5262 Y58.7502
G01 X25.4987 Y58.7515
G01 X25.4713 Y58.7542
G01 X25.4440 Y58.7583
G01 X25.4170 Y58.7637
G01 X25.3903 Y58.7704
G01 X25.3639 Y58.7784
G01 X25.3380 Y58.7877
G01 X25.3252 Y58.7928
G01 X25.3001 Y58.8040
G01 X25.2878 Y58.8100
G01 X25.2636 Y58.8230
G01 X25.2401 Y58.8371
G01 X25.2173 Y58.8523
G01 X25.1953 Y58.8686
G01 X25.1846 Y58.8772
G01 X25.1639 Y58.8951
G01 X25.1440 Y58.9140
G01 X25.1251 Y58.9339
G01 X25.1072 Y58.9546
G01 X25.0986 Y58.9653
G01 X25.0823 Y58.9873
G01 X25.0671 Y59.0101
G01 X25.0530 Y59.0336
G01 X25.0400 Y59.0578
G01 X25.0340 Y59.0701
G01 X25.0228 Y59.0952
G01 X25.0177 Y59.1080
G01 X25.0084 Y59.1339
G01 X25.0004 Y59.1603
G01 X24.9937 Y59.1870
G01 X24.9883 Y59.2140
G01 X24.9842 Y59.2413
G01 X24.9815 Y59.2687
G01 X24.9802 Y59.2962
G01 X24.9800 Y60.2698
G01 X21.7667 Y60.2698
G01 X21.7572 Y60.2452
G01 X21.7517 Y60.2326
G01 X21.7400 Y60.2078
G01 X21.7270 Y60.1836
G01 X21.7129 Y60.1601
G01 X21.7055 Y60.1486
G01 X21.6897 Y60.1262
G01 X21.6728 Y60.1046
G01 X21.6549 Y60.0839
G01 X21.6456 Y60.0738
G01 X21.6319 Y60.0600
G00 Z2.0000
G00 X22.1254 Y59.9098
G01 F60.00
G01 Z-0.0500
G01 F100.00
G01 X22.1323 Y59.8841
G01 X22.1375 Y59.8620
G01 X22.1422 Y59.8399
G01 X22.1464 Y59.8177
G01 X22.1500 Y59.7953
G01 X22.1530 Y59.7729
G01 X22.1555 Y59.7504
G01 X22.1575 Y59.7278
G01 X22.1589 Y59.7052
G01 X22.1597 Y59.6826
G01 X22.1600 Y59.6600
G01 X22.1600 Y58.1600
G01 X22.1597 Y58.1374
G01 X22.1589 Y58.1148
G01 X22.1575 Y58.0922
G01 X22.1555 Y58.0696
G01 X22.1530 Y58.0471
G01 X22.1500 Y58.0247
G01 X22.1464 Y58.0023
G01 X22.1422 Y57.9801
G01 X22.1375 Y57.9580
G01 X22.1323 Y57.9359
G01 X22.1265 Y57.9141
G01 X22.1202 Y57.8923
G01 X22.1133 Y57.8707
G01 X22.1060 Y57.8494
G01 X22.0981 Y57.8281
G01 X22.0896 Y57.8071
G01 X22.0807 Y57.7863
G01 X22.0713 Y57.7659
G01 X22.0614 Y57.7456
G01 X22.0510 Y57.7257
G01 X22.0401 Y57.7059
G01 X22.0285 Y57.6860
G01 X27.5100 Y57.6860
G01 X27.5100 Y58.3900
G01 X25.5400 Y58.3900
G01 X25.5174 Y58.3903
G01 X25.4947 Y58.3911
G01 X25.4722 Y58.3925
G01 X25.4496 Y58.3945
G01 X25.4271 Y58.3970
G01 X25.4047 Y58.4000
G01 X25.3823 Y58.4036
G01 X25.3601 Y58.4078
G01 X25.3380 Y58.4125
G01 X25.3159 Y58.4177
G01 X25.2941 Y58.4235
G01 X25.2723 Y58.4298
G01 X25.2507 Y58.4367
G01 X25.2294 Y58.4440
G01 X25.2081 Y58.4519
G01 X25.1871 Y58.4604
G01 X25.1663 Y58.4693
G01 X25.1459 Y58.4787
G01 X25.1256 Y58.4886
G01 X25.1057 Y58.4990
G01 X25.0859 Y58.5099
G01 X25.0665 Y58.5212
G01 X25.0473 Y58.5330
G01 X25.0285 Y58.5453
G01 X25.0099 Y58.5581
G01 X24.9917 Y58.5713
G01 X24.9737 Y58.5849
G01 X24.9562 Y58.5990
G01 X24.9389 Y58.6135
G01 X24.9221 Y58.6284
G01 X24.9056 Y58.6437
G01 X24.8895 Y58.6595
G01 X24.8737 Y58.6756
G01 X24.8584 Y58.6921
G01 X24.8435 Y58.7089
G01 X24.8290 Y58.7262
G01 X24.8149 Y58.7438
G01 X24.8013 Y58.7617
G01 X24.7881 Y58.7799
G01 X24.7753 Y58.7985
G01 X24.7630 Y58.8173
G01 X24.7512 Y58.8365
G01 X24.7398 Y58.8560
G01 X24.7290 Y58.8757
G01 X24.7186 Y58.8957
G01 X24.7087 Y58.9159
G01 X24.6993 Y58.9363
G01 X24.6904 Y58.9571
G01 X24.6819 Y58.9782
G01 X24.6740 Y58.9994
G01 X24.6667 Y59.0208
G01 X24.6598 Y59.0423
G01 X24.6535 Y59.0641
G01 X24.6477 Y59.0859
G01 X24.6425 Y59.1080
G01 X24.6378 Y59.1301
G01 X24.6336 Y59.1523
G01 X24.6300 Y59.1747
G01 X24.6270 Y59.1971
G01 X24.6245 Y59.2196
G01 X24.6225 Y59.2422
G01 X24.6211 Y59.2648
G01 X24.6203 Y59.2874
G01 X24.6200 Y59.3100
G01 X24.6200 Y59.9098
G01 X22.1254 Y59.9098
G00 Z2.0000
G00 X24.6200 Y62.7098
G01 F60.00
G01 Z-0.0500
G01 F100.00
G01 X22.1586 Y62.7098
G01 X22.1572 Y62.6879
G01 X22.1552 Y62.6657
G01 X22.1526 Y62.6435
G01 X22.1495 Y62.6214
G01 X22.1459 Y62.5994
G01 X22.1417 Y62.5774
G01 X22.1370 Y62.5556
G01 X22.1318 Y62.5339
G01 X22.1254 Y62.5102
G01 X24.6200 Y62.5102
G01 X24.6200 Y62.7098
G00 Z2.0000
G00 X24.9800 Y63.0698
G01 F60.00
G01 Z-0.0500
G01 F100.00
G01 X21.8017 Y63.0698
G01 X21.7998 Y62.7433
G01 X21.7983 Y62.7161
G01 X21.7955 Y62.6891
G01 X21.7914 Y62.6622
G01 X21.7860 Y62.6356
G01 X21.7828 Y62.6224
G01 X21.7755 Y62.5962
G01 X21.7714 Y62.5832
G01 X21.7622 Y62.5577
G01 X21.7517 Y62.5326
G01 X21.7460 Y62.5201
G01 X21.7400 Y62.5078
G01 X21.7270 Y62.4836
G01 X21.7201 Y62.4718
G01 X21.7055 Y62.4486
G01 X21.6897 Y62.4262
G01 X21.6814 Y62.4153
G01 X21.6640 Y62.3941
G01 X21.6549 Y62.3839
G01 X21.6455 Y62.3738
G01 X21.6319 Y62.3600
G01 X21.6456 Y62.3462
G01 X21.6549 Y62.3361
G01 X21.6728 Y62.3154
G01 X21.6897 Y62.2938
G01 X21.7055 Y62.2714
G01 X21.7129 Y62.2599
G01 X21.7270 Y62.2364
G01 X21.7400 Y62.2122
G01 X21.7517 Y62.1874
G01 X21.7572 Y62.1748
G01 X21.7667 Y62.1502
G01 X24.9800 Y62.1502
G01 X24.9800 Y63.0698
G00 Z2.0000
G00 X25.2261 Y64.9502
G01 F60.00
G01 Z-0.0500
G01 F100.00
G01 X27.2585 Y64.9502
G01 X25.5817 Y66.6198
G01 X25.5048 Y66.6198
G01 X25.5289 Y66.5791
G01 X25.5423 Y66.5540
G01 X25.5791 Y66.4764
G01 X25.5901 Y66.4517
G01 X25.5953 Y66.4387
G01 X25.6250 Y66.3564
G01 X25.6341 Y66.3286
G01 X25.6409 Y66.3038
G01 X25.6588 Y66.2324
G01 X25.6623 Y66.2178
G01 X25.6674 Y66.1916
G01 X25.6803 Y66.1057
G01 X25.6836 Y66.0792
G01 X25.6857 Y66.0510
G01 X25.6893 Y65.9775
G01 X25.6900 Y65.9500
G01 X25.6893 Y65.9225
G01 X25.6857 Y65.8490
G01 X25.6836 Y65.8208
G01 X25.6803 Y65.7943
G01 X25.6674 Y65.7084
G01 X25.6623 Y65.6822
G01 X25.6409 Y65.5962
G01 X25.6341 Y65.5714
G01 X25.6250 Y65.5436
G01 X25.5953 Y65.4613
G01 X25.5846 Y65.4356
G01 X25.5477 Y65.3570
G01 X25.5358 Y65.3334
G01 X25.5289 Y65.3209
G01 X25.4839 Y65.2454
G01 X25.4695 Y65.2227
G01 X25.4534 Y65.1997
G01 X25.4096 Y65.1406
G01 X25.3934 Y65.1199
G01 X25.3747 Y65.0981
G01 X25.3253 Y65.0436
G01 X25.3063 Y65.0237
G01 X25.2864 Y65.0047
G01 X25.2261 Y64.9502
G00 Z2.0000
G00 X25.9226 Y65.3102
G01 F60.00
G01 Z-0.0500
G01 F100.00
G01 X26.3867 Y65.3102
G01 X26.0258 Y65.6696
G01 X26.0222 Y65.6471
G01 X26.0182 Y65.6255
G01 X26.0137 Y65.6041
G01 X26.0080 Y65.5801
G01 X25.9848 Y65.4883
G01 X25.9789 Y65.4679
G01 X25.9717 Y65.4450
G01 X25.9639 Y65.4223
G01 X25.9391 Y65.3530
G01 X25.9312 Y65.3316
G01 X25.9226 Y65.3102
G00 Z2.0000
G00 X23.2548 Y68.8398
G01 F60.00
G01 Z-0.0500
G01 F100.00
G01 X23.2503 Y68.9259
G01 X23.2363 Y69.0199
G01 X23.2341 Y69.0298
G01 X23.2132 Y69.1124
G01 X23.2099 Y69.1223
G01 X23.1807 Y69.2032
G01 X23.1400 Y69.2893
G01 X23.1350 Y69.2982
G01 X23.0908 Y69.3715
G01 X23.0340 Y69.4482
G01 X23.0273 Y69.4560
G01 X22.9694 Y69.5194
G01 X22.9060 Y69.5773
G01 X22.8982 Y69.5840
G01 X22.8215 Y69.6408
G01 X22.7482 Y69.6850
G01 X22.7393 Y69.6900
G01 X22.6532 Y69.7307
G01 X22.5723 Y69.7599
G01 X22.5624 Y69.7632
G01 X22.4798 Y69.7841
G01 X22.4699 Y69.7863
G01 X22.3759 Y69.8003
G01 X22.3658 Y69.8010
G01 X22.2800 Y69.8050
G01 X22.1942 Y69.8010
G01 X22.1841 Y69.8003
G01 X22.0901 Y69.7863
G01 X22.0802 Y69.7841
G01 X21.9976 Y69.7632
G01 X21.9877 Y69.7599
G01 X21.9068 Y69.7307
G01 X21.8207 Y69.6900
G01 X21.8118 Y69.6850
G01 X21.7385 Y69.6408
G01 X21.6618 Y69.5840
G01 X21.6540 Y69.5773
G01 X21.5906 Y69.5194
G01 X21.5327 Y69.4560
G01 X21.5260 Y69.4482
G01 X21.4692 Y69.3715
G01 X21.4250 Y69.2982
G01 X21.4200 Y69.2893
G01 X21.3793 Y69.2032
G01 X21.3501 Y69.1223
G01 X21.3468 Y69.1124
G01 X21.3259 Y69.0298
G01 X21.3237 Y69.0199
G01 X21.3097 Y68.9259
G01 X21.3090 Y68.9158
G01 X21.3050 Y68.8300
G01 X21.3090 Y68.7442
G01 X21.3097 Y68.7341
G01 X21.3237 Y68.6401
G01 X21.3259 Y68.6302
G01 X21.3468 Y68.5476
G01 X21.3501 Y68.5377
G01 X21.3793 Y68.4568
G01 X21.4200 Y68.3707
G01 X21.4250 Y68.3618
G01 X21.4692 Y68.2885
G01 X21.5260 Y68.2118
G01 X21.5327 Y68.2040
G01 X21.5906 Y68.1406
G01 X21.6540 Y68.0827
G01 X21.6618 Y68.0760
G01 X21.7385 Y68.0192
G01 X21.8118 Y67.9750
G01 X21.8207 Y67.9700
G01 X21.9068 Y67.9293
G01 X21.9877 Y67.9001
G01 X21.9976 Y67.8968
G01 X22.0802 Y67.8759
G01 X22.0901 Y67.8737
G01 X22.1841 Y67.8597
G01 X22.1942 Y67.8590
G01 X22.2800 Y67.8550
G01 X22.3658 Y67.8590
G01 X22.3759 Y67.8597
G01 X22.4699 Y67.8737
G01 X22.4798 Y67.8759
G01 X22.5624 Y67.8968
G01 X22.5723 Y67.9001
G01 X22.6532 Y67.9293
G01 X22.7393 Y67.9700
G01 X22.7482 Y67.9750
G01 X22.8215 Y68.0192
G01 X22.8982 Y68.0760
G01 X22.9060 Y68.0827
G01 X22.9694 Y68.1406
G01 X23.0273 Y68.2040
G01 X23.0340 Y68.2118
G01 X23.0908 Y68.2885
G01 X23.1350 Y68.3618
G01 X23.1400 Y68.3707
G01 X23.1807 Y68.4568
G01 X23.2099 Y68.5377
G01 X23.2132 Y68.5476
G01 X23.2341 Y68.6302
G01 X23.2363 Y68.6401
G01 X23.2503 Y68.7341
G01 X23.2548 Y68.8202
G01 X23.2548 Y68.8398
G00 Z2.0000
G00 X23.0385 Y69.9283
G01 F60.00
G01 Z-0.0500
G01 F100.00
G01 X23.0391 Y69.9298
G01 X23.0364 Y69.9298
G01 X23.0385 Y69.9283
G00 Z2.0000
G00 X20.7829 Y69.9298
G01 F60.00
G01 Z-0.0500
G01 F100.00
G01 X20.8258 Y69.9095
G01 X20.8495 Y69.8976
G01 X20.8743 Y69.8836
G01 X20.9290 Y69.8508
G01 X20.9517 Y69.8364
G01 X20.9633 Y69.8285
G01 X21.0259 Y69.7823
G01 X21.0364 Y69.7743
G01 X21.0568 Y69.7576
G01 X21.1258 Y69.6952
G01 X21.1452 Y69.6758
G01 X21.2009 Y69.6145
G01 X21.2391 Y69.6657
G01 X21.2557 Y69.6861
G01 X21.3171 Y69.7541
G01 X21.3360 Y69.7740
G01 X21.3559 Y69.7929
G01 X21.4123 Y69.8440
G01 X21.4340 Y69.8627
G01 X21.4548 Y69.8789
G01 X21.5236 Y69.9298
G01 X20.7829 Y69.9298
G00 Z2.0000
G00 X18.7829 Y69.9298
G01 F60.00
G01 Z-0.0500
G01 F100.00
G01 X18.8258 Y69.9095
G01 X18.8495 Y69.8976
G01 X18.8743 Y69.8836
G01 X18.9405 Y69.8437
G01 X18.9633 Y69.8285
G01 X18.9747 Y69.8203
G01 X19.0364 Y69.7743
G01 X19.0568 Y69.7576
G01 X19.1157 Y69.7046
G01 X19.1356 Y69.6856
G01 X19.1546 Y69.6657
G01 X19.1974 Y69.6184
G01 X19.2076 Y69.6068
G01 X19.2243 Y69.5864
G01 X19.2703 Y69.5247
G01 X19.2800 Y69.5111
G01 X19.2897 Y69.5247
G01 X19.3357 Y69.5864
G01 X19.3524 Y69.6068
G01 X19.3626 Y69.6184
G01 X19.4054 Y69.6657
G01 X19.4244 Y69.6856
G01 X19.4443 Y69.7046
G01 X19.5032 Y69.7576
G01 X19.5236 Y69.7743
G01 X19.5853 Y69.8203
G01 X19.5967 Y69.8285
G01 X19.6195 Y69.8437
G01 X19.6857 Y69.8836
G01 X19.7105 Y69.8976
G01 X19.7342 Y69.9095
G01 X19.7771 Y69.9298
G01 X18.7829 Y69.9298
G00 Z2.0000
G00 X20.0010 Y66.9503
G01 F60.00
G01 Z-0.0500
G01 F100.00
G01 X19.7206 Y67.2306
G01 X19.7049 Y67.2468
G01 X19.6895 Y67.2633
G01 X19.6503 Y67.3071
G01 X19.6500 Y67.2174
G01 X19.6470 Y67.1498
G01 X19.6457 Y67.1265
G01 X19.6432 Y67.0984
G01 X19.6408 Y67.0767
G01 X19.6378 Y67.0550
G01 X19.6277 Y66.9873
G01 X19.6205 Y66.9503
G01 X20.0010 Y66.9503
G00 Z2.0000
G00 X20.8701 Y66.5903
G01 F60.00
G01 Z-0.0500
G01 F100.00
G01 X19.9656 Y67.4950
G01 X19.9312 Y67.5327
G01 X19.9125 Y67.5545
G01 X19.8963 Y67.5752
G01 X19.8659 Y67.6166
G01 X19.8579 Y67.6281
G01 X19.8436 Y67.6509
G01 X19.8172 Y67.6952
G01 X19.8055 Y67.7170
G01 X19.7342 Y67.7505
G01 X19.7105 Y67.7624
G01 X19.6857 Y67.7764
G01 X19.6310 Y67.8092
G01 X19.6083 Y67.8236
G01 X19.5967 Y67.8315
G01 X19.5341 Y67.8777
G01 X19.5133 Y67.8939
G01 X19.4916 Y67.9126
G01 X19.4342 Y67.9648
G01 X19.4244 Y67.9744
G01 X19.4054 Y67.9943
G01 X19.3626 Y68.0416
G01 X19.3439 Y68.0633
G01 X19.3277 Y68.0841
G01 X19.2903 Y68.1346
G01 X19.2903 Y67.2400
G01 X19.2896 Y67.2125
G01 X19.2866 Y67.1520
G01 X19.2850 Y67.1343
G01 X19.2817 Y67.1078
G01 X19.2750 Y67.0620
G01 X19.2699 Y67.0322
G01 X19.2637 Y67.0044
G01 X19.2489 Y66.9456
G01 X19.2445 Y66.9303
G01 X19.2355 Y66.9032
G01 X19.2187 Y66.8560
G01 X19.2098 Y66.8330
G01 X19.1976 Y66.8053
G01 X19.1779 Y66.7634
G01 X19.1652 Y66.7379
G01 X19.1575 Y66.7239
G01 X19.1266 Y66.6718
G01 X19.1114 Y66.6477
G01 X19.0941 Y66.6229
G01 X19.0699 Y66.5903
G01 X20.8701 Y66.5903
G00 Z2.0000
G00 X15.6300 Y67.9800
G01 F60.00
G01 Z-0.0500
G01 F100.00
G01 X16.9349 Y67.9801
G01 X16.9545 Y67.9815
G01 X16.9691 Y67.9839
G01 X16.9835 Y67.9873
G01 X17.0021 Y67.9935
G01 X17.0157 Y67.9993
G01 X17.0329 Y68.0085
G01 X17.0492 Y68.0194
G01 X17.0607 Y68.0286
G01 X17.0748 Y68.0421
G01 X17.0876 Y68.0569
G01 X17.0989 Y68.0729
G01 X17.1086 Y68.0899
G01 X17.1165 Y68.1079
G01 X17.1227 Y68.1265
G01 X17.1270 Y68.1457
G01 X17.1295 Y68.1653
G01 X17.1300 Y68.1800
G01 X17.1302 Y69.1408
G01 X18.2715 Y70.2898
G01 X23.4149 Y70.2899
G01 X23.4672 Y70.2926
G01 X23.5229 Y70.3009
G01 X23.5778 Y70.3146
G01 X23.5877 Y70.3179
G01 X23.6322 Y70.3340
G01 X23.6832 Y70.3581
G01 X23.6920 Y70.3632
G01 X23.7322 Y70.3875
G01 X23.7777 Y70.4212
G01 X23.7855 Y70.4279
G01 X23.8203 Y70.4598
G01 X24.6797 Y70.4598
G01 X24.7145 Y70.4279
G01 X24.7223 Y70.4212
G01 X24.7678 Y70.3875
G01 X24.8080 Y70.3632
G01 X24.8168 Y70.3581
G01 X24.8678 Y70.3340
G01 X24.9123 Y70.3179
G01 X24.9222 Y70.3146
G01 X24.9771 Y70.3009
G01 X25.0328 Y70.2926
G01 X25.0851 Y70.2899
G01 X33.2997 Y70.2898
G01 X34.4300 Y69.1595
G01 X34.4300 Y68.3800
G01 X34.4310 Y68.3603
G01 X34.4339 Y68.3409
G01 X34.4387 Y68.3218
G01 X34.4435 Y68.3079
G01 X34.4493 Y68.2943
G01 X34.4585 Y68.2771
G01 X34.4694 Y68.2608
G01 X34.4786 Y68.2493
G01 X34.4921 Y68.2352
G01 X34.5031 Y68.2254
G01 X34.5148 Y68.2165
G01 X34.5313 Y68.2061
G01 X34.5488 Y68.1972
G01 X34.5625 Y68.1917
G01 X34.5765 Y68.1873
G01 X34.5957 Y68.1830
G01 X34.6103 Y68.1810
G01 X34.6251 Y68.1801
G01 X36.0398 Y68.1802
G01 X36.0594 Y68.1822
G01 X36.0787 Y68.1860
G01 X36.0975 Y68.1917
G01 X36.1112 Y68.1972
G01 X36.1287 Y68.2061
G01 X36.1452 Y68.2165
G01 X36.1607 Y68.2286
G01 X36.1714 Y68.2386
G01 X36.1846 Y68.2531
G01 X36.1962 Y68.2688
G01 X36.2063 Y68.2856
G01 X36.2147 Y68.3033
G01 X36.2213 Y68.3218
G01 X36.2261 Y68.3409
G01 X36.2285 Y68.3555
G01 X36.2299 Y68.3751
G01 X36.2300 Y69.7800
G01 X36.2290 Y69.7996
G01 X36.2270 Y69.8143
G01 X36.2227 Y69.8335
G01 X36.2183 Y69.8475
G01 X36.2128 Y69.8612
G01 X36.2063 Y69.8744
G01 X36.1989 Y69.8871
G01 X36.1876 Y69.9031
G01 X36.1782 Y69.9143
G01 X36.1679 Y69.9248
G01 X36.1531 Y69.9376
G01 X36.1371 Y69.9489
G01 X36.1244 Y69.9563
G01 X36.1067 Y69.9647
G01 X36.0929 Y69.9699
G01 X36.0787 Y69.9740
G01 X36.0643 Y69.9770
G01 X36.0447 Y69.9795
G01 X36.0300 Y69.9800
G01 X35.2505 Y69.9800
G01 X33.9503 Y71.2803
G01 X33.9155 Y71.3121
G01 X33.9003 Y71.3245
G01 X33.8663 Y71.3497
G01 X33.8540 Y71.3577
G01 X33.8132 Y71.3818
G01 X33.7622 Y71.4060
G01 X33.7177 Y71.4221
G01 X33.6990 Y71.4278
G01 X33.6529 Y71.4391
G01 X33.5972 Y71.4474
G01 X33.5871 Y71.4481
G01 X33.5400 Y71.4502
G01 X25.3303 Y71.4502
G01 X25.2955 Y71.4821
G01 X25.2877 Y71.4888
G01 X25.2422 Y71.5225
G01 X25.2020 Y71.5468
G01 X25.1932 Y71.5519
G01 X25.1421 Y71.5760
G01 X25.0977 Y71.5921
G01 X25.0878 Y71.5954
G01 X25.0329 Y71.6091
G01 X24.9772 Y71.6174
G01 X24.9671 Y71.6181
G01 X24.9200 Y71.6202
G01 X23.5800 Y71.6202
G01 X23.5329 Y71.6181
G01 X23.5228 Y71.6174
G01 X23.4671 Y71.6091
G01 X23.4122 Y71.5954
G01 X23.4023 Y71.5921
G01 X23.3579 Y71.5760
G01 X23.3153 Y71.5561
G01 X23.2980 Y71.5468
G01 X23.2619 Y71.5251
G01 X23.2496 Y71.5168
G01 X23.2123 Y71.4888
G01 X23.2045 Y71.4821
G01 X23.1697 Y71.4502
G01 X18.0300 Y71.4502
G01 X18.0182 Y71.4499
G01 X17.9728 Y71.4474
G01 X17.9614 Y71.4460
G01 X17.9165 Y71.4390
G01 X17.8710 Y71.4278
G01 X17.8600 Y71.4247
G01 X17.8504 Y71.4215
G01 X17.8124 Y71.4078
G01 X17.7972 Y71.4013
G01 X17.7551 Y71.3809
G01 X17.7160 Y71.3577
G01 X17.7063 Y71.3515
G01 X17.6617 Y71.3183
G01 X17.6269 Y71.2870
G01 X17.6184 Y71.2789
G01 X16.1384 Y69.7889
G01 X16.1079 Y69.7555
G01 X16.0973 Y69.7428
G01 X16.0703 Y69.7063
G01 X16.0636 Y69.6962
G01 X16.0539 Y69.6800
G01 X15.6300 Y69.6800
G01 X15.6153 Y69.6795
G01 X15.6006 Y69.6778
G01 X15.5813 Y69.6740
G01 X15.5625 Y69.6683
G01 X15.5443 Y69.6607
G01 X15.5356 Y69.6563
G01 X15.5229 Y69.6489
G01 X15.5069 Y69.6376
G01 X15.4921 Y69.6248
G01 X15.4818 Y69.6143
G01 X15.4754 Y69.6069
G01 X15.4638 Y69.5912
G01 X15.4561 Y69.5787
G01 X15.4493 Y69.5657
G01 X15.4435 Y69.5521
G01 X15.4387 Y69.5382
G01 X15.4349 Y69.5239
G01 X15.4322 Y69.5094
G01 X15.4310 Y69.4996
G01 X15.4301 Y69.4849
G01 X15.4300 Y68.1800
G01 X15.4310 Y68.1603
G01 X15.4339 Y68.1409
G01 X15.4373 Y68.1265
G01 X15.4435 Y68.1079
G01 X15.4514 Y68.0899
G01 X15.4611 Y68.0729
G01 X15.4694 Y68.0608
G01 X15.4818 Y68.0457
G01 X15.4957 Y68.0318
G01 X15.5108 Y68.0194
G01 X15.5271 Y68.0085
G01 X15.5443 Y67.9993
G01 X15.5579 Y67.9935
G01 X15.5765 Y67.9873
G01 X15.5909 Y67.9839
G01 X15.6103 Y67.9810
G01 X15.6300 Y67.9800
G00 Z2.0000
G00 X15.2548 Y68.8398
G01 F60.00
G01 Z-0.0500
G01 F100.00
G01 X15.2503 Y68.9259
G01 X15.2363 Y69.0199
G01 X15.2341 Y69.0298
G01 X15.2132 Y69.1124
G01 X15.2099 Y69.1223
G01 X15.1807 Y69.2032
G01 X15.1400 Y69.2893
G01 X15.1350 Y69.2982
G01 X15.0908 Y69.3715
G01 X15.0340 Y69.4482
G01 X15.0273 Y69.4560
G01 X14.9694 Y69.5194
G01 X14.9060 Y69.5773
G01 X14.8982 Y69.5840
G01 X14.8215 Y69.6408
G01 X14.7482 Y69.6850
G01 X14.7393 Y69.6900
G01 X14.6532 Y69.7307
G01 X14.5723 Y69.7599
G01 X14.5624 Y69.7632
G01 X14.4798 Y69.7841
G01 X14.4699 Y69.7863
G01 X14.3759 Y69.8003
G01 X14.3658 Y69.8010
G01 X14.2800 Y69.8050
G01 X14.1942 Y69.8010
G01 X14.1841 Y69.8003
G01 X14.0901 Y69.7863
G01 X14.0802 Y69.7841
G01 X13.9976 Y69.7632
G01 X13.9877 Y69.7599
G01 X13.9068 Y69.7307
G01 X13.8207 Y69.6900
G01 X13.8118 Y69.6850
G01 X13.7385 Y69.6408
G01 X13.6618 Y69.5840
G01 X13.6540 Y69.5773
G01 X13.5906 Y69.5194
G01 X13.5327 Y69.4560
G01 X13.5260 Y69.4482
G01 X13.4692 Y69.3715
G01 X13.4250 Y69.2982
G01 X13.4200 Y69.2893
G01 X13.3793 Y69.2032
G01 X13.3501 Y69.1223
G01 X13.3468 Y69.1124
G01 X13.3259 Y69.0298
G01 X13.3237 Y69.0199
G01 X13.3097 Y68.9259
G01 X13.3090 Y68.9158
G01 X13.3050 Y68.8300
G01 X13.3090 Y68.7442
G01 X13.3097 Y68.7341
G01 X13.3237 Y68.6401
G01 X13.3259 Y68.6302
G01 X13.3468 Y68.5476
G01 X13.3501 Y68.5377
G01 X13.3793 Y68.4568
G01 X13.4200 Y68.3707
G01 X13.4250 Y68.3618
G01 X13.4692 Y68.2885
G01 X13.5260 Y68.2118
G01 X13.5327 Y68.2040
G01 X13.5906 Y68.1406
G01 X13.6540 Y68.0827
G01 X13.6618 Y68.0760
G01 X13.7385 Y68.0192
G01 X13.8118 Y67.9750
G01 X13.8207 Y67.9700
G01 X13.9068 Y67.9293
G01 X13.9877 Y67.9001
G01 X13.9976 Y67.8968
G01 X14.0802 Y67.8759
G01 X14.0901 Y67.8737
G01 X14.1841 Y67.8597
G01 X14.1942 Y67.8590
G01 X14.2800 Y67.8550
G01 X14.3658 Y67.8590
G01 X14.3759 Y67.8597
G01 X14.4699 Y67.8737
G01 X14.4798 Y67.8759
G01 X14.5624 Y67.8968
G01 X14.5723 Y67.9001
G01 X14.6532 Y67.9293
G01 X14.7393 Y67.9700
G01 X14.7482 Y67.9750
G01 X14.8215 Y68.0192
G01 X14.8982 Y68.0760
G01 X14.9060 Y68.0827
G01 X14.9694 Y68.1406
G01 X15.0273 Y68.2040
G01 X15.0340 Y68.2118
G01 X15.0908 Y68.2885
G01 X15.1350 Y68.3618
G01 X15.1400 Y68.3707
G01 X15.1807 Y68.4568
G01 X15.2099 Y68.5377
G01 X15.2132 Y68.5476
G01 X15.2341 Y68.6302
G01 X15.2363 Y68.6401
G01 X15.2503 Y68.7341
G01 X15.2548 Y68.8202
G01 X15.2548 Y68.8398
G00 Z2.0000
G00 X15.2650 Y66.6105
G01 F60.00
G01 Z-0.0500
G01 F100.00
G01 X15.2727 Y66.6440
G01 X15.2785 Y66.6659
G01 X15.2848 Y66.6877
G01 X15.2916 Y66.7092
G01 X15.2990 Y66.7306
G01 X15.3069 Y66.7518
G01 X15.3154 Y66.7728
G01 X15.3243 Y66.7936
G01 X15.3337 Y66.8141
G01 X15.3436 Y66.8343
G01 X15.3540 Y66.8543
G01 X15.3648 Y66.8740
G01 X15.3762 Y66.8935
G01 X15.3880 Y66.9127
G01 X15.4003 Y66.9315
G01 X15.4131 Y66.9501
G01 X15.4263 Y66.9683
G01 X15.4399 Y66.9863
G01 X15.4540 Y67.0038
G01 X15.4685 Y67.0211
G01 X15.4834 Y67.0379
G01 X15.4988 Y67.0544
G01 X15.5145 Y67.0706
G01 X15.5306 Y67.0863
G01 X15.5471 Y67.1016
G01 X15.5640 Y67.1165
G01 X15.5812 Y67.1310
G01 X15.5988 Y67.1451
G01 X15.6167 Y67.1588
G01 X15.6350 Y67.1720
G01 X15.6535 Y67.1847
G01 X15.6724 Y67.1970
G01 X15.6916 Y67.2088
G01 X15.7110 Y67.2202
G01 X15.7307 Y67.2311
G01 X15.7507 Y67.2414
G01 X15.7709 Y67.2513
G01 X15.7898 Y67.2600
G01 X15.6300 Y67.2600
G01 X15.6074 Y67.2603
G01 X15.5847 Y67.2611
G01 X15.5622 Y67.2625
G01 X15.5396 Y67.2645
G01 X15.5171 Y67.2670
G01 X15.4947 Y67.2700
G01 X15.4723 Y67.2736
G01 X15.4501 Y67.2778
G01 X15.4279 Y67.2825
G01 X15.4059 Y67.2877
G01 X15.3840 Y67.2935
G01 X15.3623 Y67.2998
G01 X15.3407 Y67.3067
G01 X15.3193 Y67.3140
G01 X15.2981 Y67.3219
G01 X15.2771 Y67.3304
G01 X15.2563 Y67.3393
G01 X15.2359 Y67.3487
G01 X15.2156 Y67.3586
G01 X15.1957 Y67.3690
G01 X15.1657 Y67.3858
G01 X15.1183 Y67.3574
G01 X15.0981 Y67.3456
G01 X15.0776 Y67.3344
G01 X15.0568 Y67.3236
G01 X15.0387 Y67.3148
G01 X14.9699 Y67.2823
G01 X14.9502 Y67.2733
G01 X14.9292 Y67.2643
G01 X14.9080 Y67.2558
G01 X14.8152 Y67.2223
G01 X14.8385 Y67.2088
G01 X14.8576 Y67.1970
G01 X14.8765 Y67.1847
G01 X14.8951 Y67.1720
G01 X14.9133 Y67.1587
G01 X14.9312 Y67.1451
G01 X14.9488 Y67.1310
G01 X14.9660 Y67.1165
G01 X14.9829 Y67.1016
G01 X14.9994 Y67.0863
G01 X15.0155 Y67.0705
G01 X15.0313 Y67.0544
G01 X15.0466 Y67.0379
G01 X15.0615 Y67.0211
G01 X15.0760 Y67.0038
G01 X15.0901 Y66.9862
G01 X15.1037 Y66.9683
G01 X15.1169 Y66.9501
G01 X15.1297 Y66.9315
G01 X15.1420 Y66.9126
G01 X15.1538 Y66.8935
G01 X15.1652 Y66.8740
G01 X15.1760 Y66.8543
G01 X15.1864 Y66.8343
G01 X15.1963 Y66.8141
G01 X15.2057 Y66.7936
G01 X15.2147 Y66.7728
G01 X15.2231 Y66.7518
G01 X15.2310 Y66.7306
G01 X15.2384 Y66.7092
G01 X15.2452 Y66.6876
G01 X15.2515 Y66.6659
G01 X15.2573 Y66.6440
G01 X15.2650 Y66.6105
G00 Z2.0000
G00 X8.5950 Y60.3000
G01 F60.00
G01 Z-0.0500
G01 F100.00
G01 X8.5950 Y59.5000
G01 X8.5955 Y59.4853
G01 X8.5972 Y59.4706
G01 X8.5999 Y59.4561
G01 X8.6037 Y59.4418
G01 X8.6085 Y59.4279
G01 X8.6143 Y59.4143
G01 X8.6211 Y59.4013
G01 X8.6288 Y59.3888
G01 X8.6374 Y59.3769
G01 X8.6468 Y59.3657
G01 X8.6571 Y59.3552
G01 X8.6681 Y59.3454
G01 X8.6798 Y59.3365
G01 X8.6921 Y59.3285
G01 X8.7049 Y59.3214
G01 X8.7183 Y59.3153
G01 X8.7321 Y59.3101
G01 X8.7463 Y59.3060
G01 X8.7607 Y59.3030
G01 X8.7705 Y59.3015
G01 X8.7852 Y59.3002
G01 X8.7950 Y59.3000
G01 X10.0450 Y59.3000
G01 X10.0597 Y59.3005
G01 X10.0695 Y59.3015
G01 X10.0889 Y59.3049
G01 X10.0985 Y59.3073
G01 X10.1125 Y59.3117
G01 X10.1217 Y59.3153
G01 X10.1318 Y59.3198
G01 X11.1197 Y59.3198
G01 X11.1632 Y59.2764
G01 X11.2023 Y59.2412
G01 X11.2478 Y59.2075
G01 X11.2880 Y59.1832
G01 X11.2968 Y59.1782
G01 X11.3479 Y59.1540
G01 X11.3923 Y59.1379
G01 X11.4022 Y59.1346
G01 X11.4571 Y59.1209
G01 X11.5128 Y59.1126
G01 X11.5229 Y59.1119
G01 X11.5700 Y59.1098
G01 X12.9500 Y59.1098
G01 X12.9971 Y59.1119
G01 X13.0072 Y59.1126
G01 X13.0535 Y59.1193
G01 X13.0728 Y59.1231
G01 X13.1178 Y59.1346
G01 X13.1629 Y59.1504
G01 X13.1810 Y59.1580
G01 X13.2232 Y59.1782
G01 X13.2640 Y59.2023
G01 X13.2804 Y59.2132
G01 X13.3177 Y59.2412
G01 X13.3531 Y59.2730
G01 X14.8903 Y60.8098
G01 X15.6684 Y60.8098
G01 X15.6838 Y60.7996
G01 X15.7343 Y60.7693
G01 X15.7517 Y60.7600
G01 X15.8137 Y60.7309
G01 X15.8785 Y60.7075
G01 X15.8884 Y60.7043
G01 X15.9543 Y60.6875
G01 X15.9642 Y60.6853
G01 X16.0318 Y60.6751
G01 X16.0514 Y60.6731
G01 X16.1200 Y60.6700
G01 X16.1886 Y60.6731
G01 X16.2082 Y60.6751
G01 X16.2758 Y60.6853
G01 X16.3516 Y60.7043
G01 X16.3615 Y60.7075
G01 X16.4263 Y60.7309
G01 X16.4883 Y60.7600
G01 X16.5057 Y60.7693
G01 X16.5562 Y60.7996
G01 X16.5684 Y60.8075
G01 X16.6198 Y60.8456
G01 X16.6349 Y60.8580
G01 X16.6857 Y60.9043
G01 X16.7320 Y60.9551
G01 X16.7444 Y60.9702
G01 X16.7853 Y61.0257
G01 X16.8207 Y61.0843
G01 X16.8257 Y61.0932
G01 X16.8591 Y61.1637
G01 X16.8825 Y61.2285
G01 X16.8882 Y61.2472
G01 X16.9025 Y61.3043
G01 X16.9063 Y61.3236
G01 X16.9161 Y61.3913
G01 X16.9196 Y61.4568
G01 X18.3395 Y62.8698
G01 X19.0400 Y62.8698
G01 X19.0400 Y62.7600
G01 X19.0405 Y62.7453
G01 X19.0415 Y62.7355
G01 X19.0449 Y62.7161
G01 X19.0501 Y62.6971
G01 X19.0572 Y62.6788
G01 X19.0614 Y62.6699
G01 X19.0685 Y62.6571
G01 X19.0738 Y62.6488
G01 X19.0824 Y62.6369
G01 X19.0952 Y62.6221
G01 X19.1021 Y62.6152
G01 X19.1131 Y62.6054
G01 X19.1248 Y62.5965
G01 X19.1329 Y62.5911
G01 X19.1456 Y62.5837
G01 X19.1543 Y62.5793
G01 X19.1679 Y62.5735
G01 X19.1771 Y62.5701
G01 X19.1961 Y62.5649
G01 X19.2057 Y62.5630
G01 X19.2204 Y62.5610
G01 X19.2400 Y62.5600
G01 X21.2400 Y62.5600
G01 X21.2547 Y62.5605
G01 X21.2743 Y62.5630
G01 X21.2839 Y62.5649
G01 X21.2982 Y62.5687
G01 X21.3121 Y62.5735
G01 X21.3257 Y62.5793
G01 X21.3387 Y62.5861
G01 X21.3512 Y62.5938
G01 X21.3631 Y62.6024
G01 X21.3707 Y62.6086
G01 X21.3814 Y62.6186
G01 X21.3914 Y62.6293
G01 X21.4006 Y62.6408
G01 X21.4089 Y62.6529
G01 X21.4163 Y62.6656
G01 X21.4228 Y62.6788
G01 X21.4265 Y62.6879
G01 X21.4313 Y62.7018
G01 X21.4340 Y62.7113
G01 X21.4370 Y62.7257
G01 X21.4390 Y62.7403
G01 X21.4399 Y62.7551
G01 X21.4400 Y63.3665
G01 X21.4707 Y63.3839
G01 X21.4922 Y63.3975
G01 X21.5206 Y63.4178
G01 X21.5360 Y63.4298
G01 X27.6166 Y63.4298
G01 X27.8524 Y63.1896
G01 X27.8622 Y63.1625
G01 X27.8660 Y63.1533
G01 X27.8839 Y63.1153
G01 X27.8906 Y63.1024
G01 X27.9175 Y63.0578
G01 X27.9455 Y63.0197
G01 X27.9543 Y63.0087
G01 X27.9897 Y62.9697
G01 X28.2298 Y62.7297
G01 X28.2300 Y61.0150
G01 X28.2310 Y60.9954
G01 X28.2339 Y60.9759
G01 X28.2373 Y60.9615
G01 X28.2417 Y60.9475
G01 X28.2472 Y60.9338
G01 X28.2537 Y60.9206
G01 X28.2638 Y60.9038
G01 X28.2754 Y60.8881
G01 X28.2852 Y60.8771
G01 X28.2957 Y60.8668
G01 X28.3108 Y60.8544
G01 X28.3271 Y60.8435
G01 X28.3399 Y60.8364
G01 X28.3579 Y60.8285
G01 X28.3718 Y60.8237
G01 X28.3861 Y60.8199
G01 X28.4055 Y60.8165
G01 X28.4202 Y60.8152
G01 X28.4300 Y60.8150
G01 X30.0349 Y60.8151
G01 X30.0496 Y60.8160
G01 X30.0643 Y60.8180
G01 X30.0835 Y60.8223
G01 X30.0975 Y60.8267
G01 X30.1112 Y60.8322
G01 X30.1287 Y60.8411
G01 X30.1452 Y60.8515
G01 X30.1569 Y60.8604
G01 X30.1714 Y60.8736
G01 X30.1846 Y60.8881
G01 X30.1962 Y60.9038
G01 X30.2039 Y60.9163
G01 X30.2086 Y60.9249
G01 X30.2147 Y60.9383
G01 X30.2183 Y60.9475
G01 X30.2240 Y60.9663
G01 X30.2278 Y60.9856
G01 X30.2298 Y61.0052
G01 X30.2300 Y62.2650
G01 X30.2290 Y62.2847
G01 X30.2270 Y62.2993
G01 X30.2240 Y62.3137
G01 X30.2199 Y62.3279
G01 X30.2147 Y62.3417
G01 X30.2086 Y62.3551
G01 X30.2015 Y62.3679
G01 X30.1906 Y62.3842
G01 X30.1814 Y62.3957
G01 X30.1679 Y62.4098
G01 X30.1569 Y62.4196
G01 X30.1452 Y62.4285
G01 X30.1329 Y62.4365
G01 X30.1157 Y62.4457
G01 X30.1021 Y62.4515
G01 X30.0882 Y62.4563
G01 X30.0739 Y62.4601
G01 X30.0545 Y62.4635
G01 X30.0447 Y62.4645
G01 X30.0300 Y62.4650
G01 X29.3902 Y62.4650
G01 X29.3902 Y62.9700
G01 X29.3881 Y63.0171
G01 X29.3868 Y63.0319
G01 X29.3800 Y63.0782
G01 X29.3769 Y63.0928
G01 X29.3654 Y63.1378
G01 X29.3496 Y63.1829
G01 X29.3420 Y63.2010
G01 X29.3219 Y63.2432
G01 X29.3168 Y63.2520
G01 X29.2925 Y63.2922
G01 X29.2588 Y63.3377
G01 X29.2237 Y63.3767
G01 X28.9462 Y63.6543
G01 X28.9397 Y63.6730
G01 X28.9364 Y63.6812
G01 X28.9164 Y63.7245
G01 X28.9095 Y63.7374
G01 X28.8876 Y63.7743
G01 X28.8797 Y63.7863
G01 X28.8546 Y63.8204
G01 X28.8457 Y63.8313
G01 X28.8207 Y63.8593
G01 X28.2703 Y64.4203
G01 X28.2315 Y64.4557
G01 X28.2246 Y64.4613
G01 X28.1947 Y64.4837
G01 X28.1781 Y64.4951
G01 X28.1467 Y64.5142
G01 X28.1343 Y64.5212
G01 X28.0861 Y64.5443
G01 X28.0779 Y64.5477
G01 X28.0428 Y64.5605
G01 X28.0234 Y64.5667
G01 X27.9880 Y64.5757
G01 X27.9741 Y64.5789
G01 X27.9319 Y64.5856
G01 X27.9172 Y64.5874
G01 X27.8751 Y64.5898
G01 X27.8600 Y64.5902
G01 X21.3051 Y64.5901
G01 X21.2756 Y64.5892
G01 X21.2528 Y64.5874
G01 X21.2228 Y64.5836
G01 X21.2018 Y64.5800
G01 X21.1924 Y64.5781
G01 X21.1588 Y64.5701
G01 X21.1372 Y64.5638
G01 X21.1091 Y64.5543
G01 X21.0879 Y64.5460
G01 X21.0621 Y64.5345
G01 X21.0519 Y64.5296
G01 X21.0324 Y64.5194
G01 X21.0093 Y64.5061
G01 X20.9878 Y64.4925
G01 X20.9594 Y64.4722
G01 X20.9440 Y64.4602
G01 X19.2400 Y64.4600
G01 X19.2204 Y64.4590
G01 X19.2057 Y64.4570
G01 X19.1913 Y64.4540
G01 X19.1771 Y64.4499
G01 X19.1679 Y64.4465
G01 X19.1588 Y64.4428
G01 X19.1456 Y64.4363
G01 X19.1329 Y64.4289
G01 X19.1208 Y64.4206
G01 X19.1093 Y64.4114
G01 X19.1021 Y64.4048
G01 X19.0918 Y64.3943
G01 X19.0824 Y64.3831
G01 X19.0738 Y64.3712
G01 X19.0661 Y64.3587
G01 X19.0593 Y64.3457
G01 X19.0553 Y64.3367
G01 X19.0487 Y64.3182
G01 X19.0449 Y64.3039
G01 X19.0415 Y64.2845
G01 X19.0402 Y64.2698
G01 X19.0400 Y64.0302
G01 X18.1000 Y64.0302
G01 X18.0493 Y64.0279
G01 X18.0334 Y64.0262
G01 X17.9979 Y64.0210
G01 X17.9824 Y64.0181
G01 X17.9327 Y64.0055
G01 X17.8884 Y63.9901
G01 X17.8733 Y63.9840
G01 X17.8275 Y63.9622
G01 X17.7871 Y63.9384
G01 X17.7737 Y63.9297
G01 X17.7321 Y63.8986
G01 X17.6907 Y63.8612
G01 X16.0906 Y62.2688
G01 X16.0413 Y62.2661
G01 X15.9689 Y62.2556
G01 X15.9543 Y62.2525
G01 X15.8928 Y62.2370
G01 X15.8785 Y62.2325
G01 X15.8137 Y62.2091
G01 X15.7477 Y62.1780
G01 X15.7343 Y62.1707
G01 X15.6757 Y62.1353
G01 X15.6128 Y62.0887
G01 X15.6051 Y62.0820
G01 X15.5543 Y62.0357
G01 X15.5080 Y61.9849
G01 X15.4959 Y61.9702
G01 X14.6500 Y61.9702
G01 X14.5979 Y61.9678
G01 X14.5834 Y61.9662
G01 X14.5371 Y61.9591
G01 X14.4910 Y61.9478
G01 X14.4723 Y61.9421
G01 X14.4279 Y61.9260
G01 X14.3853 Y61.9061
G01 X14.3724 Y61.8994
G01 X14.3319 Y61.8751
G01 X14.3196 Y61.8668
G01 X14.2823 Y61.8388
G01 X14.2745 Y61.8321
G01 X14.2397 Y61.8003
G01 X12.7097 Y60.2702
G01 X11.8103 Y60.2702
G01 X11.7668 Y60.3136
G01 X11.7277 Y60.3488
G01 X11.6822 Y60.3825
G01 X11.6420 Y60.4068
G01 X11.6332 Y60.4118
G01 X11.5821 Y60.4360
G01 X11.5377 Y60.4521
G01 X11.5278 Y60.4554
G01 X11.4729 Y60.4691
G01 X11.4266 Y60.4762
G01 X11.4121 Y60.4778
G01 X11.3600 Y60.4802
G01 X10.1318 Y60.4802
G01 X10.1217 Y60.4847
G01 X10.1125 Y60.4883
G01 X10.0985 Y60.4927
G01 X10.0889 Y60.4951
G01 X10.0695 Y60.4985
G01 X10.0548 Y60.4998
G01 X10.0450 Y60.5000
G01 X8.7950 Y60.5000
G01 X8.7803 Y60.4995
G01 X8.7656 Y60.4978
G01 X8.7463 Y60.4940
G01 X8.7321 Y60.4899
G01 X8.7183 Y60.4847
G01 X8.7006 Y60.4763
G01 X8.6838 Y60.4662
G01 X8.6681 Y60.4546
G01 X8.6536 Y60.4414
G01 X8.6436 Y60.4307
G01 X8.6315 Y60.4152
G01 X8.6211 Y60.3987
G01 X8.6122 Y60.3812
G01 X8.6067 Y60.3675
G01 X8.6010 Y60.3487
G01 X8.5980 Y60.3343
G01 X8.5960 Y60.3196
G01 X8.5950 Y60.3000
G00 Z2.0000
G00 X6.5150 Y60.6100
G01 F60.00
G01 Z-0.0500
G01 F100.00
G01 X7.7650 Y60.6100
G01 X7.7846 Y60.6110
G01 X7.7944 Y60.6122
G01 X7.8089 Y60.6149
G01 X7.8279 Y60.6201
G01 X7.8371 Y60.6235
G01 X7.8507 Y60.6293
G01 X7.8594 Y60.6337
G01 X7.8721 Y60.6411
G01 X7.8881 Y60.6524
G01 X7.9029 Y60.6652
G01 X7.9132 Y60.6757
G01 X7.9196 Y60.6831
G01 X7.9285 Y60.6948
G01 X7.9339 Y60.7029
G01 X7.9413 Y60.7156
G01 X7.9457 Y60.7243
G01 X7.9533 Y60.7425
G01 X7.9577 Y60.7565
G01 X7.9620 Y60.7757
G01 X7.9640 Y60.7904
G01 X7.9650 Y60.8100
G01 X7.9650 Y60.9398
G01 X8.6753 Y60.9398
G01 X8.6879 Y60.9311
G01 X8.7006 Y60.9237
G01 X8.7183 Y60.9153
G01 X8.7321 Y60.9101
G01 X8.7511 Y60.9049
G01 X8.7656 Y60.9022
G01 X8.7803 Y60.9005
G01 X8.7950 Y60.9000
G01 X11.5697 Y60.8998
G01 X11.5774 Y60.8886
G01 X11.6219 Y60.8287
G01 X11.6343 Y60.8135
G01 X11.6912 Y60.7512
G01 X11.7535 Y60.6943
G01 X11.7613 Y60.6876
G01 X11.8286 Y60.6374
G01 X11.8449 Y60.6265
G01 X11.9178 Y60.5832
G01 X11.9936 Y60.5471
G01 X12.0118 Y60.5395
G01 X12.0919 Y60.5112
G01 X12.1731 Y60.4906
G01 X12.1924 Y60.4868
G01 X12.2756 Y60.4747
G01 X12.3602 Y60.4702
G01 X12.3798 Y60.4702
G01 X12.4543 Y60.4739
G01 X12.4691 Y60.4752
G01 X12.5570 Y60.4884
G01 X12.5669 Y60.4906
G01 X12.6481 Y60.5112
G01 X12.6580 Y60.5144
G01 X12.7375 Y60.5431
G01 X12.8222 Y60.5832
G01 X12.8311 Y60.5882
G01 X12.9032 Y60.6317
G01 X12.9787 Y60.6876
G01 X12.9865 Y60.6943
G01 X13.0488 Y60.7512
G01 X13.1057 Y60.8135
G01 X13.1124 Y60.8213
G01 X13.1683 Y60.8968
G01 X13.2118 Y60.9689
G01 X13.2168 Y60.9778
