(G-CODE GENERATED BY FLATCAM v8.994 - www.flatcam.org - Version Date: 2020/11/7)

(Name: CoilGun_PCB.GTL_edit_iso_combined_cnc)
(Type: G-code from Geometry)
(Units: MM)

(Created on Monday, 30 May 2022 at 12:46)

(This preprocessor is the default preprocessor used by FlatCAM.)
(It is made to work with MACH3 compatible motion controllers.)

(TOOL DIAMETER: 0.4 mm)
(Feedrate_XY: 100.0 mm/min)
(Feedrate_Z: 60.0 mm/min)
(Feedrate rapids 1500.0 mm/min)

(Z_Cut: -0.05 mm)
(Z_Move: 2.0 mm)
(Z Start: None mm)
(Z End: 15.0 mm)
(X,Y End: None mm)
(Steps per circle: 64)
(Preprocessor Geometry: default)

(X range:   -0.3051 ...   76.3200  mm)
(Y range:    0.0849 ...   72.1702  mm)

(Spindle Speed: 15000.0 RPM)
G21
G90
G94

G01 F100.00

M5
G00 Z15.0000
G00 X0.0000 Y0.0000
T2
M6    
(MSG, Change to Tool Dia = 0.4000)
M0
G00 Z15.0000

M03 S15000.0
G01 F100.00
G00 X8.2298 Y3.0498
G01 F60.00
G01 Z-0.0500
G01 F100.00
G01 X8.2247 Y3.1481
G01 X8.2089 Y3.2543
G01 X8.2067 Y3.2642
G01 X8.1828 Y3.3587
G01 X8.1796 Y3.3686
G01 X8.1462 Y3.4611
G01 X8.1003 Y3.5582
G01 X8.0953 Y3.5671
G01 X8.0447 Y3.6510
G01 X7.9806 Y3.7375
G01 X7.9739 Y3.7453
G01 X7.9078 Y3.8178
G01 X7.8353 Y3.8839
G01 X7.8275 Y3.8906
G01 X7.7410 Y3.9547
G01 X7.6571 Y4.0053
G01 X7.6482 Y4.0103
G01 X7.5511 Y4.0562
G01 X7.4586 Y4.0896
G01 X7.4487 Y4.0928
G01 X7.3542 Y4.1167
G01 X7.3443 Y4.1189
G01 X7.2381 Y4.1347
G01 X7.2280 Y4.1354
G01 X7.1300 Y4.1400
G01 X7.0320 Y4.1354
G01 X7.0219 Y4.1347
G01 X6.9157 Y4.1189
G01 X6.9058 Y4.1167
G01 X6.8113 Y4.0928
G01 X6.8014 Y4.0896
G01 X6.7089 Y4.0562
G01 X6.6118 Y4.0103
G01 X6.6029 Y4.0053
G01 X6.5190 Y3.9547
G01 X6.4325 Y3.8906
G01 X6.4247 Y3.8839
G01 X6.3522 Y3.8178
G01 X6.2861 Y3.7453
G01 X6.2794 Y3.7375
G01 X6.2153 Y3.6510
G01 X6.1647 Y3.5671
G01 X6.1597 Y3.5582
G01 X6.1138 Y3.4611
G01 X6.0804 Y3.3686
G01 X6.0772 Y3.3587
G01 X6.0533 Y3.2642
G01 X6.0511 Y3.2543
G01 X6.0353 Y3.1481
G01 X6.0346 Y3.1380
G01 X6.0300 Y3.0400
G01 X6.0346 Y2.9420
G01 X6.0353 Y2.9319
G01 X6.0511 Y2.8257
G01 X6.0533 Y2.8158
G01 X6.0772 Y2.7213
G01 X6.0804 Y2.7114
G01 X6.1138 Y2.6189
G01 X6.1597 Y2.5218
G01 X6.1647 Y2.5129
G01 X6.2153 Y2.4290
G01 X6.2794 Y2.3425
G01 X6.2861 Y2.3347
G01 X6.3522 Y2.2622
G01 X6.4247 Y2.1961
G01 X6.4325 Y2.1894
G01 X6.5190 Y2.1253
G01 X6.6029 Y2.0747
G01 X6.6118 Y2.0697
G01 X6.7089 Y2.0238
G01 X6.8014 Y1.9904
G01 X6.8113 Y1.9872
G01 X6.9058 Y1.9633
G01 X6.9157 Y1.9611
G01 X7.0219 Y1.9453
G01 X7.0320 Y1.9446
G01 X7.1300 Y1.9400
G01 X7.2280 Y1.9446
G01 X7.2381 Y1.9453
G01 X7.3443 Y1.9611
G01 X7.3542 Y1.9633
G01 X7.4487 Y1.9872
G01 X7.4586 Y1.9904
G01 X7.5511 Y2.0238
G01 X7.6482 Y2.0697
G01 X7.6571 Y2.0747
G01 X7.7410 Y2.1253
G01 X7.8275 Y2.1894
G01 X7.8353 Y2.1961
G01 X7.9078 Y2.2622
G01 X7.9739 Y2.3347
G01 X7.9806 Y2.3425
G01 X8.0447 Y2.4290
G01 X8.0953 Y2.5129
G01 X8.1003 Y2.5218
G01 X8.1462 Y2.6189
G01 X8.1796 Y2.7114
G01 X8.1828 Y2.7213
G01 X8.2067 Y2.8158
G01 X8.2089 Y2.8257
G01 X8.2247 Y2.9319
G01 X8.2298 Y3.0302
G01 X8.2298 Y3.0498
G00 Z2.0000
G00 X6.2300 Y6.3000
G01 F60.00
G01 Z-0.0500
G01 F100.00
G01 X8.0300 Y6.3000
G01 X8.0526 Y6.3003
G01 X8.0752 Y6.3011
G01 X8.0978 Y6.3025
G01 X8.1204 Y6.3045
G01 X8.1429 Y6.3070
G01 X8.1653 Y6.3100
G01 X8.1877 Y6.3136
G01 X8.2099 Y6.3178
G01 X8.2320 Y6.3225
G01 X8.2541 Y6.3277
G01 X8.2759 Y6.3335
G01 X8.2977 Y6.3398
G01 X8.3192 Y6.3467
G01 X8.3406 Y6.3540
G01 X8.3618 Y6.3619
G01 X8.3829 Y6.3704
G01 X8.4036 Y6.3793
G01 X8.4241 Y6.3887
G01 X8.4443 Y6.3986
G01 X8.4643 Y6.4090
G01 X8.4840 Y6.4198
G01 X8.5035 Y6.4312
G01 X8.5227 Y6.4430
G01 X8.5415 Y6.4553
G01 X8.5601 Y6.4681
G01 X8.5783 Y6.4813
G01 X8.5963 Y6.4949
G01 X8.6138 Y6.5090
G01 X8.6311 Y6.5235
G01 X8.6479 Y6.5384
G01 X8.6644 Y6.5537
G01 X8.6805 Y6.5695
G01 X8.6963 Y6.5856
G01 X8.7116 Y6.6021
G01 X8.7265 Y6.6189
G01 X8.7410 Y6.6362
G01 X8.7551 Y6.6538
G01 X8.7687 Y6.6717
G01 X8.7819 Y6.6899
G01 X8.7947 Y6.7085
G01 X8.8070 Y6.7273
G01 X8.8188 Y6.7465
G01 X8.8302 Y6.7660
G01 X8.8410 Y6.7857
G01 X8.8514 Y6.8057
G01 X8.8613 Y6.8259
G01 X8.8707 Y6.8464
G01 X8.8796 Y6.8672
G01 X8.8881 Y6.8882
G01 X8.8960 Y6.9094
G01 X8.9034 Y6.9308
G01 X8.9102 Y6.9523
G01 X8.9165 Y6.9741
G01 X8.9223 Y6.9959
G01 X8.9275 Y7.0180
G01 X8.9322 Y7.0401
G01 X8.9364 Y7.0624
G01 X8.9400 Y7.0847
G01 X8.9430 Y7.1071
G01 X8.9455 Y7.1296
G01 X8.9475 Y7.1522
G01 X8.9489 Y7.1748
G01 X8.9497 Y7.1974
G01 X8.9500 Y7.2200
G01 X8.9500 Y9.0200
G01 X8.9497 Y9.0426
G01 X8.9489 Y9.0652
G01 X8.9475 Y9.0878
G01 X8.9455 Y9.1104
G01 X8.9430 Y9.1329
G01 X8.9400 Y9.1553
G01 X8.9364 Y9.1776
G01 X8.9322 Y9.1999
G01 X8.9275 Y9.2220
G01 X8.9223 Y9.2441
G01 X8.9165 Y9.2659
G01 X8.9102 Y9.2877
G01 X8.9034 Y9.3092
G01 X8.8960 Y9.3306
G01 X8.8881 Y9.3518
G01 X8.8796 Y9.3728
G01 X8.8707 Y9.3936
G01 X8.8613 Y9.4141
G01 X8.8514 Y9.4343
G01 X8.8410 Y9.4543
G01 X8.8302 Y9.4740
G01 X8.8188 Y9.4935
G01 X8.8070 Y9.5127
G01 X8.7947 Y9.5315
G01 X8.7819 Y9.5501
G01 X8.7687 Y9.5683
G01 X8.7551 Y9.5862
G01 X8.7410 Y9.6038
G01 X8.7265 Y9.6211
G01 X8.7116 Y9.6379
G01 X8.6963 Y9.6544
G01 X8.6805 Y9.6705
G01 X8.6644 Y9.6863
G01 X8.6479 Y9.7016
G01 X8.6311 Y9.7165
G01 X8.6138 Y9.7310
G01 X8.5962 Y9.7451
G01 X8.5783 Y9.7587
G01 X8.5601 Y9.7719
G01 X8.5415 Y9.7847
G01 X8.5227 Y9.7970
G01 X8.5035 Y9.8088
G01 X8.4840 Y9.8202
G01 X8.4643 Y9.8310
G01 X8.4443 Y9.8414
G01 X8.4241 Y9.8513
G01 X8.4036 Y9.8607
G01 X8.3828 Y9.8696
G01 X8.3618 Y9.8781
G01 X8.3406 Y9.8860
G01 X8.3192 Y9.8934
G01 X8.2977 Y9.9002
G01 X8.2759 Y9.9065
G01 X8.2541 Y9.9123
G01 X8.2320 Y9.9175
G01 X8.2099 Y9.9222
G01 X8.1876 Y9.9264
G01 X8.1653 Y9.9300
G01 X8.1429 Y9.9330
G01 X8.1204 Y9.9355
G01 X8.0978 Y9.9375
G01 X8.0752 Y9.9389
G01 X8.0526 Y9.9397
G01 X8.0300 Y9.9400
G01 X6.2300 Y9.9400
G01 X6.2074 Y9.9397
G01 X6.1848 Y9.9389
G01 X6.1622 Y9.9375
G01 X6.1396 Y9.9355
G01 X6.1171 Y9.9330
G01 X6.0947 Y9.9300
G01 X6.0723 Y9.9264
G01 X6.0501 Y9.9222
G01 X6.0280 Y9.9175
G01 X6.0059 Y9.9123
G01 X5.9841 Y9.9065
G01 X5.9623 Y9.9002
G01 X5.9408 Y9.8933
G01 X5.9194 Y9.8860
G01 X5.8981 Y9.8781
G01 X5.8771 Y9.8696
G01 X5.8563 Y9.8607
G01 X5.8359 Y9.8513
G01 X5.8157 Y9.8414
G01 X5.7957 Y9.8310
G01 X5.7760 Y9.8202
G01 X5.7565 Y9.8088
G01 X5.7373 Y9.7970
G01 X5.7185 Y9.7847
G01 X5.6999 Y9.7719
G01 X5.6817 Y9.7587
G01 X5.6637 Y9.7451
G01 X5.6462 Y9.7310
G01 X5.6289 Y9.7165
G01 X5.6121 Y9.7016
G01 X5.5956 Y9.6863
G01 X5.5795 Y9.6705
G01 X5.5637 Y9.6544
G01 X5.5484 Y9.6379
G01 X5.5335 Y9.6211
G01 X5.5190 Y9.6038
G01 X5.5049 Y9.5863
G01 X5.4913 Y9.5683
G01 X5.4781 Y9.5501
G01 X5.4653 Y9.5315
G01 X5.4530 Y9.5127
G01 X5.4412 Y9.4935
G01 X5.4298 Y9.4740
G01 X5.4190 Y9.4543
G01 X5.4086 Y9.4343
G01 X5.3987 Y9.4141
G01 X5.3893 Y9.3937
G01 X5.3804 Y9.3729
G01 X5.3719 Y9.3519
G01 X5.3640 Y9.3306
G01 X5.3567 Y9.3092
G01 X5.3498 Y9.2877
G01 X5.3435 Y9.2659
G01 X5.3377 Y9.2441
G01 X5.3325 Y9.2220
G01 X5.3278 Y9.1999
G01 X5.3236 Y9.1777
G01 X5.3200 Y9.1553
G01 X5.3170 Y9.1329
G01 X5.3145 Y9.1104
G01 X5.3125 Y9.0878
G01 X5.3111 Y9.0652
G01 X5.3103 Y9.0426
G01 X5.3100 Y9.0200
G01 X5.3100 Y7.2200
G01 X5.3103 Y7.1974
G01 X5.3111 Y7.1748
G01 X5.3125 Y7.1522
G01 X5.3145 Y7.1296
G01 X5.3170 Y7.1071
G01 X5.3200 Y7.0847
G01 X5.3236 Y7.0623
G01 X5.3278 Y7.0401
G01 X5.3325 Y7.0180
G01 X5.3377 Y6.9959
G01 X5.3435 Y6.9741
G01 X5.3498 Y6.9523
G01 X5.3567 Y6.9308
G01 X5.3640 Y6.9094
G01 X5.3719 Y6.8882
G01 X5.3804 Y6.8671
G01 X5.3893 Y6.8464
G01 X5.3987 Y6.8259
G01 X5.4086 Y6.8057
G01 X5.4190 Y6.7857
G01 X5.4298 Y6.7660
G01 X5.4412 Y6.7465
G01 X5.4530 Y6.7273
G01 X5.4653 Y6.7085
G01 X5.4781 Y6.6899
G01 X5.4913 Y6.6717
G01 X5.5049 Y6.6537
G01 X5.5190 Y6.6362
G01 X5.5335 Y6.6189
G01 X5.5484 Y6.6021
G01 X5.5637 Y6.5856
G01 X5.5795 Y6.5695
G01 X5.5956 Y6.5537
G01 X5.6121 Y6.5384
G01 X5.6289 Y6.5235
G01 X5.6462 Y6.5090
G01 X5.6637 Y6.4949
G01 X5.6817 Y6.4813
G01 X5.6999 Y6.4681
G01 X5.7185 Y6.4553
G01 X5.7373 Y6.4430
G01 X5.7565 Y6.4312
G01 X5.7760 Y6.4198
G01 X5.7957 Y6.4090
G01 X5.8157 Y6.3986
G01 X5.8359 Y6.3887
G01 X5.8564 Y6.3793
G01 X5.8771 Y6.3704
G01 X5.8982 Y6.3619
G01 X5.9194 Y6.3540
G01 X5.9408 Y6.3467
G01 X5.9623 Y6.3398
G01 X5.9841 Y6.3335
G01 X6.0059 Y6.3277
G01 X6.0280 Y6.3225
G01 X6.0501 Y6.3178
G01 X6.0723 Y6.3136
G01 X6.0947 Y6.3100
G01 X6.1171 Y6.3070
G01 X6.1396 Y6.3045
G01 X6.1622 Y6.3025
G01 X6.1848 Y6.3011
G01 X6.2074 Y6.3003
G01 X6.2300 Y6.3000
G00 Z2.0000
G00 X6.2300 Y6.6600
G01 F60.00
G01 Z-0.0500
G01 F100.00
G01 X8.0300 Y6.6600
G01 X8.0575 Y6.6607
G01 X8.0850 Y6.6627
G01 X8.1124 Y6.6661
G01 X8.1395 Y6.6708
G01 X8.1664 Y6.6769
G01 X8.1929 Y6.6842
G01 X8.2191 Y6.6929
G01 X8.2448 Y6.7028
G01 X8.2699 Y6.7140
G01 X8.2944 Y6.7263
G01 X8.3182 Y6.7399
G01 X8.3414 Y6.7545
G01 X8.3638 Y6.7703
G01 X8.3854 Y6.7872
G01 X8.4061 Y6.8051
G01 X8.4260 Y6.8240
G01 X8.4356 Y6.8338
G01 X8.4540 Y6.8541
G01 X8.4714 Y6.8753
G01 X8.4877 Y6.8973
G01 X8.5029 Y6.9201
G01 X8.5101 Y6.9318
G01 X8.5237 Y6.9556
G01 X8.5360 Y6.9801
G01 X8.5417 Y6.9926
G01 X8.5472 Y7.0052
G01 X8.5571 Y7.0309
G01 X8.5616 Y7.0439
G01 X8.5696 Y7.0703
G01 X8.5763 Y7.0970
G01 X8.5792 Y7.1105
G01 X8.5817 Y7.1240
G01 X8.5858 Y7.1513
G01 X8.5873 Y7.1650
G01 X8.5893 Y7.1925
G01 X8.5900 Y7.2200
G01 X8.5900 Y9.0200
G01 X8.5893 Y9.0475
G01 X8.5873 Y9.0750
G01 X8.5839 Y9.1024
G01 X8.5792 Y9.1295
G01 X8.5731 Y9.1564
G01 X8.5658 Y9.1829
G01 X8.5571 Y9.2091
G01 X8.5472 Y9.2348
G01 X8.5417 Y9.2474
G01 X8.5300 Y9.2722
G01 X8.5171 Y9.2964
G01 X8.5101 Y9.3082
G01 X8.4955 Y9.3314
G01 X8.4797 Y9.3538
G01 X8.4628 Y9.3754
G01 X8.4449 Y9.3961
G01 X8.4260 Y9.4160
G01 X8.4061 Y9.4349
G01 X8.3854 Y9.4528
G01 X8.3747 Y9.4614
G01 X8.3638 Y9.4697
G01 X8.3414 Y9.4855
G01 X8.3182 Y9.5001
G01 X8.2944 Y9.5137
G01 X8.2699 Y9.5260
G01 X8.2574 Y9.5317
G01 X8.2320 Y9.5423
G01 X8.2191 Y9.5471
G01 X8.1929 Y9.5558
G01 X8.1797 Y9.5596
G01 X8.1530 Y9.5663
G01 X8.1395 Y9.5692
G01 X8.1260 Y9.5717
G01 X8.0987 Y9.5758
G01 X8.0713 Y9.5785
G01 X8.0575 Y9.5793
G01 X8.0300 Y9.5800
G01 X6.2300 Y9.5800
G01 X6.2025 Y9.5793
G01 X6.1750 Y9.5773
G01 X6.1476 Y9.5739
G01 X6.1205 Y9.5692
G01 X6.0936 Y9.5631
G01 X6.0671 Y9.5558
G01 X6.0409 Y9.5471
G01 X6.0152 Y9.5372
G01 X6.0026 Y9.5317
G01 X5.9778 Y9.5200
G01 X5.9536 Y9.5070
G01 X5.9418 Y9.5001
G01 X5.9186 Y9.4855
G01 X5.8962 Y9.4697
G01 X5.8746 Y9.4528
G01 X5.8539 Y9.4349
G01 X5.8340 Y9.4160
G01 X5.8151 Y9.3961
G01 X5.7972 Y9.3754
G01 X5.7886 Y9.3647
G01 X5.7723 Y9.3427
G01 X5.7645 Y9.3314
G01 X5.7499 Y9.3082
G01 X5.7363 Y9.2844
G01 X5.7240 Y9.2599
G01 X5.7183 Y9.2474
G01 X5.7077 Y9.2220
G01 X5.7029 Y9.2091
G01 X5.6984 Y9.1961
G01 X5.6904 Y9.1697
G01 X5.6869 Y9.1564
G01 X5.6808 Y9.1295
G01 X5.6761 Y9.1024
G01 X5.6742 Y9.0887
G01 X5.6727 Y9.0750
G01 X5.6707 Y9.0475
G01 X5.6700 Y9.0200
G01 X5.6700 Y7.2200
G01 X5.6707 Y7.1925
G01 X5.6727 Y7.1650
G01 X5.6761 Y7.1376
G01 X5.6783 Y7.1240
G01 X5.6837 Y7.0970
G01 X5.6904 Y7.0703
G01 X5.6942 Y7.0571
G01 X5.7029 Y7.0309
G01 X5.7128 Y7.0052
G01 X5.7183 Y6.9926
G01 X5.7300 Y6.9678
G01 X5.7430 Y6.9436
G01 X5.7571 Y6.9201
G01 X5.7723 Y6.8973
G01 X5.7886 Y6.8753
G01 X5.8060 Y6.8541
G01 X5.8244 Y6.8338
G01 X5.8438 Y6.8144
G01 X5.8641 Y6.7960
G01 X5.8746 Y6.7872
G01 X5.8853 Y6.7786
G01 X5.9073 Y6.7623
G01 X5.9301 Y6.7471
G01 X5.9536 Y6.7330
G01 X5.9778 Y6.7200
G01 X6.0026 Y6.7083
G01 X6.0152 Y6.7028
G01 X6.0409 Y6.6929
G01 X6.0671 Y6.6842
G01 X6.0936 Y6.6769
G01 X6.1070 Y6.6737
G01 X6.1340 Y6.6683
G01 X6.1476 Y6.6661
G01 X6.1750 Y6.6627
G01 X6.2025 Y6.6607
G01 X6.2300 Y6.6600
G00 Z2.0000
G00 X6.2300 Y7.0200
G01 F60.00
G01 Z-0.0500
G01 F100.00
G01 X8.0349 Y7.0201
G01 X8.0545 Y7.0215
G01 X8.0739 Y7.0249
G01 X8.0929 Y7.0301
G01 X8.1112 Y7.0372
G01 X8.1287 Y7.0461
G01 X8.1412 Y7.0538
G01 X8.1492 Y7.0594
G01 X8.1643 Y7.0718
G01 X8.1782 Y7.0857
G01 X8.1906 Y7.1008
G01 X8.2015 Y7.1171
G01 X8.2107 Y7.1343
G01 X8.2165 Y7.1479
G01 X8.2227 Y7.1665
G01 X8.2261 Y7.1809
G01 X8.2285 Y7.1955
G01 X8.2299 Y7.2151
G01 X8.2300 Y9.0200
G01 X8.2290 Y9.0396
G01 X8.2278 Y9.0494
G01 X8.2251 Y9.0639
G01 X8.2199 Y9.0829
G01 X8.2128 Y9.1012
G01 X8.2039 Y9.1187
G01 X8.1935 Y9.1352
G01 X8.1846 Y9.1469
G01 X8.1782 Y9.1543
G01 X8.1643 Y9.1682
G01 X8.1492 Y9.1806
G01 X8.1329 Y9.1915
G01 X8.1157 Y9.2007
G01 X8.1021 Y9.2065
G01 X8.0835 Y9.2127
G01 X8.0691 Y9.2161
G01 X8.0496 Y9.2190
G01 X8.0349 Y9.2199
G01 X6.2300 Y9.2200
G01 X6.2202 Y9.2198
G01 X6.2055 Y9.2185
G01 X6.1861 Y9.2151
G01 X6.1671 Y9.2099
G01 X6.1488 Y9.2028
G01 X6.1313 Y9.1939
G01 X6.1148 Y9.1835
G01 X6.1031 Y9.1746
G01 X6.0957 Y9.1682
G01 X6.0818 Y9.1543
G01 X6.0694 Y9.1392
G01 X6.0585 Y9.1229
G01 X6.0493 Y9.1057
G01 X6.0435 Y9.0921
G01 X6.0387 Y9.0782
G01 X6.0339 Y9.0591
G01 X6.0315 Y9.0445
G01 X6.0301 Y9.0249
G01 X6.0300 Y7.2200
G01 X6.0305 Y7.2053
G01 X6.0322 Y7.1906
G01 X6.0360 Y7.1713
G01 X6.0417 Y7.1525
G01 X6.0493 Y7.1343
G01 X6.0585 Y7.1171
G01 X6.0694 Y7.1008
G01 X6.0818 Y7.0857
G01 X6.0957 Y7.0718
G01 X6.1108 Y7.0594
G01 X6.1271 Y7.0485
G01 X6.1443 Y7.0393
G01 X6.1579 Y7.0335
G01 X6.1765 Y7.0273
G01 X6.1909 Y7.0239
G01 X6.2104 Y7.0210
G01 X6.2300 Y7.0200
G00 Z2.0000
G00 X8.2298 Y13.2098
G01 F60.00
G01 Z-0.0500
G01 F100.00
G01 X8.2247 Y13.3081
G01 X8.2089 Y13.4143
G01 X8.2067 Y13.4242
G01 X8.1828 Y13.5187
G01 X8.1796 Y13.5286
G01 X8.1462 Y13.6211
G01 X8.1003 Y13.7182
G01 X8.0953 Y13.7271
G01 X8.0447 Y13.8110
G01 X7.9806 Y13.8975
G01 X7.9739 Y13.9053
G01 X7.9078 Y13.9778
G01 X7.8353 Y14.0439
G01 X7.8275 Y14.0506
G01 X7.7410 Y14.1147
G01 X7.6571 Y14.1653
G01 X7.6482 Y14.1703
G01 X7.5511 Y14.2162
G01 X7.4586 Y14.2496
G01 X7.4487 Y14.2528
G01 X7.3542 Y14.2767
G01 X7.3443 Y14.2789
G01 X7.2381 Y14.2947
G01 X7.2280 Y14.2954
G01 X7.1300 Y14.3000
G01 X7.0320 Y14.2954
G01 X7.0219 Y14.2947
G01 X6.9157 Y14.2789
G01 X6.9058 Y14.2767
G01 X6.8113 Y14.2528
G01 X6.8014 Y14.2496
G01 X6.7089 Y14.2162
G01 X6.6118 Y14.1703
G01 X6.6029 Y14.1653
G01 X6.5190 Y14.1147
G01 X6.4325 Y14.0506
G01 X6.4247 Y14.0439
G01 X6.3522 Y13.9778
G01 X6.2861 Y13.9053
G01 X6.2794 Y13.8975
G01 X6.2153 Y13.8110
G01 X6.1647 Y13.7271
G01 X6.1597 Y13.7182
G01 X6.1138 Y13.6211
G01 X6.0804 Y13.5286
G01 X6.0772 Y13.5187
G01 X6.0533 Y13.4242
G01 X6.0511 Y13.4143
G01 X6.0353 Y13.3081
G01 X6.0346 Y13.2980
G01 X6.0300 Y13.2000
G01 X6.0346 Y13.1020
G01 X6.0353 Y13.0919
G01 X6.0511 Y12.9857
G01 X6.0533 Y12.9758
G01 X6.0772 Y12.8813
G01 X6.0804 Y12.8714
G01 X6.1138 Y12.7789
G01 X6.1597 Y12.6818
G01 X6.1647 Y12.6729
G01 X6.2153 Y12.5890
G01 X6.2794 Y12.5025
G01 X6.2861 Y12.4947
G01 X6.3522 Y12.4222
G01 X6.4247 Y12.3561
G01 X6.4325 Y12.3494
G01 X6.5190 Y12.2853
G01 X6.6029 Y12.2347
G01 X6.6118 Y12.2297
G01 X6.7089 Y12.1838
G01 X6.8014 Y12.1504
G01 X6.8113 Y12.1472
G01 X6.9058 Y12.1233
G01 X6.9157 Y12.1211
G01 X7.0219 Y12.1053
G01 X7.0320 Y12.1046
G01 X7.1300 Y12.1000
G01 X7.2280 Y12.1046
G01 X7.2381 Y12.1053
G01 X7.3443 Y12.1211
G01 X7.3542 Y12.1233
G01 X7.4487 Y12.1472
G01 X7.4586 Y12.1504
G01 X7.5511 Y12.1838
G01 X7.6482 Y12.2297
G01 X7.6571 Y12.2347
G01 X7.7410 Y12.2853
G01 X7.8275 Y12.3494
G01 X7.8353 Y12.3561
G01 X7.9078 Y12.4222
G01 X7.9739 Y12.4947
G01 X7.9806 Y12.5025
G01 X8.0447 Y12.5890
G01 X8.0953 Y12.6729
G01 X8.1003 Y12.6818
G01 X8.1462 Y12.7789
G01 X8.1796 Y12.8714
G01 X8.1828 Y12.8813
G01 X8.2067 Y12.9758
G01 X8.2089 Y12.9857
G01 X8.2247 Y13.0919
G01 X8.2298 Y13.1902
G01 X8.2298 Y13.2098
G00 Z2.0000
G00 X8.5893 Y13.2275
G01 F60.00
G01 Z-0.0500
G01 F100.00
G01 X8.5850 Y13.3157
G01 X8.5829 Y13.3439
G01 X8.5796 Y13.3704
G01 X8.5666 Y13.4578
G01 X8.5621 Y13.4840
G01 X8.5559 Y13.5117
G01 X8.5345 Y13.5973
G01 X8.5276 Y13.6222
G01 X8.5185 Y13.6499
G01 X8.4888 Y13.7331
G01 X8.4787 Y13.7591
G01 X8.4677 Y13.7838
G01 X8.4300 Y13.8637
G01 X8.4181 Y13.8874
G01 X8.4041 Y13.9122
G01 X8.3587 Y13.9879
G01 X8.3443 Y14.0106
G01 X8.3281 Y14.0336
G01 X8.2755 Y14.1045
G01 X8.2593 Y14.1253
G01 X8.2406 Y14.1470
G01 X8.1813 Y14.2125
G01 X8.1624 Y14.2324
G01 X8.1425 Y14.2513
G01 X8.0770 Y14.3106
G01 X8.0553 Y14.3293
G01 X8.0345 Y14.3455
G01 X7.9636 Y14.3981
G01 X7.9406 Y14.4143
G01 X7.9179 Y14.4287
G01 X7.8422 Y14.4741
G01 X7.8174 Y14.4881
G01 X7.7937 Y14.5000
G01 X7.7138 Y14.5377
G01 X7.6891 Y14.5487
G01 X7.6631 Y14.5588
G01 X7.5799 Y14.5885
G01 X7.5522 Y14.5976
G01 X7.5273 Y14.6045
G01 X7.4417 Y14.6259
G01 X7.4140 Y14.6321
G01 X7.3878 Y14.6366
G01 X7.3004 Y14.6496
G01 X7.2739 Y14.6529
G01 X7.2457 Y14.6550
G01 X7.1575 Y14.6593
G01 X7.1300 Y14.6600
G01 X7.1025 Y14.6593
G01 X7.0143 Y14.6550
G01 X6.9861 Y14.6529
G01 X6.9596 Y14.6496
G01 X6.8722 Y14.6366
G01 X6.8460 Y14.6321
G01 X6.8183 Y14.6259
G01 X6.7327 Y14.6045
G01 X6.7078 Y14.5976
G01 X6.6801 Y14.5885
G01 X6.5969 Y14.5588
G01 X6.5709 Y14.5487
G01 X6.5462 Y14.5377
G01 X6.4663 Y14.5000
G01 X6.4426 Y14.4881
G01 X6.4178 Y14.4741
G01 X6.3421 Y14.4287
G01 X6.3194 Y14.4143
G01 X6.2964 Y14.3981
G01 X6.2255 Y14.3455
G01 X6.2047 Y14.3293
G01 X6.1830 Y14.3106
G01 X6.1175 Y14.2513
G01 X6.0976 Y14.2324
G01 X6.0787 Y14.2125
G01 X6.0194 Y14.1470
G01 X6.0007 Y14.1253
G01 X5.9845 Y14.1045
G01 X5.9319 Y14.0336
G01 X5.9157 Y14.0106
G01 X5.9013 Y13.9879
G01 X5.8559 Y13.9122
G01 X5.8419 Y13.8874
G01 X5.8300 Y13.8637
G01 X5.7923 Y13.7838
G01 X5.7813 Y13.7591
G01 X5.7712 Y13.7331
G01 X5.7415 Y13.6499
G01 X5.7324 Y13.6222
G01 X5.7255 Y13.5973
G01 X5.7041 Y13.5117
G01 X5.6979 Y13.4840
G01 X5.6934 Y13.4578
G01 X5.6804 Y13.3704
G01 X5.6771 Y13.3439
G01 X5.6750 Y13.3157
G01 X5.6707 Y13.2275
G01 X5.6700 Y13.2000
G01 X5.6707 Y13.1725
G01 X5.6750 Y13.0843
G01 X5.6771 Y13.0561
G01 X5.6804 Y13.0296
G01 X5.6934 Y12.9422
G01 X5.6979 Y12.9160
G01 X5.7041 Y12.8883
G01 X5.7255 Y12.8027
G01 X5.7324 Y12.7778
G01 X5.7415 Y12.7501
G01 X5.7712 Y12.6669
G01 X5.7813 Y12.6409
G01 X5.7923 Y12.6162
G01 X5.8300 Y12.5363
G01 X5.8419 Y12.5126
G01 X5.8559 Y12.4878
G01 X5.9013 Y12.4121
G01 X5.9157 Y12.3894
G01 X5.9319 Y12.3664
G01 X5.9845 Y12.2955
G01 X6.0007 Y12.2747
G01 X6.0194 Y12.2530
G01 X6.0787 Y12.1875
G01 X6.0976 Y12.1676
G01 X6.1175 Y12.1487
G01 X6.1830 Y12.0894
G01 X6.2047 Y12.0707
G01 X6.2255 Y12.0545
G01 X6.2964 Y12.0019
G01 X6.3194 Y11.9857
G01 X6.3421 Y11.9713
G01 X6.4178 Y11.9259
G01 X6.4426 Y11.9119
G01 X6.4663 Y11.9000
G01 X6.5462 Y11.8623
G01 X6.5709 Y11.8513
G01 X6.5969 Y11.8412
G01 X6.6801 Y11.8115
G01 X6.7078 Y11.8024
G01 X6.7327 Y11.7955
G01 X6.8183 Y11.7741
G01 X6.8460 Y11.7679
G01 X6.8722 Y11.7634
G01 X6.9596 Y11.7504
G01 X6.9861 Y11.7471
G01 X7.0143 Y11.7450
G01 X7.1025 Y11.7407
G01 X7.1300 Y11.7400
G01 X7.1575 Y11.7407
G01 X7.2457 Y11.7450
G01 X7.2739 Y11.7471
G01 X7.3004 Y11.7504
G01 X7.3878 Y11.7634
G01 X7.4140 Y11.7679
G01 X7.4417 Y11.7741
G01 X7.5273 Y11.7955
G01 X7.5522 Y11.8024
G01 X7.5799 Y11.8115
G01 X7.6631 Y11.8412
G01 X7.6891 Y11.8513
G01 X7.7138 Y11.8623
G01 X7.7937 Y11.9000
G01 X7.8174 Y11.9119
G01 X7.8422 Y11.9259
G01 X7.9179 Y11.9713
G01 X7.9406 Y11.9857
G01 X7.9636 Y12.0019
G01 X8.0345 Y12.0545
G01 X8.0553 Y12.0707
G01 X8.0770 Y12.0894
G01 X8.1425 Y12.1487
G01 X8.1624 Y12.1676
G01 X8.1813 Y12.1875
G01 X8.2406 Y12.2530
G01 X8.2593 Y12.2747
G01 X8.2755 Y12.2955
G01 X8.3281 Y12.3664
G01 X8.3443 Y12.3894
G01 X8.3587 Y12.4121
G01 X8.4041 Y12.4878
G01 X8.4181 Y12.5126
G01 X8.4300 Y12.5363
G01 X8.4677 Y12.6162
G01 X8.4787 Y12.6409
G01 X8.4888 Y12.6669
G01 X8.5185 Y12.7501
G01 X8.5276 Y12.7778
G01 X8.5345 Y12.8027
G01 X8.5559 Y12.8883
G01 X8.5621 Y12.9160
G01 X8.5666 Y12.9422
G01 X8.5796 Y13.0296
G01 X8.5829 Y13.0561
G01 X8.5850 Y13.0843
G01 X8.5893 Y13.1725
G01 X8.5900 Y13.2000
G01 X8.5893 Y13.2275
G00 Z2.0000
G00 X8.9489 Y13.2451
G01 F60.00
G01 Z-0.0500
G01 F100.00
G01 X8.9431 Y13.3566
G01 X8.9411 Y13.3798
G01 X8.9387 Y13.4015
G01 X8.9227 Y13.5106
G01 X8.9193 Y13.5322
G01 X8.9153 Y13.5537
G01 X8.9108 Y13.5752
G01 X8.9051 Y13.5991
G01 X8.8837 Y13.6848
G01 X8.8724 Y13.7256
G01 X8.8653 Y13.7485
G01 X8.8277 Y13.8544
G01 X8.8197 Y13.8758
G01 X8.8112 Y13.8970
G01 X8.8022 Y13.9181
G01 X8.7466 Y14.0357
G01 X8.7359 Y14.0565
G01 X8.7246 Y14.0770
G01 X8.7128 Y14.0972
G01 X8.6558 Y14.1918
G01 X8.6438 Y14.2103
G01 X8.6308 Y14.2294
G01 X8.5647 Y14.3190
G01 X8.5516 Y14.3362
G01 X8.5381 Y14.3531
G01 X8.5242 Y14.3697
G01 X8.5074 Y14.3888
G01 X8.4481 Y14.4542
G01 X8.4327 Y14.4708
G01 X8.4169 Y14.4869
G01 X8.4008 Y14.5027
G01 X8.3188 Y14.5774
G01 X8.2997 Y14.5942
G01 X8.2831 Y14.6081
G01 X8.2662 Y14.6216
G01 X8.2490 Y14.6347
G01 X8.1781 Y14.6873
G01 X8.1594 Y14.7008
G01 X8.1403 Y14.7138
G01 X8.1218 Y14.7258
G01 X8.1030 Y14.7374
G01 X8.0272 Y14.7828
G01 X8.0070 Y14.7946
G01 X7.9865 Y14.8059
G01 X7.9657 Y14.8166
G01 X7.9476 Y14.8254
G01 X7.8678 Y14.8632
G01 X7.8481 Y14.8722
G01 X7.8270 Y14.8812
G01 X7.8058 Y14.8897
G01 X7.7012 Y14.9275
G01 X7.6785 Y14.9353
G01 X7.6556 Y14.9424
G01 X7.6148 Y14.9537
G01 X7.5291 Y14.9751
G01 X7.5052 Y14.9808
G01 X7.4837 Y14.9853
G01 X7.4622 Y14.9893
G01 X7.4406 Y14.9927
G01 X7.3532 Y15.0057
G01 X7.3315 Y15.0087
G01 X7.3098 Y15.0111
G01 X7.2866 Y15.0131
G01 X7.2634 Y15.0146
G01 X7.1751 Y15.0189
G01 X7.1526 Y15.0197
G01 X7.1300 Y15.0200
G01 X7.1074 Y15.0197
G01 X6.9966 Y15.0146
G01 X6.9734 Y15.0131
G01 X6.9502 Y15.0111
G01 X6.9285 Y15.0087
G01 X6.9068 Y15.0057
G01 X6.8194 Y14.9927
G01 X6.7978 Y14.9893
G01 X6.7763 Y14.9853
G01 X6.7548 Y14.9808
G01 X6.7309 Y14.9751
G01 X6.6452 Y14.9537
G01 X6.6044 Y14.9424
G01 X6.5815 Y14.9353
G01 X6.5588 Y14.9275
G01 X6.4756 Y14.8977
G01 X6.4542 Y14.8897
G01 X6.4330 Y14.8812
G01 X6.4119 Y14.8722
G01 X6.3922 Y14.8632
G01 X6.3124 Y14.8254
G01 X6.2943 Y14.8166
G01 X6.2735 Y14.8059
G01 X6.2530 Y14.7946
G01 X6.2328 Y14.7828
G01 X6.1570 Y14.7374
G01 X6.1382 Y14.7258
G01 X6.1197 Y14.7138
G01 X6.1006 Y14.7008
G01 X6.0819 Y14.6873
G01 X6.0110 Y14.6347
G01 X5.9938 Y14.6216
G01 X5.9769 Y14.6081
G01 X5.9603 Y14.5942
G01 X5.9412 Y14.5774
G01 X5.8758 Y14.5181
G01 X5.8592 Y14.5027
G01 X5.8431 Y14.4869
G01 X5.8273 Y14.4708
G01 X5.7526 Y14.3888
G01 X5.7358 Y14.3697
G01 X5.7219 Y14.3531
G01 X5.7084 Y14.3362
G01 X5.6953 Y14.3190
G01 X5.6427 Y14.2481
G01 X5.6292 Y14.2294
G01 X5.6162 Y14.2103
G01 X5.6042 Y14.1918
G01 X5.5926 Y14.1730
G01 X5.5472 Y14.0972
G01 X5.5354 Y14.0770
G01 X5.5241 Y14.0565
G01 X5.5134 Y14.0357
G01 X5.5046 Y14.0176
G01 X5.4668 Y13.9378
G01 X5.4578 Y13.9181
G01 X5.4488 Y13.8970
G01 X5.4403 Y13.8758
G01 X5.4025 Y13.7712
G01 X5.3947 Y13.7485
G01 X5.3876 Y13.7256
G01 X5.3763 Y13.6848
G01 X5.3549 Y13.5991
G01 X5.3492 Y13.5752
G01 X5.3447 Y13.5537
G01 X5.3407 Y13.5322
G01 X5.3373 Y13.5106
G01 X5.3243 Y13.4232
G01 X5.3213 Y13.4015
G01 X5.3189 Y13.3798
G01 X5.3169 Y13.3566
G01 X5.3154 Y13.3334
G01 X5.3111 Y13.2451
G01 X5.3103 Y13.2226
G01 X5.3100 Y13.2000
G01 X5.3103 Y13.1774
G01 X5.3154 Y13.0666
G01 X5.3169 Y13.0434
G01 X5.3189 Y13.0202
G01 X5.3213 Y12.9985
G01 X5.3243 Y12.9768
G01 X5.3373 Y12.8894
G01 X5.3407 Y12.8678
G01 X5.3447 Y12.8463
G01 X5.3492 Y12.8248
G01 X5.3549 Y12.8009
G01 X5.3763 Y12.7152
G01 X5.3876 Y12.6744
G01 X5.3947 Y12.6515
G01 X5.4025 Y12.6288
G01 X5.4323 Y12.5456
G01 X5.4403 Y12.5242
G01 X5.4488 Y12.5030
G01 X5.4578 Y12.4819
G01 X5.4668 Y12.4622
G01 X5.5046 Y12.3824
G01 X5.5134 Y12.3643
G01 X5.5241 Y12.3435
G01 X5.5354 Y12.3230
G01 X5.5472 Y12.3028
G01 X5.5926 Y12.2270
G01 X5.6042 Y12.2082
G01 X5.6162 Y12.1897
G01 X5.6292 Y12.1706
G01 X5.6427 Y12.1519
G01 X5.6953 Y12.0810
G01 X5.7084 Y12.0638
G01 X5.7219 Y12.0469
G01 X5.7358 Y12.0303
G01 X5.7526 Y12.0112
G01 X5.8119 Y11.9458
G01 X5.8273 Y11.9292
G01 X5.8431 Y11.9131
G01 X5.8592 Y11.8973
G01 X5.9412 Y11.8226
G01 X5.9603 Y11.8058
G01 X5.9769 Y11.7919
G01 X5.9938 Y11.7784
G01 X6.0110 Y11.7653
G01 X6.0819 Y11.7127
G01 X6.1006 Y11.6992
G01 X6.1197 Y11.6862
G01 X6.1382 Y11.6742
G01 X6.1570 Y11.6626
G01 X6.2328 Y11.6172
G01 X6.2530 Y11.6054
G01 X6.2735 Y11.5941
G01 X6.2943 Y11.5834
G01 X6.3124 Y11.5746
G01 X6.3922 Y11.5368
G01 X6.4119 Y11.5278
G01 X6.4330 Y11.5188
G01 X6.4542 Y11.5103
G01 X6.5588 Y11.4725
G01 X6.5815 Y11.4647
G01 X6.6044 Y11.4576
G01 X6.6452 Y11.4463
G01 X6.7309 Y11.4249
G01 X6.7548 Y11.4192
G01 X6.7763 Y11.4147
G01 X6.7978 Y11.4107
G01 X6.8194 Y11.4073
G01 X6.9068 Y11.3943
G01 X6.9285 Y11.3913
G01 X6.9502 Y11.3889
G01 X6.9734 Y11.3869
G01 X6.9966 Y11.3854
G01 X7.0849 Y11.3811
G01 X7.1074 Y11.3803
G01 X7.1300 Y11.3800
G01 X7.1526 Y11.3803
G01 X7.2634 Y11.3854
G01 X7.2866 Y11.3869
G01 X7.3098 Y11.3889
G01 X7.3315 Y11.3913
G01 X7.3532 Y11.3943
G01 X7.4406 Y11.4073
G01 X7.4622 Y11.4107
G01 X7.4837 Y11.4147
G01 X7.5052 Y11.4192
G01 X7.5291 Y11.4249
G01 X7.6148 Y11.4463
G01 X7.6556 Y11.4576
G01 X7.6785 Y11.4647
G01 X7.7012 Y11.4725
G01 X7.7844 Y11.5023
G01 X7.8058 Y11.5103
G01 X7.8270 Y11.5188
G01 X7.8481 Y11.5278
G01 X7.8678 Y11.5368
G01 X7.9476 Y11.5746
G01 X7.9657 Y11.5834
G01 X7.9865 Y11.5941
G01 X8.0070 Y11.6054
G01 X8.0272 Y11.6172
G01 X8.1030 Y11.6626
G01 X8.1218 Y11.6742
G01 X8.1403 Y11.6862
G01 X8.1594 Y11.6992
G01 X8.1781 Y11.7127
G01 X8.2490 Y11.7653
G01 X8.2662 Y11.7784
G01 X8.2831 Y11.7919
G01 X8.2997 Y11.8058
G01 X8.3188 Y11.8226
G01 X8.3842 Y11.8819
G01 X8.4008 Y11.8973
G01 X8.4169 Y11.9131
G01 X8.4327 Y11.9292
G01 X8.5074 Y12.0112
G01 X8.5242 Y12.0303
G01 X8.5381 Y12.0469
G01 X8.5516 Y12.0638
G01 X8.5647 Y12.0810
G01 X8.6173 Y12.1519
G01 X8.6308 Y12.1706
G01 X8.6438 Y12.1897
G01 X8.6558 Y12.2082
G01 X8.6674 Y12.2270
G01 X8.7128 Y12.3028
G01 X8.7246 Y12.3230
G01 X8.7359 Y12.3435
G01 X8.7466 Y12.3643
G01 X8.7554 Y12.3824
G01 X8.7932 Y12.4622
G01 X8.8022 Y12.4819
G01 X8.8112 Y12.5030
G01 X8.8197 Y12.5242
G01 X8.8575 Y12.6288
G01 X8.8653 Y12.6515
G01 X8.8724 Y12.6744
G01 X8.8837 Y12.7152
G01 X8.9051 Y12.8009
G01 X8.9108 Y12.8248
G01 X8.9153 Y12.8463
G01 X8.9193 Y12.8678
G01 X8.9227 Y12.8894
G01 X8.9387 Y12.9985
G01 X8.9411 Y13.0202
G01 X8.9431 Y13.0434
G01 X8.9446 Y13.0666
G01 X8.9497 Y13.1774
G01 X8.9500 Y13.2000
G01 X8.9497 Y13.2226
G01 X8.9489 Y13.2451
G00 Z2.0000
G00 X6.2300 Y16.4600
G01 F60.00
G01 Z-0.0500
G01 F100.00
G01 X8.0300 Y16.4600
G01 X8.0526 Y16.4603
G01 X8.0752 Y16.4611
G01 X8.0978 Y16.4625
G01 X8.1204 Y16.4645
G01 X8.1429 Y16.4670
G01 X8.1653 Y16.4700
G01 X8.1876 Y16.4736
G01 X8.2099 Y16.4778
G01 X8.2320 Y16.4825
G01 X8.2540 Y16.4877
G01 X8.2759 Y16.4935
G01 X8.2977 Y16.4998
G01 X8.3192 Y16.5066
G01 X8.3406 Y16.5140
G01 X8.3618 Y16.5219
G01 X8.3828 Y16.5304
G01 X8.4036 Y16.5393
G01 X8.4241 Y16.5487
G01 X8.4443 Y16.5586
G01 X8.4643 Y16.5690
G01 X8.4840 Y16.5798
G01 X8.5035 Y16.5912
G01 X8.5226 Y16.6030
G01 X8.5415 Y16.6153
G01 X8.5601 Y16.6281
G01 X8.5783 Y16.6413
G01 X8.5962 Y16.6549
G01 X8.6138 Y16.6690
G01 X8.6310 Y16.6835
G01 X8.6479 Y16.6984
G01 X8.6644 Y16.7137
G01 X8.6805 Y16.7295
G01 X8.6963 Y16.7456
G01 X8.7116 Y16.7621
G01 X8.7265 Y16.7789
G01 X8.7410 Y16.7962
G01 X8.7551 Y16.8137
G01 X8.7687 Y16.8317
G01 X8.7819 Y16.8499
G01 X8.7947 Y16.8685
G01 X8.8070 Y16.8873
G01 X8.8188 Y16.9065
G01 X8.8302 Y16.9260
G01 X8.8410 Y16.9457
G01 X8.8514 Y16.9657
G01 X8.8613 Y16.9859
G01 X8.8707 Y17.0064
G01 X8.8796 Y17.0272
G01 X8.8881 Y17.0482
G01 X8.8960 Y17.0694
G01 X8.9034 Y17.0908
G01 X8.9102 Y17.1123
G01 X8.9165 Y17.1341
G01 X8.9223 Y17.1559
G01 X8.9275 Y17.1780
G01 X8.9322 Y17.2001
G01 X8.9364 Y17.2224
G01 X8.9400 Y17.2447
G01 X8.9430 Y17.2671
G01 X8.9455 Y17.2896
G01 X8.9475 Y17.3122
G01 X8.9489 Y17.3348
G01 X8.9497 Y17.3574
G01 X8.9500 Y17.3800
G01 X8.9500 Y19.1800
G01 X8.9497 Y19.2026
G01 X8.9489 Y19.2252
G01 X8.9475 Y19.2478
G01 X8.9455 Y19.2704
G01 X8.9430 Y19.2929
G01 X8.9400 Y19.3153
G01 X8.9364 Y19.3377
G01 X8.9322 Y19.3599
G01 X8.9275 Y19.3820
G01 X8.9223 Y19.4041
G01 X8.9165 Y19.4259
G01 X8.9102 Y19.4477
G01 X8.9033 Y19.4693
G01 X8.8960 Y19.4906
G01 X8.8881 Y19.5119
G01 X8.8796 Y19.5329
G01 X8.8707 Y19.5537
G01 X8.8613 Y19.5741
G01 X8.8514 Y19.5944
G01 X8.8410 Y19.6143
G01 X8.8301 Y19.6341
G01 X8.8188 Y19.6535
G01 X8.8070 Y19.6727
G01 X8.7947 Y19.6915
G01 X8.7819 Y19.7101
G01 X8.7687 Y19.7283
G01 X8.7551 Y19.7463
G01 X8.7410 Y19.7638
G01 X8.7265 Y19.7811
G01 X8.7116 Y19.7979
G01 X8.6963 Y19.8144
G01 X8.6805 Y19.8305
G01 X8.6644 Y19.8463
G01 X8.6479 Y19.8616
G01 X8.6310 Y19.8765
G01 X8.6138 Y19.8910
G01 X8.5962 Y19.9051
G01 X8.5783 Y19.9187
G01 X8.5601 Y19.9319
G01 X8.5415 Y19.9447
G01 X8.5226 Y19.9570
G01 X8.5035 Y19.9688
G01 X8.4840 Y19.9802
G01 X8.4643 Y19.9910
G01 X8.4443 Y20.0014
G01 X8.4241 Y20.0113
G01 X8.4036 Y20.0207
G01 X8.3828 Y20.0296
G01 X8.3618 Y20.0381
G01 X8.3406 Y20.0460
G01 X8.3192 Y20.0534
G01 X8.2977 Y20.0602
G01 X8.2759 Y20.0665
G01 X8.2541 Y20.0723
G01 X8.2320 Y20.0775
G01 X8.2099 Y20.0822
G01 X8.1876 Y20.0864
G01 X8.1653 Y20.0900
G01 X8.1429 Y20.0930
G01 X8.1204 Y20.0955
G01 X8.0978 Y20.0975
G01 X8.0752 Y20.0989
G01 X8.0526 Y20.0997
G01 X8.0300 Y20.1000
G01 X6.2300 Y20.1000
G01 X6.2074 Y20.0997
G01 X6.1848 Y20.0989
G01 X6.1622 Y20.0975
G01 X6.1396 Y20.0955
G01 X6.1171 Y20.0930
G01 X6.0947 Y20.0900
G01 X6.0723 Y20.0864
G01 X6.0501 Y20.0822
G01 X6.0280 Y20.0775
G01 X6.0059 Y20.0723
G01 X5.9841 Y20.0665
G01 X5.9623 Y20.0602
G01 X5.9408 Y20.0533
G01 X5.9194 Y20.0460
G01 X5.8982 Y20.0381
G01 X5.8771 Y20.0296
G01 X5.8563 Y20.0207
G01 X5.8359 Y20.0113
G01 X5.8157 Y20.0014
G01 X5.7957 Y19.9910
G01 X5.7760 Y19.9802
G01 X5.7565 Y19.9688
G01 X5.7373 Y19.9570
G01 X5.7185 Y19.9447
G01 X5.6999 Y19.9319
G01 X5.6817 Y19.9187
G01 X5.6638 Y19.9051
G01 X5.6462 Y19.8910
G01 X5.6289 Y19.8765
G01 X5.6121 Y19.8616
G01 X5.5956 Y19.8463
G01 X5.5795 Y19.8305
G01 X5.5637 Y19.8144
G01 X5.5484 Y19.7979
G01 X5.5335 Y19.7811
G01 X5.5190 Y19.7638
G01 X5.5049 Y19.7463
G01 X5.4913 Y19.7283
G01 X5.4781 Y19.7101
G01 X5.4653 Y19.6915
G01 X5.4530 Y19.6727
G01 X5.4412 Y19.6535
G01 X5.4299 Y19.6340
G01 X5.4190 Y19.6143
G01 X5.4086 Y19.5943
G01 X5.3987 Y19.5741
G01 X5.3893 Y19.5537
G01 X5.3804 Y19.5329
G01 X5.3719 Y19.5119
G01 X5.3640 Y19.4906
G01 X5.3567 Y19.4692
G01 X5.3498 Y19.4477
G01 X5.3435 Y19.4259
G01 X5.3377 Y19.4041
G01 X5.3325 Y19.3820
G01 X5.3278 Y19.3599
G01 X5.3236 Y19.3377
G01 X5.3200 Y19.3153
G01 X5.3170 Y19.2929
G01 X5.3145 Y19.2704
G01 X5.3125 Y19.2478
G01 X5.3111 Y19.2252
G01 X5.3103 Y19.2026
G01 X5.3100 Y19.1800
G01 X5.3100 Y17.3800
G01 X5.3103 Y17.3574
G01 X5.3111 Y17.3348
G01 X5.3125 Y17.3122
G01 X5.3145 Y17.2896
G01 X5.3170 Y17.2671
G01 X5.3200 Y17.2447
G01 X5.3236 Y17.2224
G01 X5.3278 Y17.2001
G01 X5.3325 Y17.1780
G01 X5.3377 Y17.1559
G01 X5.3435 Y17.1341
G01 X5.3498 Y17.1123
G01 X5.3566 Y17.0908
G01 X5.3640 Y17.0694
G01 X5.3719 Y17.0482
G01 X5.3804 Y17.0272
G01 X5.3893 Y17.0064
G01 X5.3987 Y16.9859
G01 X5.4086 Y16.9657
G01 X5.4190 Y16.9457
G01 X5.4298 Y16.9260
G01 X5.4412 Y16.9065
G01 X5.4530 Y16.8873
G01 X5.4653 Y16.8685
G01 X5.4781 Y16.8499
G01 X5.4913 Y16.8317
G01 X5.5049 Y16.8138
G01 X5.5190 Y16.7962
G01 X5.5335 Y16.7789
G01 X5.5484 Y16.7621
G01 X5.5637 Y16.7456
G01 X5.5795 Y16.7295
G01 X5.5956 Y16.7137
G01 X5.6121 Y16.6984
G01 X5.6289 Y16.6835
G01 X5.6462 Y16.6690
G01 X5.6637 Y16.6549
G01 X5.6817 Y16.6413
G01 X5.6999 Y16.6281
G01 X5.7185 Y16.6153
G01 X5.7373 Y16.6030
G01 X5.7565 Y16.5912
G01 X5.7760 Y16.5798
G01 X5.7957 Y16.5690
G01 X5.8157 Y16.5586
G01 X5.8359 Y16.5487
G01 X5.8564 Y16.5393
G01 X5.8771 Y16.5304
G01 X5.8982 Y16.5219
G01 X5.9194 Y16.5140
G01 X5.9408 Y16.5067
G01 X5.9623 Y16.4998
G01 X5.9841 Y16.4935
G01 X6.0059 Y16.4877
G01 X6.0280 Y16.4825
G01 X6.0501 Y16.4778
G01 X6.0723 Y16.4736
G01 X6.0947 Y16.4700
G01 X6.1171 Y16.4670
G01 X6.1396 Y16.4645
G01 X6.1622 Y16.4625
G01 X6.1848 Y16.4611
G01 X6.2074 Y16.4603
G01 X6.2300 Y16.4600
G00 Z2.0000
G00 X6.2300 Y16.8200
G01 F60.00
G01 Z-0.0500
G01 F100.00
G01 X8.0300 Y16.8200
G01 X8.0575 Y16.8207
G01 X8.0850 Y16.8227
G01 X8.1124 Y16.8261
G01 X8.1395 Y16.8308
G01 X8.1664 Y16.8369
G01 X8.1929 Y16.8442
G01 X8.2191 Y16.8529
G01 X8.2448 Y16.8628
G01 X8.2699 Y16.8740
G01 X8.2944 Y16.8863
G01 X8.3182 Y16.8999
G01 X8.3414 Y16.9145
G01 X8.3638 Y16.9303
G01 X8.3854 Y16.9472
G01 X8.3959 Y16.9560
G01 X8.4162 Y16.9744
G01 X8.4356 Y16.9938
G01 X8.4540 Y17.0141
G01 X8.4714 Y17.0353
G01 X8.4877 Y17.0573
G01 X8.4955 Y17.0686
G01 X8.5101 Y17.0918
G01 X8.5237 Y17.1156
G01 X8.5360 Y17.1401
G01 X8.5417 Y17.1526
G01 X8.5523 Y17.1780
G01 X8.5571 Y17.1909
G01 X8.5616 Y17.2039
G01 X8.5696 Y17.2303
G01 X8.5763 Y17.2570
G01 X8.5792 Y17.2705
G01 X8.5817 Y17.2840
G01 X8.5858 Y17.3113
G01 X8.5873 Y17.3250
G01 X8.5893 Y17.3525
G01 X8.5900 Y17.3800
G01 X8.5900 Y19.1800
G01 X8.5893 Y19.2075
G01 X8.5873 Y19.2350
G01 X8.5839 Y19.2624
G01 X8.5792 Y19.2895
G01 X8.5731 Y19.3164
G01 X8.5658 Y19.3429
G01 X8.5571 Y19.3691
G01 X8.5472 Y19.3948
G01 X8.5417 Y19.4074
G01 X8.5300 Y19.4322
G01 X8.5170 Y19.4564
G01 X8.5101 Y19.4682
G01 X8.4955 Y19.4914
G01 X8.4797 Y19.5138
G01 X8.4628 Y19.5354
G01 X8.4449 Y19.5561
G01 X8.4260 Y19.5760
G01 X8.4061 Y19.5949
G01 X8.3854 Y19.6128
G01 X8.3747 Y19.6214
G01 X8.3638 Y19.6297
G01 X8.3414 Y19.6455
G01 X8.3182 Y19.6601
G01 X8.2944 Y19.6737
G01 X8.2699 Y19.6860
G01 X8.2574 Y19.6917
G01 X8.2320 Y19.7023
G01 X8.2191 Y19.7071
G01 X8.2061 Y19.7116
G01 X8.1797 Y19.7196
G01 X8.1664 Y19.7231
G01 X8.1395 Y19.7292
G01 X8.1124 Y19.7339
G01 X8.0987 Y19.7358
G01 X8.0850 Y19.7373
G01 X8.0575 Y19.7393
G01 X8.0300 Y19.7400
G01 X6.2300 Y19.7400
G01 X6.2025 Y19.7393
G01 X6.1750 Y19.7373
G01 X6.1476 Y19.7339
G01 X6.1205 Y19.7292
G01 X6.0936 Y19.7231
G01 X6.0671 Y19.7158
G01 X6.0409 Y19.7071
G01 X6.0152 Y19.6972
G01 X6.0026 Y19.6917
G01 X5.9778 Y19.6800
G01 X5.9536 Y19.6670
G01 X5.9418 Y19.6601
G01 X5.9186 Y19.6455
G01 X5.8962 Y19.6297
G01 X5.8746 Y19.6128
G01 X5.8539 Y19.5949
G01 X5.8340 Y19.5760
G01 X5.8244 Y19.5662
G01 X5.8060 Y19.5459
G01 X5.7886 Y19.5247
G01 X5.7803 Y19.5138
G01 X5.7645 Y19.4914
G01 X5.7499 Y19.4682
G01 X5.7363 Y19.4444
G01 X5.7240 Y19.4199
G01 X5.7183 Y19.4074
G01 X5.7128 Y19.3948
G01 X5.7029 Y19.3691
G01 X5.6942 Y19.3429
G01 X5.6904 Y19.3297
G01 X5.6837 Y19.3030
G01 X5.6808 Y19.2895
G01 X5.6761 Y19.2624
G01 X5.6742 Y19.2487
G01 X5.6727 Y19.2350
G01 X5.6707 Y19.2075
G01 X5.6700 Y19.1800
G01 X5.6700 Y17.3800
G01 X5.6707 Y17.3525
G01 X5.6715 Y17.3387
G01 X5.6742 Y17.3113
G01 X5.6783 Y17.2840
G01 X5.6808 Y17.2705
G01 X5.6869 Y17.2436
G01 X5.6942 Y17.2171
G01 X5.7029 Y17.1909
G01 X5.7128 Y17.1652
G01 X5.7183 Y17.1526
G01 X5.7300 Y17.1278
G01 X5.7429 Y17.1036
G01 X5.7571 Y17.0801
G01 X5.7723 Y17.0573
G01 X5.7886 Y17.0353
G01 X5.8060 Y17.0141
G01 X5.8244 Y16.9938
G01 X5.8438 Y16.9744
G01 X5.8641 Y16.9560
G01 X5.8746 Y16.9472
G01 X5.8962 Y16.9303
G01 X5.9186 Y16.9145
G01 X5.9418 Y16.8999
G01 X5.9536 Y16.8930
G01 X5.9778 Y16.8800
G01 X6.0026 Y16.8683
G01 X6.0152 Y16.8628
G01 X6.0409 Y16.8529
G01 X6.0671 Y16.8442
G01 X6.0803 Y16.8404
G01 X6.1070 Y16.8337
G01 X6.1340 Y16.8283
G01 X6.1613 Y16.8242
G01 X6.1887 Y16.8215
G01 X6.2025 Y16.8207
G01 X6.2300 Y16.8200
G00 Z2.0000
G00 X6.2300 Y17.1800
G01 F60.00
G01 Z-0.0500
G01 F100.00
G01 X8.0349 Y17.1801
G01 X8.0545 Y17.1815
G01 X8.0739 Y17.1849
G01 X8.0929 Y17.1901
G01 X8.1112 Y17.1972
G01 X8.1287 Y17.2061
G01 X8.1371 Y17.2111
G01 X8.1492 Y17.2194
G01 X8.1643 Y17.2318
G01 X8.1782 Y17.2457
G01 X8.1906 Y17.2608
G01 X8.2015 Y17.2771
G01 X8.2107 Y17.2943
G01 X8.2165 Y17.3079
G01 X8.2213 Y17.3218
G01 X8.2261 Y17.3409
G01 X8.2290 Y17.3604
G01 X8.2299 Y17.3751
G01 X8.2300 Y19.1800
G01 X8.2298 Y19.1898
G01 X8.2285 Y19.2045
G01 X8.2251 Y19.2239
G01 X8.2199 Y19.2429
G01 X8.2128 Y19.2612
G01 X8.2063 Y19.2744
G01 X8.2015 Y19.2829
G01 X8.1906 Y19.2992
G01 X8.1782 Y19.3143
G01 X8.1643 Y19.3282
G01 X8.1492 Y19.3406
G01 X8.1329 Y19.3515
G01 X8.1157 Y19.3607
G01 X8.1021 Y19.3665
G01 X8.0882 Y19.3713
G01 X8.0691 Y19.3761
G01 X8.0496 Y19.3790
G01 X8.0349 Y19.3799
G01 X6.2300 Y19.3800
G01 X6.2104 Y19.3790
G01 X6.1957 Y19.3770
G01 X6.1861 Y19.3751
G01 X6.1671 Y19.3699
G01 X6.1488 Y19.3628
G01 X6.1313 Y19.3539
G01 X6.1148 Y19.3435
G01 X6.1031 Y19.3346
G01 X6.0957 Y19.3282
G01 X6.0818 Y19.3143
G01 X6.0694 Y19.2992
G01 X6.0585 Y19.2829
G01 X6.0493 Y19.2657
G01 X6.0435 Y19.2521
G01 X6.0387 Y19.2382
G01 X6.0339 Y19.2191
G01 X6.0315 Y19.2045
G01 X6.0301 Y19.1849
G01 X6.0300 Y17.3800
G01 X6.0305 Y17.3653
G01 X6.0330 Y17.3457
G01 X6.0360 Y17.3313
G01 X6.0417 Y17.3125
G01 X6.0493 Y17.2943
G01 X6.0585 Y17.2771
G01 X6.0694 Y17.2608
G01 X6.0818 Y17.2457
G01 X6.0957 Y17.2318
G01 X6.1108 Y17.2194
G01 X6.1271 Y17.2085
G01 X6.1443 Y17.1993
G01 X6.1579 Y17.1935
G01 X6.1765 Y17.1873
G01 X6.1957 Y17.1830
G01 X6.2153 Y17.1805
G01 X6.2300 Y17.1800
G00 Z2.0000
G00 X8.2298 Y23.3698
G01 F60.00
G01 Z-0.0500
G01 F100.00
G01 X8.2247 Y23.4681
G01 X8.2089 Y23.5743
G01 X8.2067 Y23.5842
G01 X8.1828 Y23.6787
G01 X8.1796 Y23.6886
G01 X8.1462 Y23.7811
G01 X8.1003 Y23.8782
G01 X8.0953 Y23.8871
G01 X8.0447 Y23.9710
G01 X7.9806 Y24.0575
G01 X7.9739 Y24.0653
G01 X7.9078 Y24.1378
G01 X7.8353 Y24.2039
G01 X7.8275 Y24.2106
G01 X7.7410 Y24.2747
G01 X7.6571 Y24.3253
G01 X7.6482 Y24.3303
G01 X7.5511 Y24.3762
G01 X7.4586 Y24.4096
G01 X7.4487 Y24.4128
G01 X7.3542 Y24.4367
G01 X7.3443 Y24.4389
G01 X7.2381 Y24.4547
G01 X7.2280 Y24.4554
G01 X7.1300 Y24.4600
G01 X7.0320 Y24.4554
G01 X7.0219 Y24.4547
G01 X6.9157 Y24.4389
G01 X6.9058 Y24.4367
G01 X6.8113 Y24.4128
G01 X6.8014 Y24.4096
G01 X6.7089 Y24.3762
G01 X6.6118 Y24.3303
G01 X6.6029 Y24.3253
G01 X6.5190 Y24.2747
G01 X6.4325 Y24.2106
G01 X6.4247 Y24.2039
G01 X6.3522 Y24.1378
G01 X6.2861 Y24.0653
G01 X6.2794 Y24.0575
G01 X6.2153 Y23.9710
G01 X6.1647 Y23.8871
G01 X6.1597 Y23.8782
G01 X6.1138 Y23.7811
G01 X6.0804 Y23.6886
G01 X6.0772 Y23.6787
G01 X6.0533 Y23.5842
G01 X6.0511 Y23.5743
G01 X6.0353 Y23.4681
G01 X6.0346 Y23.4580
G01 X6.0300 Y23.3600
G01 X6.0346 Y23.2620
G01 X6.0353 Y23.2519
G01 X6.0511 Y23.1457
G01 X6.0533 Y23.1358
G01 X6.0772 Y23.0413
G01 X6.0804 Y23.0314
G01 X6.1138 Y22.9389
G01 X6.1597 Y22.8418
G01 X6.1647 Y22.8329
G01 X6.2153 Y22.7490
G01 X6.2794 Y22.6625
G01 X6.2861 Y22.6547
G01 X6.3522 Y22.5822
G01 X6.4247 Y22.5161
G01 X6.4325 Y22.5094
G01 X6.5190 Y22.4453
G01 X6.6029 Y22.3947
G01 X6.6118 Y22.3897
G01 X6.7089 Y22.3438
G01 X6.8014 Y22.3104
G01 X6.8113 Y22.3072
G01 X6.9058 Y22.2833
G01 X6.9157 Y22.2811
G01 X7.0219 Y22.2653
G01 X7.0320 Y22.2646
G01 X7.1300 Y22.2600
G01 X7.2280 Y22.2646
G01 X7.2381 Y22.2653
G01 X7.3443 Y22.2811
G01 X7.3542 Y22.2833
G01 X7.4487 Y22.3072
G01 X7.4586 Y22.3104
G01 X7.5511 Y22.3438
G01 X7.6482 Y22.3897
G01 X7.6571 Y22.3947
G01 X7.7410 Y22.4453
G01 X7.8275 Y22.5094
G01 X7.8353 Y22.5161
G01 X7.9078 Y22.5822
G01 X7.9739 Y22.6547
G01 X7.9806 Y22.6625
G01 X8.0447 Y22.7490
G01 X8.0953 Y22.8329
G01 X8.1003 Y22.8418
G01 X8.1462 Y22.9389
G01 X8.1796 Y23.0314
G01 X8.1828 Y23.0413
G01 X8.2067 Y23.1358
G01 X8.2089 Y23.1457
G01 X8.2247 Y23.2519
G01 X8.2298 Y23.3502
G01 X8.2298 Y23.3698
G00 Z2.0000
G00 X8.5893 Y23.3875
G01 F60.00
G01 Z-0.0500
G01 F100.00
G01 X8.5850 Y23.4757
G01 X8.5829 Y23.5039
G01 X8.5796 Y23.5304
G01 X8.5666 Y23.6178
G01 X8.5621 Y23.6440
G01 X8.5559 Y23.6717
G01 X8.5345 Y23.7573
G01 X8.5276 Y23.7822
G01 X8.5185 Y23.8099
G01 X8.4888 Y23.8931
G01 X8.4787 Y23.9191
G01 X8.4677 Y23.9438
G01 X8.4300 Y24.0237
G01 X8.4181 Y24.0474
G01 X8.4041 Y24.0722
G01 X8.3587 Y24.1479
G01 X8.3443 Y24.1706
G01 X8.3281 Y24.1936
G01 X8.2755 Y24.2645
G01 X8.2593 Y24.2853
G01 X8.2406 Y24.3070
G01 X8.1813 Y24.3725
G01 X8.1624 Y24.3924
G01 X8.1425 Y24.4113
G01 X8.0770 Y24.4706
G01 X8.0553 Y24.4893
G01 X8.0345 Y24.5055
G01 X7.9636 Y24.5581
G01 X7.9406 Y24.5743
G01 X7.9179 Y24.5887
G01 X7.8422 Y24.6341
G01 X7.8174 Y24.6481
G01 X7.7937 Y24.6600
G01 X7.7138 Y24.6977
G01 X7.6891 Y24.7087
G01 X7.6631 Y24.7188
G01 X7.5799 Y24.7485
G01 X7.5522 Y24.7576
G01 X7.5273 Y24.7645
G01 X7.4417 Y24.7859
G01 X7.4140 Y24.7921
G01 X7.3878 Y24.7966
G01 X7.3004 Y24.8096
G01 X7.2739 Y24.8129
G01 X7.2457 Y24.8150
G01 X7.1575 Y24.8193
G01 X7.1300 Y24.8200
G01 X7.1025 Y24.8193
G01 X7.0143 Y24.8150
G01 X6.9861 Y24.8129
G01 X6.9596 Y24.8096
G01 X6.8722 Y24.7966
G01 X6.8460 Y24.7921
G01 X6.8183 Y24.7859
G01 X6.7327 Y24.7645
G01 X6.7078 Y24.7576
G01 X6.6801 Y24.7485
G01 X6.5969 Y24.7188
G01 X6.5709 Y24.7087
G01 X6.5462 Y24.6977
G01 X6.4663 Y24.6600
G01 X6.4426 Y24.6481
G01 X6.4178 Y24.6341
G01 X6.3421 Y24.5887
G01 X6.3194 Y24.5743
G01 X6.2964 Y24.5581
G01 X6.2255 Y24.5055
G01 X6.2047 Y24.4893
G01 X6.1830 Y24.4706
G01 X6.1175 Y24.4113
G01 X6.0976 Y24.3924
G01 X6.0787 Y24.3725
G01 X6.0194 Y24.3070
G01 X6.0007 Y24.2853
G01 X5.9845 Y24.2645
G01 X5.9319 Y24.1936
G01 X5.9157 Y24.1706
G01 X5.9013 Y24.1479
G01 X5.8559 Y24.0722
G01 X5.8419 Y24.0474
G01 X5.8300 Y24.0237
G01 X5.7923 Y23.9438
G01 X5.7813 Y23.9191
G01 X5.7712 Y23.8931
G01 X5.7415 Y23.8099
G01 X5.7324 Y23.7822
G01 X5.7255 Y23.7573
G01 X5.7041 Y23.6717
G01 X5.6979 Y23.6440
G01 X5.6934 Y23.6178
G01 X5.6804 Y23.5304
G01 X5.6771 Y23.5039
G01 X5.6750 Y23.4757
G01 X5.6707 Y23.3875
G01 X5.6700 Y23.3600
G01 X5.6707 Y23.3325
G01 X5.6750 Y23.2443
G01 X5.6771 Y23.2161
G01 X5.6804 Y23.1896
G01 X5.6934 Y23.1022
G01 X5.6979 Y23.0760
G01 X5.7041 Y23.0483
G01 X5.7255 Y22.9627
G01 X5.7324 Y22.9378
G01 X5.7415 Y22.9101
G01 X5.7712 Y22.8269
G01 X5.7813 Y22.8009
G01 X5.7923 Y22.7762
G01 X5.8300 Y22.6963
G01 X5.8419 Y22.6726
G01 X5.8559 Y22.6478
G01 X5.9013 Y22.5721
G01 X5.9157 Y22.5494
G01 X5.9319 Y22.5264
G01 X5.9845 Y22.4555
G01 X6.0007 Y22.4347
G01 X6.0194 Y22.4130
G01 X6.0787 Y22.3475
G01 X6.0976 Y22.3276
G01 X6.1175 Y22.3087
G01 X6.1830 Y22.2494
G01 X6.2047 Y22.2307
G01 X6.2255 Y22.2145
G01 X6.2964 Y22.1619
G01 X6.3194 Y22.1457
G01 X6.3421 Y22.1313
G01 X6.4178 Y22.0859
G01 X6.4426 Y22.0719
G01 X6.4663 Y22.0600
G01 X6.5462 Y22.0223
G01 X6.5709 Y22.0113
G01 X6.5969 Y22.0012
G01 X6.6801 Y21.9715
G01 X6.7078 Y21.9624
G01 X6.7327 Y21.9555
G01 X6.8183 Y21.9341
G01 X6.8460 Y21.9279
G01 X6.8722 Y21.9234
G01 X6.9596 Y21.9104
G01 X6.9861 Y21.9071
G01 X7.0143 Y21.9050
G01 X7.1025 Y21.9007
G01 X7.1300 Y21.9000
G01 X7.1575 Y21.9007
G01 X7.2457 Y21.9050
G01 X7.2739 Y21.9071
G01 X7.3004 Y21.9104
G01 X7.3878 Y21.9234
G01 X7.4140 Y21.9279
G01 X7.4417 Y21.9341
G01 X7.5273 Y21.9555
G01 X7.5522 Y21.9624
G01 X7.5799 Y21.9715
G01 X7.6631 Y22.0012
G01 X7.6891 Y22.0113
G01 X7.7138 Y22.0223
G01 X7.7937 Y22.0600
G01 X7.8174 Y22.0719
G01 X7.8422 Y22.0859
G01 X7.9179 Y22.1313
G01 X7.9406 Y22.1457
G01 X7.9636 Y22.1619
G01 X8.0345 Y22.2145
G01 X8.0553 Y22.2307
G01 X8.0770 Y22.2494
G01 X8.1425 Y22.3087
G01 X8.1624 Y22.3276
G01 X8.1813 Y22.3475
G01 X8.2406 Y22.4130
G01 X8.2593 Y22.4347
G01 X8.2755 Y22.4555
G01 X8.3281 Y22.5264
G01 X8.3443 Y22.5494
G01 X8.3587 Y22.5721
G01 X8.4041 Y22.6478
G01 X8.4181 Y22.6726
G01 X8.4300 Y22.6963
G01 X8.4677 Y22.7762
G01 X8.4787 Y22.8009
G01 X8.4888 Y22.8269
G01 X8.5185 Y22.9101
G01 X8.5276 Y22.9378
G01 X8.5345 Y22.9627
G01 X8.5559 Y23.0483
G01 X8.5621 Y23.0760
G01 X8.5666 Y23.1022
G01 X8.5796 Y23.1896
G01 X8.5829 Y23.2161
G01 X8.5850 Y23.2443
G01 X8.5893 Y23.3325
G01 X8.5900 Y23.3600
G01 X8.5893 Y23.3875
G00 Z2.0000
G00 X8.9489 Y23.4051
G01 F60.00
G01 Z-0.0500
G01 F100.00
G01 X8.9431 Y23.5166
G01 X8.9411 Y23.5398
G01 X8.9387 Y23.5615
G01 X8.9227 Y23.6706
G01 X8.9193 Y23.6922
G01 X8.9153 Y23.7137
G01 X8.9108 Y23.7352
G01 X8.9051 Y23.7591
G01 X8.8837 Y23.8448
G01 X8.8724 Y23.8856
G01 X8.8653 Y23.9085
G01 X8.8277 Y24.0144
G01 X8.8197 Y24.0358
G01 X8.8112 Y24.0570
G01 X8.8022 Y24.0781
G01 X8.7466 Y24.1957
G01 X8.7359 Y24.2165
G01 X8.7246 Y24.2370
G01 X8.7128 Y24.2572
G01 X8.6558 Y24.3518
G01 X8.6438 Y24.3703
G01 X8.6308 Y24.3894
G01 X8.5647 Y24.4790
G01 X8.5516 Y24.4962
G01 X8.5381 Y24.5131
G01 X8.5242 Y24.5297
G01 X8.5074 Y24.5488
G01 X8.4481 Y24.6142
G01 X8.4327 Y24.6308
G01 X8.4169 Y24.6469
G01 X8.4008 Y24.6627
G01 X8.3188 Y24.7374
G01 X8.2997 Y24.7542
G01 X8.2831 Y24.7681
G01 X8.2662 Y24.7816
G01 X8.2490 Y24.7947
G01 X8.1781 Y24.8473
G01 X8.1594 Y24.8608
G01 X8.1403 Y24.8738
G01 X8.1218 Y24.8858
G01 X8.1030 Y24.8974
G01 X8.0272 Y24.9428
G01 X8.0070 Y24.9546
G01 X7.9865 Y24.9659
G01 X7.9657 Y24.9766
G01 X7.9476 Y24.9854
G01 X7.8678 Y25.0232
G01 X7.8481 Y25.0322
G01 X7.8270 Y25.0412
G01 X7.8058 Y25.0497
G01 X7.7012 Y25.0875
G01 X7.6785 Y25.0953
G01 X7.6556 Y25.1024
G01 X7.6148 Y25.1137
G01 X7.5291 Y25.1351
G01 X7.5052 Y25.1408
G01 X7.4837 Y25.1453
G01 X7.4622 Y25.1493
G01 X7.4406 Y25.1527
G01 X7.3532 Y25.1657
G01 X7.3315 Y25.1687
G01 X7.3098 Y25.1711
G01 X7.2866 Y25.1731
G01 X7.2634 Y25.1746
G01 X7.1751 Y25.1789
G01 X7.1526 Y25.1797
G01 X7.1300 Y25.1800
G01 X7.1074 Y25.1797
G01 X6.9966 Y25.1746
G01 X6.9734 Y25.1731
G01 X6.9502 Y25.1711
G01 X6.9285 Y25.1687
G01 X6.9068 Y25.1657
G01 X6.8194 Y25.1527
G01 X6.7978 Y25.1493
G01 X6.7763 Y25.1453
G01 X6.7548 Y25.1408
G01 X6.7309 Y25.1351
G01 X6.6452 Y25.1137
G01 X6.6044 Y25.1024
G01 X6.5815 Y25.0953
G01 X6.5588 Y25.0875
G01 X6.4756 Y25.0577
G01 X6.4542 Y25.0497
G01 X6.4330 Y25.0412
G01 X6.4119 Y25.0322
G01 X6.3922 Y25.0232
G01 X6.3124 Y24.9854
G01 X6.2943 Y24.9766
G01 X6.2735 Y24.9659
G01 X6.2530 Y24.9546
G01 X6.2328 Y24.9428
G01 X6.1570 Y24.8974
G01 X6.1382 Y24.8858
G01 X6.1197 Y24.8738
G01 X6.1006 Y24.8608
G01 X6.0819 Y24.8473
G01 X6.0110 Y24.7947
G01 X5.9938 Y24.7816
G01 X5.9769 Y24.7681
G01 X5.9603 Y24.7542
G01 X5.9412 Y24.7374
G01 X5.8758 Y24.6781
G01 X5.8592 Y24.6627
G01 X5.8431 Y24.6469
G01 X5.8273 Y24.6308
G01 X5.7526 Y24.5488
G01 X5.7358 Y24.5297
G01 X5.7219 Y24.5131
G01 X5.7084 Y24.4962
G01 X5.6953 Y24.4790
G01 X5.6427 Y24.4081
G01 X5.6292 Y24.3894
G01 X5.6162 Y24.3703
G01 X5.6042 Y24.3518
G01 X5.5926 Y24.3330
G01 X5.5472 Y24.2572
G01 X5.5354 Y24.2370
G01 X5.5241 Y24.2165
G01 X5.5134 Y24.1957
G01 X5.5046 Y24.1776
G01 X5.4668 Y24.0978
G01 X5.4578 Y24.0781
G01 X5.4488 Y24.0570
G01 X5.4403 Y24.0358
G01 X5.4025 Y23.9312
G01 X5.3947 Y23.9085
G01 X5.3876 Y23.8856
G01 X5.3763 Y23.8448
G01 X5.3549 Y23.7591
G01 X5.3492 Y23.7352
G01 X5.3447 Y23.7137
G01 X5.3407 Y23.6922
G01 X5.3373 Y23.6706
G01 X5.3243 Y23.5832
G01 X5.3213 Y23.5615
G01 X5.3189 Y23.5398
G01 X5.3169 Y23.5166
G01 X5.3154 Y23.4934
G01 X5.3111 Y23.4051
G01 X5.3103 Y23.3826
G01 X5.3100 Y23.3600
G01 X5.3103 Y23.3374
G01 X5.3154 Y23.2266
G01 X5.3169 Y23.2034
G01 X5.3189 Y23.1802
G01 X5.3213 Y23.1585
G01 X5.3243 Y23.1368
G01 X5.3373 Y23.0494
G01 X5.3407 Y23.0278
G01 X5.3447 Y23.0063
G01 X5.3492 Y22.9848
G01 X5.3549 Y22.9609
G01 X5.3763 Y22.8752
G01 X5.3876 Y22.8344
G01 X5.3947 Y22.8115
G01 X5.4025 Y22.7888
G01 X5.4323 Y22.7056
G01 X5.4403 Y22.6842
G01 X5.4488 Y22.6630
G01 X5.4578 Y22.6419
G01 X5.4668 Y22.6222
G01 X5.5046 Y22.5424
G01 X5.5134 Y22.5243
G01 X5.5241 Y22.5035
G01 X5.5354 Y22.4830
G01 X5.5472 Y22.4628
G01 X5.5926 Y22.3870
G01 X5.6042 Y22.3682
G01 X5.6162 Y22.3497
G01 X5.6292 Y22.3306
G01 X5.6427 Y22.3119
G01 X5.6953 Y22.2410
G01 X5.7084 Y22.2238
G01 X5.7219 Y22.2069
G01 X5.7358 Y22.1903
G01 X5.7526 Y22.1712
G01 X5.8119 Y22.1058
G01 X5.8273 Y22.0892
G01 X5.8431 Y22.0731
G01 X5.8592 Y22.0573
G01 X5.9412 Y21.9826
G01 X5.9603 Y21.9658
G01 X5.9769 Y21.9519
G01 X5.9938 Y21.9384
G01 X6.0110 Y21.9253
G01 X6.0819 Y21.8727
G01 X6.1006 Y21.8592
G01 X6.1197 Y21.8462
G01 X6.1382 Y21.8342
G01 X6.1570 Y21.8226
G01 X6.2328 Y21.7772
G01 X6.2530 Y21.7654
G01 X6.2735 Y21.7541
G01 X6.2943 Y21.7434
G01 X6.3124 Y21.7346
G01 X6.3922 Y21.6968
G01 X6.4119 Y21.6878
G01 X6.4330 Y21.6788
G01 X6.4542 Y21.6703
G01 X6.5588 Y21.6325
G01 X6.5815 Y21.6247
G01 X6.6044 Y21.6176
G01 X6.6452 Y21.6063
G01 X6.7309 Y21.5849
G01 X6.7548 Y21.5792
G01 X6.7763 Y21.5747
G01 X6.7978 Y21.5707
G01 X6.8194 Y21.5673
G01 X6.9068 Y21.5543
G01 X6.9285 Y21.5513
G01 X6.9502 Y21.5489
G01 X6.9734 Y21.5469
G01 X6.9966 Y21.5454
G01 X7.0849 Y21.5411
G01 X7.1074 Y21.5403
G01 X7.1300 Y21.5400
G01 X7.1526 Y21.5403
G01 X7.2634 Y21.5454
G01 X7.2866 Y21.5469
G01 X7.3098 Y21.5489
G01 X7.3315 Y21.5513
G01 X7.3532 Y21.5543
G01 X7.4406 Y21.5673
G01 X7.4622 Y21.5707
G01 X7.4837 Y21.5747
G01 X7.5052 Y21.5792
G01 X7.5291 Y21.5849
G01 X7.6148 Y21.6063
G01 X7.6556 Y21.6176
G01 X7.6785 Y21.6247
G01 X7.7012 Y21.6325
G01 X7.7844 Y21.6623
G01 X7.8058 Y21.6703
G01 X7.8270 Y21.6788
G01 X7.8481 Y21.6878
G01 X7.8678 Y21.6968
G01 X7.9476 Y21.7346
G01 X7.9657 Y21.7434
G01 X7.9865 Y21.7541
G01 X8.0070 Y21.7654
G01 X8.0272 Y21.7772
G01 X8.1030 Y21.8226
G01 X8.1218 Y21.8342
G01 X8.1403 Y21.8462
G01 X8.1594 Y21.8592
G01 X8.1781 Y21.8727
G01 X8.2490 Y21.9253
G01 X8.2662 Y21.9384
G01 X8.2831 Y21.9519
G01 X8.2997 Y21.9658
G01 X8.3188 Y21.9826
G01 X8.3842 Y22.0419
G01 X8.4008 Y22.0573
G01 X8.4169 Y22.0731
G01 X8.4327 Y22.0892
G01 X8.5074 Y22.1712
G01 X8.5242 Y22.1903
G01 X8.5381 Y22.2069
G01 X8.5516 Y22.2238
G01 X8.5647 Y22.2410
G01 X8.6173 Y22.3119
G01 X8.6308 Y22.3306
G01 X8.6438 Y22.3497
G01 X8.6558 Y22.3682
G01 X8.6674 Y22.3870
G01 X8.7128 Y22.4628
G01 X8.7246 Y22.4830
G01 X8.7359 Y22.5035
G01 X8.7466 Y22.5243
G01 X8.7554 Y22.5424
G01 X8.7932 Y22.6222
G01 X8.8022 Y22.6419
G01 X8.8112 Y22.6630
G01 X8.8197 Y22.6842
G01 X8.8575 Y22.7888
G01 X8.8653 Y22.8115
G01 X8.8724 Y22.8344
G01 X8.8837 Y22.8752
G01 X8.9051 Y22.9609
G01 X8.9108 Y22.9848
G01 X8.9153 Y23.0063
G01 X8.9193 Y23.0278
G01 X8.9227 Y23.0494
G01 X8.9387 Y23.1585
G01 X8.9411 Y23.1802
G01 X8.9431 Y23.2034
G01 X8.9446 Y23.2266
G01 X8.9497 Y23.3374
G01 X8.9500 Y23.3600
G01 X8.9497 Y23.3826
G01 X8.9489 Y23.4051
G00 Z2.0000
G00 X6.2300 Y26.6200
G01 F60.00
G01 Z-0.0500
G01 F100.00
G01 X8.0300 Y26.6200
G01 X8.0526 Y26.6203
G01 X8.0752 Y26.6211
G01 X8.0978 Y26.6225
G01 X8.1204 Y26.6245
G01 X8.1429 Y26.6270
G01 X8.1653 Y26.6300
G01 X8.1876 Y26.6336
G01 X8.2099 Y26.6378
G01 X8.2320 Y26.6425
G01 X8.2540 Y26.6477
G01 X8.2759 Y26.6535
G01 X8.2977 Y26.6598
G01 X8.3192 Y26.6666
G01 X8.3406 Y26.6740
G01 X8.3618 Y26.6819
G01 X8.3828 Y26.6904
G01 X8.4036 Y26.6993
G01 X8.4241 Y26.7087
G01 X8.4443 Y26.7186
G01 X8.4643 Y26.7290
G01 X8.4840 Y26.7398
G01 X8.5035 Y26.7512
G01 X8.5226 Y26.7630
G01 X8.5415 Y26.7753
G01 X8.5601 Y26.7881
G01 X8.5783 Y26.8013
G01 X8.5962 Y26.8149
G01 X8.6138 Y26.8290
G01 X8.6311 Y26.8435
G01 X8.6479 Y26.8584
G01 X8.6644 Y26.8737
G01 X8.6805 Y26.8895
G01 X8.6963 Y26.9056
G01 X8.7116 Y26.9221
G01 X8.7265 Y26.9389
G01 X8.7410 Y26.9562
G01 X8.7551 Y26.9737
G01 X8.7687 Y26.9917
G01 X8.7819 Y27.0099
G01 X8.7947 Y27.0285
G01 X8.8070 Y27.0473
G01 X8.8188 Y27.0665
G01 X8.8302 Y27.0860
G01 X8.8410 Y27.1057
G01 X8.8514 Y27.1257
G01 X8.8613 Y27.1459
G01 X8.8707 Y27.1664
G01 X8.8796 Y27.1872
G01 X8.8881 Y27.2082
G01 X8.8960 Y27.2294
G01 X8.9034 Y27.2508
G01 X8.9102 Y27.2723
G01 X8.9165 Y27.2941
G01 X8.9223 Y27.3159
G01 X8.9275 Y27.3380
G01 X8.9322 Y27.3601
G01 X8.9364 Y27.3824
G01 X8.9400 Y27.4047
G01 X8.9430 Y27.4271
G01 X8.9455 Y27.4496
G01 X8.9475 Y27.4722
G01 X8.9489 Y27.4948
G01 X8.9497 Y27.5174
G01 X8.9500 Y27.5400
G01 X8.9500 Y29.3400
G01 X8.9497 Y29.3626
G01 X8.9489 Y29.3852
G01 X8.9475 Y29.4078
G01 X8.9455 Y29.4304
G01 X8.9430 Y29.4529
G01 X8.9400 Y29.4753
G01 X8.9364 Y29.4976
G01 X8.9322 Y29.5199
G01 X8.9275 Y29.5420
G01 X8.9223 Y29.5641
G01 X8.9165 Y29.5859
G01 X8.9102 Y29.6077
G01 X8.9034 Y29.6292
G01 X8.8960 Y29.6506
G01 X8.8881 Y29.6718
G01 X8.8796 Y29.6928
G01 X8.8707 Y29.7136
G01 X8.8613 Y29.7341
G01 X8.8514 Y29.7543
G01 X8.8410 Y29.7743
G01 X8.8302 Y29.7940
G01 X8.8188 Y29.8135
G01 X8.8070 Y29.8327
G01 X8.7947 Y29.8515
G01 X8.7819 Y29.8701
G01 X8.7687 Y29.8883
G01 X8.7551 Y29.9063
G01 X8.7410 Y29.9238
G01 X8.7265 Y29.9411
G01 X8.7116 Y29.9579
G01 X8.6963 Y29.9744
G01 X8.6805 Y29.9905
G01 X8.6644 Y30.0063
G01 X8.6479 Y30.0216
G01 X8.6311 Y30.0365
G01 X8.6138 Y30.0510
G01 X8.5962 Y30.0651
G01 X8.5783 Y30.0787
G01 X8.5601 Y30.0919
G01 X8.5415 Y30.1047
G01 X8.5226 Y30.1170
G01 X8.5035 Y30.1288
G01 X8.4840 Y30.1402
G01 X8.4643 Y30.1510
G01 X8.4443 Y30.1614
G01 X8.4241 Y30.1713
G01 X8.4036 Y30.1807
G01 X8.3828 Y30.1896
G01 X8.3618 Y30.1981
G01 X8.3406 Y30.2060
G01 X8.3192 Y30.2134
G01 X8.2977 Y30.2202
G01 X8.2759 Y30.2265
G01 X8.2540 Y30.2323
G01 X8.2320 Y30.2375
G01 X8.2099 Y30.2422
G01 X8.1876 Y30.2464
G01 X8.1653 Y30.2500
G01 X8.1429 Y30.2530
G01 X8.1204 Y30.2555
G01 X8.0978 Y30.2575
G01 X8.0752 Y30.2589
G01 X8.0526 Y30.2597
G01 X8.0300 Y30.2600
G01 X6.2300 Y30.2600
G01 X6.2074 Y30.2597
G01 X6.1848 Y30.2589
G01 X6.1622 Y30.2575
G01 X6.1396 Y30.2555
G01 X6.1171 Y30.2530
G01 X6.0947 Y30.2500
G01 X6.0723 Y30.2464
G01 X6.0501 Y30.2422
G01 X6.0280 Y30.2375
G01 X6.0059 Y30.2323
G01 X5.9841 Y30.2265
G01 X5.9623 Y30.2202
G01 X5.9408 Y30.2133
G01 X5.9194 Y30.2060
G01 X5.8982 Y30.1981
G01 X5.8771 Y30.1896
G01 X5.8563 Y30.1807
G01 X5.8359 Y30.1713
G01 X5.8157 Y30.1614
G01 X5.7957 Y30.1510
G01 X5.7760 Y30.1402
G01 X5.7565 Y30.1288
G01 X5.7373 Y30.1170
G01 X5.7185 Y30.1047
G01 X5.6999 Y30.0919
G01 X5.6817 Y30.0787
G01 X5.6637 Y30.0651
G01 X5.6462 Y30.0510
G01 X5.6289 Y30.0365
G01 X5.6121 Y30.0216
G01 X5.5956 Y30.0063
G01 X5.5795 Y29.9905
G01 X5.5637 Y29.9744
G01 X5.5484 Y29.9579
G01 X5.5335 Y29.9411
G01 X5.5190 Y29.9238
G01 X5.5049 Y29.9062
G01 X5.4913 Y29.8883
G01 X5.4781 Y29.8701
G01 X5.4653 Y29.8515
G01 X5.4530 Y29.8327
G01 X5.4412 Y29.8135
G01 X5.4298 Y29.7940
G01 X5.4190 Y29.7743
G01 X5.4086 Y29.7543
G01 X5.3987 Y29.7341
G01 X5.3893 Y29.7136
G01 X5.3804 Y29.6928
G01 X5.3719 Y29.6718
G01 X5.3640 Y29.6506
G01 X5.3566 Y29.6292
G01 X5.3498 Y29.6077
G01 X5.3435 Y29.5859
G01 X5.3377 Y29.5641
G01 X5.3325 Y29.5420
G01 X5.3278 Y29.5199
G01 X5.3236 Y29.4976
G01 X5.3200 Y29.4753
G01 X5.3170 Y29.4529
G01 X5.3145 Y29.4304
G01 X5.3125 Y29.4078
G01 X5.3111 Y29.3852
G01 X5.3103 Y29.3626
G01 X5.3100 Y29.3400
G01 X5.3100 Y27.5400
G01 X5.3103 Y27.5174
G01 X5.3111 Y27.4948
G01 X5.3125 Y27.4722
G01 X5.3145 Y27.4496
G01 X5.3170 Y27.4271
G01 X5.3200 Y27.4047
G01 X5.3236 Y27.3824
G01 X5.3278 Y27.3601
G01 X5.3325 Y27.3380
G01 X5.3377 Y27.3159
G01 X5.3435 Y27.2941
G01 X5.3498 Y27.2723
G01 X5.3566 Y27.2508
G01 X5.3640 Y27.2294
G01 X5.3719 Y27.2082
G01 X5.3804 Y27.1872
G01 X5.3893 Y27.1664
G01 X5.3987 Y27.1459
G01 X5.4086 Y27.1257
G01 X5.4190 Y27.1057
G01 X5.4298 Y27.0860
G01 X5.4412 Y27.0665
G01 X5.4530 Y27.0473
G01 X5.4653 Y27.0285
G01 X5.4781 Y27.0099
G01 X5.4913 Y26.9917
G01 X5.5049 Y26.9738
G01 X5.5190 Y26.9562
G01 X5.5335 Y26.9389
G01 X5.5484 Y26.9221
G01 X5.5637 Y26.9056
G01 X5.5795 Y26.8895
G01 X5.5956 Y26.8737
G01 X5.6121 Y26.8584
G01 X5.6289 Y26.8435
G01 X5.6462 Y26.8290
G01 X5.6637 Y26.8149
G01 X5.6817 Y26.8013
G01 X5.6999 Y26.7881
G01 X5.7185 Y26.7753
G01 X5.7373 Y26.7630
G01 X5.7565 Y26.7512
G01 X5.7760 Y26.7398
G01 X5.7957 Y26.7290
G01 X5.8157 Y26.7186
G01 X5.8359 Y26.7087
G01 X5.8563 Y26.6993
G01 X5.8771 Y26.6904
G01 X5.8982 Y26.6819
G01 X5.9194 Y26.6740
G01 X5.9408 Y26.6667
G01 X5.9623 Y26.6598
G01 X5.9841 Y26.6535
G01 X6.0059 Y26.6477
G01 X6.0280 Y26.6425
G01 X6.0501 Y26.6378
G01 X6.0723 Y26.6336
G01 X6.0947 Y26.6300
G01 X6.1171 Y26.6270
G01 X6.1396 Y26.6245
G01 X6.1622 Y26.6225
G01 X6.1848 Y26.6211
G01 X6.2074 Y26.6203
G01 X6.2300 Y26.6200
G00 Z2.0000
G00 X6.2300 Y26.9800
G01 F60.00
G01 Z-0.0500
G01 F100.00
G01 X8.0300 Y26.9800
G01 X8.0575 Y26.9807
G01 X8.0850 Y26.9827
G01 X8.1124 Y26.9861
G01 X8.1395 Y26.9908
G01 X8.1664 Y26.9969
G01 X8.1929 Y27.0042
G01 X8.2191 Y27.0129
G01 X8.2448 Y27.0228
G01 X8.2699 Y27.0340
G01 X8.2944 Y27.0463
G01 X8.3182 Y27.0599
G01 X8.3414 Y27.0745
G01 X8.3638 Y27.0903
G01 X8.3854 Y27.1072
G01 X8.3959 Y27.1160
G01 X8.4162 Y27.1344
G01 X8.4356 Y27.1538
G01 X8.4540 Y27.1741
G01 X8.4714 Y27.1953
G01 X8.4877 Y27.2173
G01 X8.5029 Y27.2401
G01 X8.5171 Y27.2636
G01 X8.5237 Y27.2756
G01 X8.5360 Y27.3001
G01 X8.5417 Y27.3126
G01 X8.5523 Y27.3380
G01 X8.5571 Y27.3509
G01 X8.5616 Y27.3639
G01 X8.5696 Y27.3903
G01 X8.5763 Y27.4170
G01 X8.5792 Y27.4305
G01 X8.5817 Y27.4440
G01 X8.5858 Y27.4713
G01 X8.5873 Y27.4850
G01 X8.5893 Y27.5125
G01 X8.5900 Y27.5400
G01 X8.5900 Y29.3400
G01 X8.5893 Y29.3675
G01 X8.5873 Y29.3950
G01 X8.5839 Y29.4224
G01 X8.5792 Y29.4495
G01 X8.5731 Y29.4764
G01 X8.5658 Y29.5029
G01 X8.5571 Y29.5291
G01 X8.5472 Y29.5548
G01 X8.5417 Y29.5674
G01 X8.5300 Y29.5922
G01 X8.5171 Y29.6164
G01 X8.5029 Y29.6399
G01 X8.4877 Y29.6627
G01 X8.4797 Y29.6738
G01 X8.4628 Y29.6954
G01 X8.4540 Y29.7059
G01 X8.4356 Y29.7262
G01 X8.4162 Y29.7456
G01 X8.3959 Y29.7640
G01 X8.3747 Y29.7814
G01 X8.3638 Y29.7897
G01 X8.3414 Y29.8055
G01 X8.3182 Y29.8201
G01 X8.2944 Y29.8337
G01 X8.2699 Y29.8460
G01 X8.2574 Y29.8517
G01 X8.2320 Y29.8623
G01 X8.2191 Y29.8671
G01 X8.1929 Y29.8758
G01 X8.1797 Y29.8796
G01 X8.1664 Y29.8831
G01 X8.1395 Y29.8892
G01 X8.1260 Y29.8917
G01 X8.0987 Y29.8958
G01 X8.0850 Y29.8973
G01 X8.0575 Y29.8993
G01 X8.0300 Y29.9000
G01 X6.2300 Y29.9000
G01 X6.2025 Y29.8993
G01 X6.1750 Y29.8973
G01 X6.1476 Y29.8939
G01 X6.1205 Y29.8892
G01 X6.0936 Y29.8831
G01 X6.0671 Y29.8758
G01 X6.0409 Y29.8671
G01 X6.0152 Y29.8572
G01 X6.0026 Y29.8517
G01 X5.9778 Y29.8400
G01 X5.9536 Y29.8270
G01 X5.9301 Y29.8129
G01 X5.9186 Y29.8055
G01 X5.8962 Y29.7897
G01 X5.8746 Y29.7728
G01 X5.8539 Y29.7549
G01 X5.8340 Y29.7360
G01 X5.8244 Y29.7262
G01 X5.8060 Y29.7059
G01 X5.7886 Y29.6847
G01 X5.7723 Y29.6627
G01 X5.7645 Y29.6514
G01 X5.7499 Y29.6282
G01 X5.7363 Y29.6044
G01 X5.7240 Y29.5799
G01 X5.7183 Y29.5674
G01 X5.7077 Y29.5420
G01 X5.7029 Y29.5291
G01 X5.6942 Y29.5029
G01 X5.6904 Y29.4897
G01 X5.6837 Y29.4630
G01 X5.6808 Y29.4495
G01 X5.6761 Y29.4224
G01 X5.6742 Y29.4087
G01 X5.6727 Y29.3950
G01 X5.6707 Y29.3675
G01 X5.6700 Y29.3400
G01 X5.6700 Y27.5400
G01 X5.6707 Y27.5125
G01 X5.6715 Y27.4987
G01 X5.6742 Y27.4713
G01 X5.6783 Y27.4440
G01 X5.6808 Y27.4305
G01 X5.6869 Y27.4036
G01 X5.6942 Y27.3771
G01 X5.7029 Y27.3509
G01 X5.7128 Y27.3252
G01 X5.7183 Y27.3126
G01 X5.7300 Y27.2878
G01 X5.7429 Y27.2636
G01 X5.7571 Y27.2401
G01 X5.7645 Y27.2286
G01 X5.7803 Y27.2062
G01 X5.7972 Y27.1846
G01 X5.8151 Y27.1639
G01 X5.8340 Y27.1440
G01 X5.8539 Y27.1251
G01 X5.8746 Y27.1072
G01 X5.8962 Y27.0903
G01 X5.9186 Y27.0745
G01 X5.9301 Y27.0671
G01 X5.9536 Y27.0530
G01 X5.9778 Y27.0400
G01 X6.0026 Y27.0283
G01 X6.0280 Y27.0177
G01 X6.0409 Y27.0129
G01 X6.0671 Y27.0042
G01 X6.0803 Y27.0004
G01 X6.1070 Y26.9937
G01 X6.1340 Y26.9883
G01 X6.1613 Y26.9842
G01 X6.1887 Y26.9815
G01 X6.2162 Y26.9802
G01 X6.2300 Y26.9800
G00 Z2.0000
G00 X6.2300 Y27.3400
G01 F60.00
G01 Z-0.0500
G01 F100.00
G01 X8.0349 Y27.3401
G01 X8.0545 Y27.3415
G01 X8.0739 Y27.3449
G01 X8.0929 Y27.3501
G01 X8.1112 Y27.3572
G01 X8.1201 Y27.3614
G01 X8.1329 Y27.3685
G01 X8.1492 Y27.3794
G01 X8.1643 Y27.3918
G01 X8.1782 Y27.4057
G01 X8.1906 Y27.4208
G01 X8.2015 Y27.4371
G01 X8.2107 Y27.4543
G01 X8.2165 Y27.4679
G01 X8.2213 Y27.4818
G01 X8.2261 Y27.5009
G01 X8.2290 Y27.5204
G01 X8.2299 Y27.5351
G01 X8.2300 Y29.3400
G01 X8.2298 Y29.3498
G01 X8.2285 Y29.3645
G01 X8.2251 Y29.3839
G01 X8.2199 Y29.4029
G01 X8.2128 Y29.4212
G01 X8.2039 Y29.4387
G01 X8.1962 Y29.4512
G01 X8.1906 Y29.4592
G01 X8.1782 Y29.4743
G01 X8.1643 Y29.4882
G01 X8.1492 Y29.5006
G01 X8.1329 Y29.5115
G01 X8.1157 Y29.5207
G01 X8.1021 Y29.5265
G01 X8.0835 Y29.5327
G01 X8.0691 Y29.5361
G01 X8.0545 Y29.5385
G01 X8.0349 Y29.5399
G01 X6.2300 Y29.5400
G01 X6.2104 Y29.5390
G01 X6.1957 Y29.5370
G01 X6.1861 Y29.5351
G01 X6.1671 Y29.5299
G01 X6.1488 Y29.5228
G01 X6.1313 Y29.5139
G01 X6.1188 Y29.5062
G01 X6.1108 Y29.5006
G01 X6.0957 Y29.4882
G01 X6.0818 Y29.4743
G01 X6.0694 Y29.4592
G01 X6.0585 Y29.4429
G01 X6.0493 Y29.4257
G01 X6.0435 Y29.4121
G01 X6.0387 Y29.3982
G01 X6.0339 Y29.3791
G01 X6.0315 Y29.3645
G01 X6.0301 Y29.3449
G01 X6.0300 Y27.5400
G01 X6.0305 Y27.5253
G01 X6.0330 Y27.5057
G01 X6.0360 Y27.4913
G01 X6.0417 Y27.4725
G01 X6.0493 Y27.4543
G01 X6.0585 Y27.4371
G01 X6.0694 Y27.4208
G01 X6.0818 Y27.4057
G01 X6.0957 Y27.3918
G01 X6.1108 Y27.3794
G01 X6.1271 Y27.3685
G01 X6.1443 Y27.3593
G01 X6.1579 Y27.3535
G01 X6.1765 Y27.3473
G01 X6.1957 Y27.3430
G01 X6.2153 Y27.3405
G01 X6.2300 Y27.3400
G00 Z2.0000
G00 X8.2298 Y33.5298
G01 F60.00
G01 Z-0.0500
G01 F100.00
G01 X8.2247 Y33.6281
G01 X8.2089 Y33.7343
G01 X8.2067 Y33.7442
G01 X8.1828 Y33.8387
G01 X8.1796 Y33.8486
G01 X8.1462 Y33.9411
G01 X8.1003 Y34.0382
G01 X8.0953 Y34.0471
G01 X8.0447 Y34.1310
G01 X7.9806 Y34.2175
G01 X7.9739 Y34.2253
G01 X7.9078 Y34.2978
G01 X7.8353 Y34.3639
G01 X7.8275 Y34.3706
G01 X7.7410 Y34.4347
G01 X7.6571 Y34.4853
G01 X7.6482 Y34.4903
G01 X7.5511 Y34.5362
G01 X7.4586 Y34.5696
G01 X7.4487 Y34.5728
G01 X7.3542 Y34.5967
G01 X7.3443 Y34.5989
G01 X7.2381 Y34.6147
G01 X7.2280 Y34.6154
G01 X7.1300 Y34.6200
G01 X7.0320 Y34.6154
G01 X7.0219 Y34.6147
G01 X6.9157 Y34.5989
G01 X6.9058 Y34.5967
G01 X6.8113 Y34.5728
G01 X6.8014 Y34.5696
G01 X6.7089 Y34.5362
G01 X6.6118 Y34.4903
G01 X6.6029 Y34.4853
G01 X6.5190 Y34.4347
G01 X6.4325 Y34.3706
G01 X6.4247 Y34.3639
G01 X6.3522 Y34.2978
G01 X6.2861 Y34.2253
G01 X6.2794 Y34.2175
G01 X6.2153 Y34.1310
G01 X6.1647 Y34.0471
G01 X6.1597 Y34.0382
G01 X6.1138 Y33.9411
G01 X6.0804 Y33.8486
G01 X6.0772 Y33.8387
G01 X6.0533 Y33.7442
G01 X6.0511 Y33.7343
G01 X6.0353 Y33.6281
G01 X6.0346 Y33.6180
G01 X6.0300 Y33.5200
G01 X6.0346 Y33.4220
G01 X6.0353 Y33.4119
G01 X6.0511 Y33.3057
G01 X6.0533 Y33.2958
G01 X6.0772 Y33.2013
G01 X6.0804 Y33.1914
G01 X6.1138 Y33.0989
G01 X6.1597 Y33.0018
G01 X6.1647 Y32.9929
G01 X6.2153 Y32.9090
G01 X6.2794 Y32.8225
G01 X6.2861 Y32.8147
G01 X6.3522 Y32.7422
G01 X6.4247 Y32.6761
G01 X6.4325 Y32.6694
G01 X6.5190 Y32.6053
G01 X6.6029 Y32.5547
G01 X6.6118 Y32.5497
G01 X6.7089 Y32.5038
G01 X6.8014 Y32.4704
G01 X6.8113 Y32.4672
G01 X6.9058 Y32.4433
G01 X6.9157 Y32.4411
G01 X7.0219 Y32.4253
G01 X7.0320 Y32.4246
G01 X7.1300 Y32.4200
G01 X7.2280 Y32.4246
G01 X7.2381 Y32.4253
G01 X7.3443 Y32.4411
G01 X7.3542 Y32.4433
G01 X7.4487 Y32.4672
G01 X7.4586 Y32.4704
G01 X7.5511 Y32.5038
G01 X7.6482 Y32.5497
G01 X7.6571 Y32.5547
G01 X7.7410 Y32.6053
G01 X7.8275 Y32.6694
G01 X7.8353 Y32.6761
G01 X7.9078 Y32.7422
G01 X7.9739 Y32.8147
G01 X7.9806 Y32.8225
G01 X8.0447 Y32.9090
G01 X8.0953 Y32.9929
G01 X8.1003 Y33.0018
G01 X8.1462 Y33.0989
G01 X8.1796 Y33.1914
G01 X8.1828 Y33.2013
G01 X8.2067 Y33.2958
G01 X8.2089 Y33.3057
G01 X8.2247 Y33.4119
G01 X8.2298 Y33.5102
G01 X8.2298 Y33.5298
G00 Z2.0000
G00 X8.5893 Y33.5475
G01 F60.00
G01 Z-0.0500
G01 F100.00
G01 X8.5850 Y33.6357
G01 X8.5829 Y33.6639
G01 X8.5796 Y33.6904
G01 X8.5666 Y33.7778
G01 X8.5621 Y33.8040
G01 X8.5559 Y33.8317
G01 X8.5345 Y33.9173
G01 X8.5276 Y33.9422
G01 X8.5185 Y33.9699
G01 X8.4888 Y34.0531
G01 X8.4787 Y34.0791
G01 X8.4677 Y34.1038
G01 X8.4300 Y34.1837
G01 X8.4181 Y34.2074
G01 X8.4041 Y34.2322
G01 X8.3587 Y34.3079
G01 X8.3443 Y34.3306
G01 X8.3281 Y34.3536
G01 X8.2755 Y34.4245
G01 X8.2593 Y34.4453
G01 X8.2406 Y34.4670
G01 X8.1813 Y34.5325
G01 X8.1624 Y34.5524
G01 X8.1425 Y34.5713
G01 X8.0770 Y34.6306
G01 X8.0553 Y34.6493
G01 X8.0345 Y34.6655
G01 X7.9636 Y34.7181
G01 X7.9406 Y34.7343
G01 X7.9179 Y34.7487
G01 X7.8422 Y34.7941
G01 X7.8174 Y34.8081
G01 X7.7937 Y34.8200
G01 X7.7138 Y34.8577
G01 X7.6891 Y34.8687
G01 X7.6631 Y34.8788
G01 X7.5799 Y34.9085
G01 X7.5522 Y34.9176
G01 X7.5273 Y34.9245
G01 X7.4417 Y34.9459
G01 X7.4140 Y34.9521
G01 X7.3878 Y34.9566
G01 X7.3004 Y34.9696
G01 X7.2739 Y34.9729
G01 X7.2457 Y34.9750
G01 X7.1575 Y34.9793
G01 X7.1300 Y34.9800
G01 X7.1025 Y34.9793
G01 X7.0143 Y34.9750
G01 X6.9861 Y34.9729
G01 X6.9596 Y34.9696
G01 X6.8722 Y34.9566
G01 X6.8460 Y34.9521
G01 X6.8183 Y34.9459
G01 X6.7327 Y34.9245
G01 X6.7078 Y34.9176
G01 X6.6801 Y34.9085
G01 X6.5969 Y34.8788
G01 X6.5709 Y34.8687
G01 X6.5462 Y34.8577
G01 X6.4663 Y34.8200
G01 X6.4426 Y34.8081
G01 X6.4178 Y34.7941
G01 X6.3421 Y34.7487
G01 X6.3194 Y34.7343
G01 X6.2964 Y34.7181
G01 X6.2255 Y34.6655
G01 X6.2047 Y34.6493
G01 X6.1830 Y34.6306
G01 X6.1175 Y34.5713
G01 X6.0976 Y34.5524
G01 X6.0787 Y34.5325
G01 X6.0194 Y34.4670
G01 X6.0007 Y34.4453
G01 X5.9845 Y34.4245
G01 X5.9319 Y34.3536
G01 X5.9157 Y34.3306
G01 X5.9013 Y34.3079
G01 X5.8559 Y34.2322
G01 X5.8419 Y34.2074
G01 X5.8300 Y34.1837
G01 X5.7923 Y34.1038
G01 X5.7813 Y34.0791
G01 X5.7712 Y34.0531
G01 X5.7415 Y33.9699
G01 X5.7324 Y33.9422
G01 X5.7255 Y33.9173
G01 X5.7041 Y33.8317
G01 X5.6979 Y33.8040
G01 X5.6934 Y33.7778
G01 X5.6804 Y33.6904
G01 X5.6771 Y33.6639
G01 X5.6750 Y33.6357
G01 X5.6707 Y33.5475
G01 X5.6700 Y33.5200
G01 X5.6707 Y33.4925
G01 X5.6750 Y33.4043
G01 X5.6771 Y33.3761
G01 X5.6804 Y33.3496
G01 X5.6934 Y33.2622
G01 X5.6979 Y33.2360
G01 X5.7041 Y33.2083
G01 X5.7255 Y33.1227
G01 X5.7324 Y33.0978
G01 X5.7415 Y33.0701
G01 X5.7712 Y32.9869
G01 X5.7813 Y32.9609
G01 X5.7923 Y32.9362
G01 X5.8300 Y32.8563
G01 X5.8419 Y32.8326
G01 X5.8559 Y32.8078
G01 X5.9013 Y32.7321
G01 X5.9157 Y32.7094
G01 X5.9319 Y32.6864
G01 X5.9845 Y32.6155
G01 X6.0007 Y32.5947
G01 X6.0194 Y32.5730
G01 X6.0787 Y32.5075
G01 X6.0976 Y32.4876
G01 X6.1175 Y32.4687
G01 X6.1830 Y32.4094
G01 X6.2047 Y32.3907
G01 X6.2255 Y32.3745
G01 X6.2964 Y32.3219
G01 X6.3194 Y32.3057
G01 X6.3421 Y32.2913
G01 X6.4178 Y32.2459
G01 X6.4426 Y32.2319
G01 X6.4663 Y32.2200
G01 X6.5462 Y32.1823
G01 X6.5709 Y32.1713
G01 X6.5969 Y32.1612
G01 X6.6801 Y32.1315
G01 X6.7078 Y32.1224
G01 X6.7327 Y32.1155
G01 X6.8183 Y32.0941
G01 X6.8460 Y32.0879
G01 X6.8722 Y32.0834
G01 X6.9596 Y32.0704
G01 X6.9861 Y32.0671
G01 X7.0143 Y32.0650
G01 X7.1025 Y32.0607
G01 X7.1300 Y32.0600
G01 X7.1575 Y32.0607
G01 X7.2457 Y32.0650
G01 X7.2739 Y32.0671
G01 X7.3004 Y32.0704
G01 X7.3878 Y32.0834
G01 X7.4140 Y32.0879
G01 X7.4417 Y32.0941
G01 X7.5273 Y32.1155
G01 X7.5522 Y32.1224
G01 X7.5799 Y32.1315
G01 X7.6631 Y32.1612
G01 X7.6891 Y32.1713
G01 X7.7138 Y32.1823
G01 X7.7937 Y32.2200
G01 X7.8174 Y32.2319
G01 X7.8422 Y32.2459
G01 X7.9179 Y32.2913
G01 X7.9406 Y32.3057
G01 X7.9636 Y32.3219
G01 X8.0345 Y32.3745
G01 X8.0553 Y32.3907
G01 X8.0770 Y32.4094
G01 X8.1425 Y32.4687
G01 X8.1624 Y32.4876
G01 X8.1813 Y32.5075
G01 X8.2406 Y32.5730
G01 X8.2593 Y32.5947
G01 X8.2755 Y32.6155
G01 X8.3281 Y32.6864
G01 X8.3443 Y32.7094
G01 X8.3587 Y32.7321
G01 X8.4041 Y32.8078
G01 X8.4181 Y32.8326
G01 X8.4300 Y32.8563
G01 X8.4677 Y32.9362
G01 X8.4787 Y32.9609
G01 X8.4888 Y32.9869
G01 X8.5185 Y33.0701
G01 X8.5276 Y33.0978
G01 X8.5345 Y33.1227
G01 X8.5559 Y33.2083
G01 X8.5621 Y33.2360
G01 X8.5666 Y33.2622
G01 X8.5796 Y33.3496
G01 X8.5829 Y33.3761
G01 X8.5850 Y33.4043
G01 X8.5893 Y33.4925
G01 X8.5900 Y33.5200
G01 X8.5893 Y33.5475
G00 Z2.0000
G00 X8.9489 Y33.5651
G01 F60.00
G01 Z-0.0500
G01 F100.00
G01 X8.9431 Y33.6766
G01 X8.9411 Y33.6998
G01 X8.9387 Y33.7215
G01 X8.9227 Y33.8306
G01 X8.9193 Y33.8522
G01 X8.9153 Y33.8737
G01 X8.9108 Y33.8952
G01 X8.9051 Y33.9191
G01 X8.8837 Y34.0048
G01 X8.8724 Y34.0456
G01 X8.8653 Y34.0685
G01 X8.8277 Y34.1744
G01 X8.8197 Y34.1958
G01 X8.8112 Y34.2170
G01 X8.8022 Y34.2381
G01 X8.7466 Y34.3557
G01 X8.7359 Y34.3765
G01 X8.7246 Y34.3970
G01 X8.7128 Y34.4172
G01 X8.6558 Y34.5118
G01 X8.6438 Y34.5303
G01 X8.6308 Y34.5494
G01 X8.5647 Y34.6390
G01 X8.5516 Y34.6562
G01 X8.5381 Y34.6731
G01 X8.5242 Y34.6897
G01 X8.5074 Y34.7088
G01 X8.4481 Y34.7742
G01 X8.4327 Y34.7908
G01 X8.4169 Y34.8069
G01 X8.4008 Y34.8227
G01 X8.3188 Y34.8974
G01 X8.2997 Y34.9142
G01 X8.2831 Y34.9281
G01 X8.2662 Y34.9416
G01 X8.2490 Y34.9547
G01 X8.1781 Y35.0073
G01 X8.1594 Y35.0208
G01 X8.1403 Y35.0338
G01 X8.1218 Y35.0458
G01 X8.1030 Y35.0574
G01 X8.0272 Y35.1028
G01 X8.0070 Y35.1146
G01 X7.9865 Y35.1259
G01 X7.9657 Y35.1366
G01 X7.9476 Y35.1454
G01 X7.8678 Y35.1832
G01 X7.8481 Y35.1922
G01 X7.8270 Y35.2012
G01 X7.8058 Y35.2097
G01 X7.7012 Y35.2475
G01 X7.6785 Y35.2553
G01 X7.6556 Y35.2624
G01 X7.6148 Y35.2737
G01 X7.5291 Y35.2951
G01 X7.5052 Y35.3008
G01 X7.4837 Y35.3053
G01 X7.4622 Y35.3093
G01 X7.4406 Y35.3127
G01 X7.3532 Y35.3257
G01 X7.3315 Y35.3287
G01 X7.3098 Y35.3311
G01 X7.2866 Y35.3331
G01 X7.2634 Y35.3346
G01 X7.1751 Y35.3389
G01 X7.1526 Y35.3397
G01 X7.1300 Y35.3400
G01 X7.1074 Y35.3397
G01 X6.9966 Y35.3346
G01 X6.9734 Y35.3331
G01 X6.9502 Y35.3311
G01 X6.9285 Y35.3287
G01 X6.9068 Y35.3257
G01 X6.8194 Y35.3127
G01 X6.7978 Y35.3093
G01 X6.7763 Y35.3053
G01 X6.7548 Y35.3008
G01 X6.7309 Y35.2951
G01 X6.6452 Y35.2737
G01 X6.6044 Y35.2624
G01 X6.5815 Y35.2553
G01 X6.5588 Y35.2475
G01 X6.4756 Y35.2177
G01 X6.4542 Y35.2097
G01 X6.4330 Y35.2012
G01 X6.4119 Y35.1922
G01 X6.3922 Y35.1832
G01 X6.3124 Y35.1454
G01 X6.2943 Y35.1366
G01 X6.2735 Y35.1259
G01 X6.2530 Y35.1146
G01 X6.2328 Y35.1028
G01 X6.1570 Y35.0574
G01 X6.1382 Y35.0458
G01 X6.1197 Y35.0338
G01 X6.1006 Y35.0208
G01 X6.0819 Y35.0073
G01 X6.0110 Y34.9547
G01 X5.9938 Y34.9416
G01 X5.9769 Y34.9281
G01 X5.9603 Y34.9142
G01 X5.9412 Y34.8974
G01 X5.8758 Y34.8381
G01 X5.8592 Y34.8227
G01 X5.8431 Y34.8069
G01 X5.8273 Y34.7908
G01 X5.7526 Y34.7088
G01 X5.7358 Y34.6897
G01 X5.7219 Y34.6731
G01 X5.7084 Y34.6562
G01 X5.6953 Y34.6390
G01 X5.6427 Y34.5681
G01 X5.6292 Y34.5494
G01 X5.6162 Y34.5303
G01 X5.6042 Y34.5118
G01 X5.5926 Y34.4930
G01 X5.5472 Y34.4172
G01 X5.5354 Y34.3970
G01 X5.5241 Y34.3765
G01 X5.5134 Y34.3557
G01 X5.5046 Y34.3376
G01 X5.4668 Y34.2578
G01 X5.4578 Y34.2381
G01 X5.4488 Y34.2170
G01 X5.4403 Y34.1958
G01 X5.4025 Y34.0912
G01 X5.3947 Y34.0685
G01 X5.3876 Y34.0456
G01 X5.3763 Y34.0048
G01 X5.3549 Y33.9191
G01 X5.3492 Y33.8952
G01 X5.3447 Y33.8737
G01 X5.3407 Y33.8522
G01 X5.3373 Y33.8306
G01 X5.3243 Y33.7432
G01 X5.3213 Y33.7215
G01 X5.3189 Y33.6998
G01 X5.3169 Y33.6766
G01 X5.3154 Y33.6534
G01 X5.3111 Y33.5651
G01 X5.3103 Y33.5426
G01 X5.3100 Y33.5200
G01 X5.3103 Y33.4974
G01 X5.3154 Y33.3866
G01 X5.3169 Y33.3634
G01 X5.3189 Y33.3402
G01 X5.3213 Y33.3185
G01 X5.3243 Y33.2968
G01 X5.3373 Y33.2094
G01 X5.3407 Y33.1878
G01 X5.3447 Y33.1663
G01 X5.3492 Y33.1448
G01 X5.3549 Y33.1209
G01 X5.3763 Y33.0352
G01 X5.3876 Y32.9944
G01 X5.3947 Y32.9715
G01 X5.4025 Y32.9488
G01 X5.4323 Y32.8656
G01 X5.4403 Y32.8442
G01 X5.4488 Y32.8230
G01 X5.4578 Y32.8019
G01 X5.4668 Y32.7822
G01 X5.5046 Y32.7024
G01 X5.5134 Y32.6843
G01 X5.5241 Y32.6635
G01 X5.5354 Y32.6430
G01 X5.5472 Y32.6228
G01 X5.5926 Y32.5470
G01 X5.6042 Y32.5282
G01 X5.6162 Y32.5097
G01 X5.6292 Y32.4906
G01 X5.6427 Y32.4719
G01 X5.6953 Y32.4010
G01 X5.7084 Y32.3838
G01 X5.7219 Y32.3669
G01 X5.7358 Y32.3503
G01 X5.7526 Y32.3312
G01 X5.8119 Y32.2658
G01 X5.8273 Y32.2492
G01 X5.8431 Y32.2331
G01 X5.8592 Y32.2173
G01 X5.9412 Y32.1426
G01 X5.9603 Y32.1258
G01 X5.9769 Y32.1119
G01 X5.9938 Y32.0984
G01 X6.0110 Y32.0853
G01 X6.0819 Y32.0327
G01 X6.1006 Y32.0192
G01 X6.1197 Y32.0062
G01 X6.1382 Y31.9942
G01 X6.1570 Y31.9826
G01 X6.2328 Y31.9372
G01 X6.2530 Y31.9254
G01 X6.2735 Y31.9141
G01 X6.2943 Y31.9034
G01 X6.3124 Y31.8946
G01 X6.3922 Y31.8568
G01 X6.4119 Y31.8478
G01 X6.4330 Y31.8388
G01 X6.4542 Y31.8303
G01 X6.5588 Y31.7925
G01 X6.5815 Y31.7847
G01 X6.6044 Y31.7776
G01 X6.6452 Y31.7663
G01 X6.7309 Y31.7449
G01 X6.7548 Y31.7392
G01 X6.7763 Y31.7347
G01 X6.7978 Y31.7307
G01 X6.8194 Y31.7273
G01 X6.9068 Y31.7143
G01 X6.9285 Y31.7113
G01 X6.9502 Y31.7089
G01 X6.9734 Y31.7069
G01 X6.9966 Y31.7054
G01 X7.0849 Y31.7011
G01 X7.1074 Y31.7003
G01 X7.1300 Y31.7000
G01 X7.1526 Y31.7003
G01 X7.2634 Y31.7054
G01 X7.2866 Y31.7069
G01 X7.3098 Y31.7089
G01 X7.3315 Y31.7113
G01 X7.3532 Y31.7143
G01 X7.4406 Y31.7273
G01 X7.4622 Y31.7307
G01 X7.4837 Y31.7347
G01 X7.5052 Y31.7392
G01 X7.5291 Y31.7449
G01 X7.6148 Y31.7663
G01 X7.6556 Y31.7776
G01 X7.6785 Y31.7847
G01 X7.7012 Y31.7925
G01 X7.7844 Y31.8223
G01 X7.8058 Y31.8303
G01 X7.8270 Y31.8388
G01 X7.8481 Y31.8478
G01 X7.8678 Y31.8568
G01 X7.9476 Y31.8946
G01 X7.9657 Y31.9034
G01 X7.9865 Y31.9141
G01 X8.0070 Y31.9254
G01 X8.0272 Y31.9372
G01 X8.1030 Y31.9826
G01 X8.1218 Y31.9942
G01 X8.1403 Y32.0062
G01 X8.1594 Y32.0192
G01 X8.1781 Y32.0327
G01 X8.2490 Y32.0853
G01 X8.2662 Y32.0984
G01 X8.2831 Y32.1119
G01 X8.2997 Y32.1258
G01 X8.3188 Y32.1426
G01 X8.3842 Y32.2019
G01 X8.4008 Y32.2173
G01 X8.4169 Y32.2331
G01 X8.4327 Y32.2492
G01 X8.5074 Y32.3312
G01 X8.5242 Y32.3503
G01 X8.5381 Y32.3669
G01 X8.5516 Y32.3838
G01 X8.5647 Y32.4010
G01 X8.6173 Y32.4719
G01 X8.6308 Y32.4906
G01 X8.6438 Y32.5097
G01 X8.6558 Y32.5282
G01 X8.6674 Y32.5470
G01 X8.7128 Y32.6228
G01 X8.7246 Y32.6430
G01 X8.7359 Y32.6635
G01 X8.7466 Y32.6843
G01 X8.7554 Y32.7024
G01 X8.7932 Y32.7822
G01 X8.8022 Y32.8019
G01 X8.8112 Y32.8230
G01 X8.8197 Y32.8442
G01 X8.8575 Y32.9488
G01 X8.8653 Y32.9715
G01 X8.8724 Y32.9944
G01 X8.8837 Y33.0352
G01 X8.9051 Y33.1209
G01 X8.9108 Y33.1448
G01 X8.9153 Y33.1663
G01 X8.9193 Y33.1878
G01 X8.9227 Y33.2094
G01 X8.9387 Y33.3185
G01 X8.9411 Y33.3402
G01 X8.9431 Y33.3634
G01 X8.9446 Y33.3866
G01 X8.9497 Y33.4974
G01 X8.9500 Y33.5200
G01 X8.9497 Y33.5426
G01 X8.9489 Y33.5651
G00 Z2.0000
G00 X6.2300 Y36.7800
G01 F60.00
G01 Z-0.0500
G01 F100.00
G01 X8.0300 Y36.7800
G01 X8.0526 Y36.7803
G01 X8.0752 Y36.7811
G01 X8.0978 Y36.7825
G01 X8.1204 Y36.7845
G01 X8.1429 Y36.7870
G01 X8.1653 Y36.7900
G01 X8.1876 Y36.7936
G01 X8.2099 Y36.7978
G01 X8.2320 Y36.8025
G01 X8.2540 Y36.8077
G01 X8.2759 Y36.8135
G01 X8.2977 Y36.8198
G01 X8.3192 Y36.8266
G01 X8.3406 Y36.8340
G01 X8.3618 Y36.8419
G01 X8.3828 Y36.8504
G01 X8.4036 Y36.8593
G01 X8.4241 Y36.8687
G01 X8.4443 Y36.8786
G01 X8.4643 Y36.8890
G01 X8.4840 Y36.8998
G01 X8.5035 Y36.9112
G01 X8.5226 Y36.9230
G01 X8.5415 Y36.9353
G01 X8.5601 Y36.9481
G01 X8.5783 Y36.9613
G01 X8.5962 Y36.9749
G01 X8.6138 Y36.9890
G01 X8.6310 Y37.0035
G01 X8.6479 Y37.0184
G01 X8.6644 Y37.0337
G01 X8.6805 Y37.0495
G01 X8.6963 Y37.0656
G01 X8.7116 Y37.0821
G01 X8.7265 Y37.0989
G01 X8.7410 Y37.1162
G01 X8.7551 Y37.1337
G01 X8.7687 Y37.1517
G01 X8.7819 Y37.1699
G01 X8.7947 Y37.1885
G01 X8.8070 Y37.2073
G01 X8.8188 Y37.2265
G01 X8.8301 Y37.2460
G01 X8.8410 Y37.2657
G01 X8.8514 Y37.2857
G01 X8.8613 Y37.3059
G01 X8.8707 Y37.3263
G01 X8.8796 Y37.3471
G01 X8.8881 Y37.3681
G01 X8.8960 Y37.3894
G01 X8.9033 Y37.4108
G01 X8.9102 Y37.4323
G01 X8.9165 Y37.4541
G01 X8.9223 Y37.4759
G01 X8.9275 Y37.4980
G01 X8.9322 Y37.5201
G01 X8.9364 Y37.5423
G01 X8.9400 Y37.5647
G01 X8.9430 Y37.5871
G01 X8.9455 Y37.6096
G01 X8.9475 Y37.6322
G01 X8.9489 Y37.6548
G01 X8.9497 Y37.6774
G01 X8.9500 Y37.7000
G01 X8.9500 Y39.5000
G01 X8.9497 Y39.5226
G01 X8.9489 Y39.5452
G01 X8.9475 Y39.5678
G01 X8.9455 Y39.5904
G01 X8.9430 Y39.6129
G01 X8.9400 Y39.6353
G01 X8.9364 Y39.6577
G01 X8.9322 Y39.6799
G01 X8.9275 Y39.7020
G01 X8.9223 Y39.7241
G01 X8.9165 Y39.7459
G01 X8.9102 Y39.7677
G01 X8.9033 Y39.7892
G01 X8.8960 Y39.8106
G01 X8.8881 Y39.8318
G01 X8.8796 Y39.8529
G01 X8.8707 Y39.8736
G01 X8.8613 Y39.8941
G01 X8.8514 Y39.9143
G01 X8.8410 Y39.9343
G01 X8.8302 Y39.9540
G01 X8.8188 Y39.9735
G01 X8.8070 Y39.9927
G01 X8.7947 Y40.0115
G01 X8.7819 Y40.0301
G01 X8.7687 Y40.0483
G01 X8.7551 Y40.0663
G01 X8.7410 Y40.0838
G01 X8.7265 Y40.1011
G01 X8.7116 Y40.1179
G01 X8.6963 Y40.1344
G01 X8.6805 Y40.1505
G01 X8.6644 Y40.1663
G01 X8.6479 Y40.1816
G01 X8.6310 Y40.1965
G01 X8.6138 Y40.2110
G01 X8.5962 Y40.2251
G01 X8.5783 Y40.2387
G01 X8.5601 Y40.2519
G01 X8.5415 Y40.2647
G01 X8.5226 Y40.2770
G01 X8.5035 Y40.2888
G01 X8.4840 Y40.3002
G01 X8.4643 Y40.3110
G01 X8.4443 Y40.3214
G01 X8.4241 Y40.3313
G01 X8.4036 Y40.3407
G01 X8.3828 Y40.3497
G01 X8.3618 Y40.3581
G01 X8.3406 Y40.3660
G01 X8.3192 Y40.3734
G01 X8.2977 Y40.3802
G01 X8.2759 Y40.3865
G01 X8.2540 Y40.3923
G01 X8.2320 Y40.3975
G01 X8.2099 Y40.4022
G01 X8.1876 Y40.4064
G01 X8.1653 Y40.4100
G01 X8.1429 Y40.4130
G01 X8.1204 Y40.4155
G01 X8.0978 Y40.4175
G01 X8.0752 Y40.4189
G01 X8.0526 Y40.4197
G01 X8.0300 Y40.4200
G01 X6.2300 Y40.4200
G01 X6.2074 Y40.4197
G01 X6.1848 Y40.4189
G01 X6.1622 Y40.4175
G01 X6.1396 Y40.4155
G01 X6.1171 Y40.4130
G01 X6.0947 Y40.4100
G01 X6.0724 Y40.4064
G01 X6.0501 Y40.4022
G01 X6.0280 Y40.3975
G01 X6.0060 Y40.3923
G01 X5.9841 Y40.3865
G01 X5.9623 Y40.3802
G01 X5.9408 Y40.3734
G01 X5.9194 Y40.3660
G01 X5.8982 Y40.3581
G01 X5.8772 Y40.3496
G01 X5.8564 Y40.3407
G01 X5.8359 Y40.3313
G01 X5.8157 Y40.3214
G01 X5.7957 Y40.3110
G01 X5.7760 Y40.3002
G01 X5.7565 Y40.2888
G01 X5.7374 Y40.2770
G01 X5.7185 Y40.2647
G01 X5.6999 Y40.2519
G01 X5.6817 Y40.2387
G01 X5.6638 Y40.2251
G01 X5.6462 Y40.2110
G01 X5.6289 Y40.1965
G01 X5.6121 Y40.1816
G01 X5.5956 Y40.1663
G01 X5.5795 Y40.1505
G01 X5.5637 Y40.1344
G01 X5.5484 Y40.1179
G01 X5.5335 Y40.1011
G01 X5.5190 Y40.0838
G01 X5.5049 Y40.0662
G01 X5.4913 Y40.0483
G01 X5.4781 Y40.0301
G01 X5.4653 Y40.0115
G01 X5.4530 Y39.9926
G01 X5.4412 Y39.9735
G01 X5.4298 Y39.9540
G01 X5.4190 Y39.9343
G01 X5.4086 Y39.9143
G01 X5.3987 Y39.8941
G01 X5.3893 Y39.8736
G01 X5.3804 Y39.8528
G01 X5.3719 Y39.8318
G01 X5.3640 Y39.8106
G01 X5.3566 Y39.7892
G01 X5.3498 Y39.7677
G01 X5.3435 Y39.7459
G01 X5.3377 Y39.7240
G01 X5.3325 Y39.7020
G01 X5.3278 Y39.6799
G01 X5.3236 Y39.6576
G01 X5.3200 Y39.6353
G01 X5.3170 Y39.6129
G01 X5.3145 Y39.5904
G01 X5.3125 Y39.5678
G01 X5.3111 Y39.5452
G01 X5.3103 Y39.5226
G01 X5.3100 Y39.5000
G01 X5.3100 Y37.7000
G01 X5.3103 Y37.6774
G01 X5.3111 Y37.6548
G01 X5.3125 Y37.6322
G01 X5.3145 Y37.6096
G01 X5.3170 Y37.5871
G01 X5.3200 Y37.5647
G01 X5.3236 Y37.5424
G01 X5.3278 Y37.5201
G01 X5.3325 Y37.4980
G01 X5.3377 Y37.4759
G01 X5.3435 Y37.4541
G01 X5.3498 Y37.4323
G01 X5.3566 Y37.4108
G01 X5.3640 Y37.3894
G01 X5.3719 Y37.3682
G01 X5.3804 Y37.3472
G01 X5.3893 Y37.3264
G01 X5.3987 Y37.3059
G01 X5.4086 Y37.2857
G01 X5.4190 Y37.2657
G01 X5.4298 Y37.2460
G01 X5.4412 Y37.2265
G01 X5.4530 Y37.2073
G01 X5.4653 Y37.1885
G01 X5.4781 Y37.1699
G01 X5.4913 Y37.1517
G01 X5.5049 Y37.1337
G01 X5.5190 Y37.1162
G01 X5.5335 Y37.0989
G01 X5.5484 Y37.0821
G01 X5.5637 Y37.0656
G01 X5.5795 Y37.0495
G01 X5.5956 Y37.0337
G01 X5.6121 Y37.0184
G01 X5.6290 Y37.0035
G01 X5.6462 Y36.9890
G01 X5.6638 Y36.9749
G01 X5.6817 Y36.9613
G01 X5.6999 Y36.9481
G01 X5.7185 Y36.9353
G01 X5.7374 Y36.9230
G01 X5.7565 Y36.9112
G01 X5.7760 Y36.8998
G01 X5.7957 Y36.8890
G01 X5.8157 Y36.8786
G01 X5.8359 Y36.8687
G01 X5.8564 Y36.8593
G01 X5.8772 Y36.8504
G01 X5.8982 Y36.8419
G01 X5.9194 Y36.8340
G01 X5.9408 Y36.8266
G01 X5.9623 Y36.8198
G01 X5.9841 Y36.8135
G01 X6.0060 Y36.8077
G01 X6.0280 Y36.8025
G01 X6.0501 Y36.7978
G01 X6.0724 Y36.7936
G01 X6.0947 Y36.7900
G01 X6.1171 Y36.7870
G01 X6.1396 Y36.7845
G01 X6.1622 Y36.7825
G01 X6.1848 Y36.7811
G01 X6.2074 Y36.7803
G01 X6.2300 Y36.7800
G00 Z2.0000
G00 X6.2300 Y37.1400
G01 F60.00
G01 Z-0.0500
G01 F100.00
G01 X8.0300 Y37.1400
G01 X8.0575 Y37.1407
G01 X8.0850 Y37.1427
G01 X8.1124 Y37.1461
G01 X8.1395 Y37.1508
G01 X8.1664 Y37.1569
G01 X8.1929 Y37.1642
G01 X8.2191 Y37.1729
G01 X8.2448 Y37.1828
G01 X8.2699 Y37.1940
G01 X8.2944 Y37.2063
G01 X8.3182 Y37.2199
G01 X8.3299 Y37.2271
G01 X8.3527 Y37.2423
G01 X8.3747 Y37.2586
G01 X8.3959 Y37.2760
G01 X8.4162 Y37.2944
G01 X8.4355 Y37.3138
G01 X8.4540 Y37.3341
G01 X8.4714 Y37.3553
G01 X8.4797 Y37.3662
G01 X8.4955 Y37.3886
G01 X8.5101 Y37.4118
G01 X8.5237 Y37.4356
G01 X8.5360 Y37.4601
G01 X8.5417 Y37.4726
G01 X8.5472 Y37.4852
G01 X8.5571 Y37.5109
G01 X8.5616 Y37.5239
G01 X8.5696 Y37.5503
G01 X8.5731 Y37.5636
G01 X8.5792 Y37.5905
G01 X8.5817 Y37.6040
G01 X8.5858 Y37.6313
G01 X8.5873 Y37.6450
G01 X8.5893 Y37.6725
G01 X8.5900 Y37.7000
G01 X8.5900 Y39.5000
G01 X8.5893 Y39.5275
G01 X8.5873 Y39.5550
G01 X8.5839 Y39.5824
G01 X8.5792 Y39.6095
G01 X8.5731 Y39.6364
G01 X8.5658 Y39.6629
G01 X8.5571 Y39.6891
G01 X8.5472 Y39.7148
G01 X8.5417 Y39.7274
G01 X8.5300 Y39.7522
G01 X8.5170 Y39.7764
G01 X8.5029 Y39.7999
G01 X8.4877 Y39.8227
G01 X8.4797 Y39.8338
G01 X8.4628 Y39.8554
G01 X8.4449 Y39.8761
G01 X8.4355 Y39.8862
G01 X8.4162 Y39.9056
G01 X8.3959 Y39.9240
G01 X8.3747 Y39.9414
G01 X8.3527 Y39.9577
G01 X8.3299 Y39.9729
G01 X8.3182 Y39.9801
G01 X8.2944 Y39.9937
G01 X8.2699 Y40.0060
G01 X8.2574 Y40.0117
G01 X8.2448 Y40.0172
G01 X8.2191 Y40.0271
G01 X8.2060 Y40.0316
G01 X8.1797 Y40.0396
G01 X8.1664 Y40.0431
G01 X8.1395 Y40.0492
G01 X8.1260 Y40.0517
G01 X8.0987 Y40.0558
G01 X8.0850 Y40.0573
G01 X8.0575 Y40.0593
G01 X8.0300 Y40.0600
G01 X6.2300 Y40.0600
G01 X6.2025 Y40.0593
G01 X6.1750 Y40.0573
G01 X6.1476 Y40.0539
G01 X6.1205 Y40.0492
G01 X6.0936 Y40.0431
G01 X6.0671 Y40.0358
G01 X6.0409 Y40.0271
G01 X6.0152 Y40.0172
G01 X6.0026 Y40.0117
G01 X5.9778 Y40.0000
G01 X5.9536 Y39.9871
G01 X5.9418 Y39.9801
G01 X5.9186 Y39.9655
G01 X5.8962 Y39.9497
G01 X5.8746 Y39.9328
G01 X5.8539 Y39.9149
G01 X5.8340 Y39.8960
G01 X5.8244 Y39.8862
G01 X5.8060 Y39.8659
G01 X5.7886 Y39.8447
G01 X5.7723 Y39.8227
G01 X5.7571 Y39.7999
G01 X5.7429 Y39.7764
G01 X5.7363 Y39.7644
G01 X5.7240 Y39.7399
G01 X5.7183 Y39.7274
G01 X5.7128 Y39.7148
G01 X5.7029 Y39.6891
G01 X5.6984 Y39.6761
G01 X5.6904 Y39.6497
G01 X5.6869 Y39.6364
G01 X5.6808 Y39.6095
G01 X5.6783 Y39.5960
G01 X5.6742 Y39.5687
G01 X5.6715 Y39.5413
G01 X5.6707 Y39.5275
G01 X5.6700 Y39.5000
G01 X5.6700 Y37.7000
G01 X5.6707 Y37.6725
G01 X5.6715 Y37.6587
G01 X5.6742 Y37.6313
G01 X5.6783 Y37.6040
G01 X5.6837 Y37.5770
G01 X5.6869 Y37.5636
G01 X5.6942 Y37.5371
G01 X5.7029 Y37.5109
G01 X5.7128 Y37.4852
G01 X5.7183 Y37.4726
G01 X5.7300 Y37.4478
G01 X5.7429 Y37.4236
G01 X5.7571 Y37.4001
G01 X5.7645 Y37.3886
G01 X5.7803 Y37.3662
G01 X5.7972 Y37.3446
G01 X5.8151 Y37.3239
G01 X5.8340 Y37.3040
G01 X5.8539 Y37.2851
G01 X5.8746 Y37.2672
G01 X5.8853 Y37.2586
G01 X5.9073 Y37.2423
G01 X5.9301 Y37.2271
G01 X5.9536 Y37.2129
G01 X5.9778 Y37.2000
G01 X6.0026 Y37.1883
G01 X6.0280 Y37.1777
G01 X6.0409 Y37.1729
G01 X6.0671 Y37.1642
G01 X6.0936 Y37.1569
G01 X6.1205 Y37.1508
G01 X6.1340 Y37.1483
G01 X6.1476 Y37.1461
G01 X6.1750 Y37.1427
G01 X6.2025 Y37.1407
G01 X6.2300 Y37.1400
G00 Z2.0000
G00 X6.2300 Y37.5000
G01 F60.00
G01 Z-0.0500
G01 F100.00
G01 X8.0349 Y37.5001
G01 X8.0545 Y37.5015
G01 X8.0739 Y37.5049
G01 X8.0929 Y37.5101
G01 X8.1112 Y37.5172
G01 X8.1287 Y37.5261
G01 X8.1452 Y37.5365
G01 X8.1607 Y37.5486
G01 X8.1679 Y37.5552
G01 X8.1782 Y37.5657
G01 X8.1906 Y37.5808
G01 X8.2015 Y37.5971
G01 X8.2107 Y37.6143
G01 X8.2165 Y37.6279
G01 X8.2213 Y37.6418
G01 X8.2261 Y37.6609
G01 X8.2285 Y37.6755
G01 X8.2299 Y37.6951
G01 X8.2300 Y39.5000
G01 X8.2290 Y39.5196
G01 X8.2270 Y39.5343
G01 X8.2251 Y39.5439
G01 X8.2199 Y39.5629
G01 X8.2128 Y39.5812
G01 X8.2063 Y39.5944
G01 X8.2015 Y39.6029
G01 X8.1906 Y39.6192
G01 X8.1782 Y39.6343
G01 X8.1643 Y39.6482
G01 X8.1492 Y39.6606
G01 X8.1329 Y39.6715
G01 X8.1157 Y39.6807
G01 X8.1021 Y39.6865
G01 X8.0835 Y39.6927
G01 X8.0691 Y39.6961
G01 X8.0496 Y39.6990
G01 X8.0349 Y39.6999
G01 X6.2300 Y39.7000
G01 X6.2202 Y39.6998
G01 X6.2055 Y39.6985
G01 X6.1861 Y39.6951
G01 X6.1671 Y39.6899
G01 X6.1488 Y39.6828
G01 X6.1313 Y39.6739
G01 X6.1188 Y39.6662
G01 X6.1108 Y39.6606
G01 X6.0957 Y39.6482
G01 X6.0818 Y39.6343
G01 X6.0694 Y39.6192
G01 X6.0585 Y39.6029
G01 X6.0493 Y39.5857
G01 X6.0435 Y39.5721
G01 X6.0387 Y39.5582
G01 X6.0339 Y39.5391
G01 X6.0315 Y39.5245
G01 X6.0301 Y39.5049
G01 X6.0300 Y37.7000
G01 X6.0305 Y37.6853
G01 X6.0330 Y37.6657
G01 X6.0360 Y37.6513
G01 X6.0417 Y37.6325
G01 X6.0493 Y37.6143
G01 X6.0585 Y37.5971
G01 X6.0694 Y37.5808
G01 X6.0818 Y37.5657
G01 X6.0957 Y37.5518
G01 X6.1108 Y37.5394
G01 X6.1271 Y37.5285
G01 X6.1443 Y37.5193
G01 X6.1579 Y37.5135
G01 X6.1718 Y37.5087
G01 X6.1909 Y37.5039
G01 X6.2104 Y37.5010
G01 X6.2300 Y37.5000
G00 Z2.0000
G00 X8.2298 Y43.6898
G01 F60.00
G01 Z-0.0500
G01 F100.00
G01 X8.2247 Y43.7881
G01 X8.2089 Y43.8943
G01 X8.2067 Y43.9042
G01 X8.1828 Y43.9987
G01 X8.1796 Y44.0086
G01 X8.1462 Y44.1011
G01 X8.1003 Y44.1982
G01 X8.0953 Y44.2071
G01 X8.0447 Y44.2910
G01 X7.9806 Y44.3775
G01 X7.9739 Y44.3853
G01 X7.9078 Y44.4578
G01 X7.8353 Y44.5239
G01 X7.8275 Y44.5306
G01 X7.7410 Y44.5947
G01 X7.6571 Y44.6453
G01 X7.6482 Y44.6503
G01 X7.5511 Y44.6962
G01 X7.4586 Y44.7296
G01 X7.4487 Y44.7328
G01 X7.3542 Y44.7567
G01 X7.3443 Y44.7589
G01 X7.2381 Y44.7747
G01 X7.2280 Y44.7754
G01 X7.1300 Y44.7800
G01 X7.0320 Y44.7754
G01 X7.0219 Y44.7747
G01 X6.9157 Y44.7589
G01 X6.9058 Y44.7567
G01 X6.8113 Y44.7328
G01 X6.8014 Y44.7296
G01 X6.7089 Y44.6962
G01 X6.6118 Y44.6503
G01 X6.6029 Y44.6453
G01 X6.5190 Y44.5947
G01 X6.4325 Y44.5306
G01 X6.4247 Y44.5239
G01 X6.3522 Y44.4578
G01 X6.2861 Y44.3853
G01 X6.2794 Y44.3775
G01 X6.2153 Y44.2910
G01 X6.1647 Y44.2071
G01 X6.1597 Y44.1982
G01 X6.1138 Y44.1011
G01 X6.0804 Y44.0086
G01 X6.0772 Y43.9987
G01 X6.0533 Y43.9042
G01 X6.0511 Y43.8943
G01 X6.0353 Y43.7881
G01 X6.0346 Y43.7780
G01 X6.0300 Y43.6800
G01 X6.0346 Y43.5820
G01 X6.0353 Y43.5719
G01 X6.0511 Y43.4657
G01 X6.0533 Y43.4558
G01 X6.0772 Y43.3613
G01 X6.0804 Y43.3514
G01 X6.1138 Y43.2589
G01 X6.1597 Y43.1618
G01 X6.1647 Y43.1529
G01 X6.2153 Y43.0690
G01 X6.2794 Y42.9825
G01 X6.2861 Y42.9747
G01 X6.3522 Y42.9022
G01 X6.4247 Y42.8361
G01 X6.4325 Y42.8294
G01 X6.5190 Y42.7653
G01 X6.6029 Y42.7147
G01 X6.6118 Y42.7097
G01 X6.7089 Y42.6638
G01 X6.8014 Y42.6304
G01 X6.8113 Y42.6272
G01 X6.9058 Y42.6033
G01 X6.9157 Y42.6011
G01 X7.0219 Y42.5853
G01 X7.0320 Y42.5846
G01 X7.1300 Y42.5800
G01 X7.2280 Y42.5846
G01 X7.2381 Y42.5853
G01 X7.3443 Y42.6011
G01 X7.3542 Y42.6033
G01 X7.4487 Y42.6272
G01 X7.4586 Y42.6304
G01 X7.5511 Y42.6638
G01 X7.6482 Y42.7097
G01 X7.6571 Y42.7147
G01 X7.7410 Y42.7653
G01 X7.8275 Y42.8294
G01 X7.8353 Y42.8361
G01 X7.9078 Y42.9022
G01 X7.9739 Y42.9747
G01 X7.9806 Y42.9825
G01 X8.0447 Y43.0690
G01 X8.0953 Y43.1529
G01 X8.1003 Y43.1618
G01 X8.1462 Y43.2589
G01 X8.1796 Y43.3514
G01 X8.1828 Y43.3613
G01 X8.2067 Y43.4558
G01 X8.2089 Y43.4657
G01 X8.2247 Y43.5719
G01 X8.2298 Y43.6702
G01 X8.2298 Y43.6898
G00 Z2.0000
G00 X8.5893 Y43.7075
G01 F60.00
G01 Z-0.0500
G01 F100.00
G01 X8.5850 Y43.7957
G01 X8.5829 Y43.8239
G01 X8.5796 Y43.8504
G01 X8.5666 Y43.9378
G01 X8.5621 Y43.9640
G01 X8.5559 Y43.9917
G01 X8.5345 Y44.0773
G01 X8.5276 Y44.1022
G01 X8.5185 Y44.1299
G01 X8.4888 Y44.2131
G01 X8.4787 Y44.2391
G01 X8.4677 Y44.2638
G01 X8.4300 Y44.3437
G01 X8.4181 Y44.3674
G01 X8.4041 Y44.3922
G01 X8.3587 Y44.4679
G01 X8.3443 Y44.4906
G01 X8.3281 Y44.5136
G01 X8.2755 Y44.5845
G01 X8.2593 Y44.6053
G01 X8.2406 Y44.6270
G01 X8.1813 Y44.6925
G01 X8.1624 Y44.7124
G01 X8.1425 Y44.7313
G01 X8.0770 Y44.7906
G01 X8.0553 Y44.8093
G01 X8.0345 Y44.8255
G01 X7.9636 Y44.8781
G01 X7.9406 Y44.8943
G01 X7.9179 Y44.9087
G01 X7.8422 Y44.9541
G01 X7.8174 Y44.9681
G01 X7.7937 Y44.9800
G01 X7.7138 Y45.0177
G01 X7.6891 Y45.0287
G01 X7.6631 Y45.0388
G01 X7.5799 Y45.0685
G01 X7.5522 Y45.0776
G01 X7.5273 Y45.0845
G01 X7.4417 Y45.1059
G01 X7.4140 Y45.1121
G01 X7.3878 Y45.1166
G01 X7.3004 Y45.1296
G01 X7.2739 Y45.1329
G01 X7.2457 Y45.1350
G01 X7.1575 Y45.1393
G01 X7.1300 Y45.1400
G01 X7.1025 Y45.1393
G01 X7.0143 Y45.1350
G01 X6.9861 Y45.1329
G01 X6.9596 Y45.1296
G01 X6.8722 Y45.1166
G01 X6.8460 Y45.1121
G01 X6.8183 Y45.1059
G01 X6.7327 Y45.0845
G01 X6.7078 Y45.0776
G01 X6.6801 Y45.0685
G01 X6.5969 Y45.0388
G01 X6.5709 Y45.0287
G01 X6.5462 Y45.0177
G01 X6.4663 Y44.9800
G01 X6.4426 Y44.9681
G01 X6.4178 Y44.9541
G01 X6.3421 Y44.9087
G01 X6.3194 Y44.8943
G01 X6.2964 Y44.8781
G01 X6.2255 Y44.8255
G01 X6.2047 Y44.8093
G01 X6.1830 Y44.7906
G01 X6.1175 Y44.7313
G01 X6.0976 Y44.7124
G01 X6.0787 Y44.6925
G01 X6.0194 Y44.6270
G01 X6.0007 Y44.6053
G01 X5.9845 Y44.5845
G01 X5.9319 Y44.5136
G01 X5.9157 Y44.4906
G01 X5.9013 Y44.4679
G01 X5.8559 Y44.3922
G01 X5.8419 Y44.3674
G01 X5.8300 Y44.3437
G01 X5.7923 Y44.2638
G01 X5.7813 Y44.2391
G01 X5.7712 Y44.2131
G01 X5.7415 Y44.1299
G01 X5.7324 Y44.1022
G01 X5.7255 Y44.0773
G01 X5.7041 Y43.9917
G01 X5.6979 Y43.9640
G01 X5.6934 Y43.9378
G01 X5.6804 Y43.8504
G01 X5.6771 Y43.8239
G01 X5.6750 Y43.7957
G01 X5.6707 Y43.7075
G01 X5.6700 Y43.6800
G01 X5.6707 Y43.6525
G01 X5.6750 Y43.5643
G01 X5.6771 Y43.5361
G01 X5.6804 Y43.5096
G01 X5.6934 Y43.4222
G01 X5.6979 Y43.3960
G01 X5.7041 Y43.3683
G01 X5.7255 Y43.2827
G01 X5.7324 Y43.2578
G01 X5.7415 Y43.2301
G01 X5.7712 Y43.1469
G01 X5.7813 Y43.1209
G01 X5.7923 Y43.0962
G01 X5.8300 Y43.0163
G01 X5.8419 Y42.9926
G01 X5.8559 Y42.9678
G01 X5.9013 Y42.8921
G01 X5.9157 Y42.8694
G01 X5.9319 Y42.8464
G01 X5.9845 Y42.7755
G01 X6.0007 Y42.7547
G01 X6.0194 Y42.7330
G01 X6.0787 Y42.6675
G01 X6.0976 Y42.6476
G01 X6.1175 Y42.6287
G01 X6.1830 Y42.5694
G01 X6.2047 Y42.5507
G01 X6.2255 Y42.5345
G01 X6.2964 Y42.4819
G01 X6.3194 Y42.4657
G01 X6.3421 Y42.4513
G01 X6.4178 Y42.4059
G01 X6.4426 Y42.3919
G01 X6.4663 Y42.3800
G01 X6.5462 Y42.3423
G01 X6.5709 Y42.3313
G01 X6.5969 Y42.3212
G01 X6.6801 Y42.2915
G01 X6.7078 Y42.2824
G01 X6.7327 Y42.2755
G01 X6.8183 Y42.2541
G01 X6.8460 Y42.2479
G01 X6.8722 Y42.2434
G01 X6.9596 Y42.2304
G01 X6.9861 Y42.2271
G01 X7.0143 Y42.2250
G01 X7.1025 Y42.2207
G01 X7.1300 Y42.2200
G01 X7.1575 Y42.2207
G01 X7.2457 Y42.2250
G01 X7.2739 Y42.2271
G01 X7.3004 Y42.2304
G01 X7.3878 Y42.2434
G01 X7.4140 Y42.2479
G01 X7.4417 Y42.2541
G01 X7.5273 Y42.2755
G01 X7.5522 Y42.2824
G01 X7.5799 Y42.2915
G01 X7.6631 Y42.3212
G01 X7.6891 Y42.3313
G01 X7.7138 Y42.3423
G01 X7.7937 Y42.3800
G01 X7.8174 Y42.3919
G01 X7.8422 Y42.4059
G01 X7.9179 Y42.4513
G01 X7.9406 Y42.4657
G01 X7.9636 Y42.4819
G01 X8.0345 Y42.5345
G01 X8.0553 Y42.5507
G01 X8.0770 Y42.5694
G01 X8.1425 Y42.6287
G01 X8.1624 Y42.6476
G01 X8.1813 Y42.6675
G01 X8.2406 Y42.7330
G01 X8.2593 Y42.7547
G01 X8.2755 Y42.7755
G01 X8.3281 Y42.8464
G01 X8.3443 Y42.8694
G01 X8.3587 Y42.8921
G01 X8.4041 Y42.9678
G01 X8.4181 Y42.9926
G01 X8.4300 Y43.0163
G01 X8.4677 Y43.0962
G01 X8.4787 Y43.1209
G01 X8.4888 Y43.1469
G01 X8.5185 Y43.2301
G01 X8.5276 Y43.2578
G01 X8.5345 Y43.2827
G01 X8.5559 Y43.3683
G01 X8.5621 Y43.3960
G01 X8.5666 Y43.4222
G01 X8.5796 Y43.5096
G01 X8.5829 Y43.5361
G01 X8.5850 Y43.5643
G01 X8.5893 Y43.6525
G01 X8.5900 Y43.6800
G01 X8.5893 Y43.7075
G00 Z2.0000
G00 X8.9489 Y43.7251
G01 F60.00
G01 Z-0.0500
G01 F100.00
G01 X8.9431 Y43.8366
G01 X8.9411 Y43.8598
G01 X8.9387 Y43.8815
G01 X8.9227 Y43.9906
G01 X8.9193 Y44.0122
G01 X8.9153 Y44.0337
G01 X8.9108 Y44.0552
G01 X8.9051 Y44.0791
G01 X8.8837 Y44.1648
G01 X8.8724 Y44.2056
G01 X8.8653 Y44.2285
G01 X8.8277 Y44.3344
G01 X8.8197 Y44.3558
G01 X8.8112 Y44.3770
G01 X8.8022 Y44.3981
G01 X8.7466 Y44.5157
G01 X8.7359 Y44.5365
G01 X8.7246 Y44.5570
G01 X8.7128 Y44.5772
G01 X8.6558 Y44.6718
G01 X8.6438 Y44.6903
G01 X8.6308 Y44.7094
G01 X8.5647 Y44.7990
G01 X8.5516 Y44.8162
G01 X8.5381 Y44.8331
G01 X8.5242 Y44.8497
G01 X8.5074 Y44.8688
G01 X8.4481 Y44.9342
G01 X8.4327 Y44.9508
G01 X8.4169 Y44.9669
G01 X8.4008 Y44.9827
G01 X8.3188 Y45.0574
G01 X8.2997 Y45.0742
G01 X8.2831 Y45.0881
G01 X8.2662 Y45.1016
G01 X8.2490 Y45.1147
G01 X8.1781 Y45.1673
G01 X8.1594 Y45.1808
G01 X8.1403 Y45.1938
G01 X8.1218 Y45.2058
G01 X8.1030 Y45.2174
G01 X8.0272 Y45.2628
G01 X8.0070 Y45.2746
G01 X7.9865 Y45.2859
G01 X7.9657 Y45.2966
G01 X7.9476 Y45.3054
G01 X7.8678 Y45.3432
G01 X7.8481 Y45.3522
G01 X7.8270 Y45.3612
G01 X7.8058 Y45.3697
G01 X7.7012 Y45.4075
G01 X7.6785 Y45.4153
G01 X7.6556 Y45.4224
G01 X7.6148 Y45.4337
G01 X7.5291 Y45.4551
G01 X7.5052 Y45.4608
G01 X7.4837 Y45.4653
G01 X7.4622 Y45.4693
G01 X7.4406 Y45.4727
G01 X7.3532 Y45.4857
G01 X7.3315 Y45.4887
G01 X7.3098 Y45.4911
G01 X7.2866 Y45.4931
G01 X7.2634 Y45.4946
G01 X7.1751 Y45.4989
G01 X7.1526 Y45.4997
G01 X7.1300 Y45.5000
G01 X7.1074 Y45.4997
G01 X6.9966 Y45.4946
G01 X6.9734 Y45.4931
G01 X6.9502 Y45.4911
G01 X6.9285 Y45.4887
G01 X6.9068 Y45.4857
G01 X6.8194 Y45.4727
G01 X6.7978 Y45.4693
G01 X6.7763 Y45.4653
G01 X6.7548 Y45.4608
G01 X6.7309 Y45.4551
G01 X6.6452 Y45.4337
G01 X6.6044 Y45.4224
G01 X6.5815 Y45.4153
G01 X6.5588 Y45.4075
G01 X6.4756 Y45.3777
G01 X6.4542 Y45.3697
G01 X6.4330 Y45.3612
G01 X6.4119 Y45.3522
G01 X6.3922 Y45.3432
G01 X6.3124 Y45.3054
G01 X6.2943 Y45.2966
G01 X6.2735 Y45.2859
G01 X6.2530 Y45.2746
G01 X6.2328 Y45.2628
G01 X6.1570 Y45.2174
G01 X6.1382 Y45.2058
G01 X6.1197 Y45.1938
G01 X6.1006 Y45.1808
G01 X6.0819 Y45.1673
G01 X6.0110 Y45.1147
G01 X5.9938 Y45.1016
G01 X5.9769 Y45.0881
G01 X5.9603 Y45.0742
G01 X5.9412 Y45.0574
G01 X5.8758 Y44.9981
G01 X5.8592 Y44.9827
G01 X5.8431 Y44.9669
G01 X5.8273 Y44.9508
G01 X5.7526 Y44.8688
G01 X5.7358 Y44.8497
G01 X5.7219 Y44.8331
G01 X5.7084 Y44.8162
G01 X5.6953 Y44.7990
G01 X5.6427 Y44.7281
G01 X5.6292 Y44.7094
G01 X5.6162 Y44.6903
G01 X5.6042 Y44.6718
G01 X5.5926 Y44.6530
G01 X5.5472 Y44.5772
G01 X5.5354 Y44.5570
G01 X5.5241 Y44.5365
G01 X5.5134 Y44.5157
G01 X5.5046 Y44.4976
G01 X5.4668 Y44.4178
G01 X5.4578 Y44.3981
G01 X5.4488 Y44.3770
G01 X5.4403 Y44.3558
G01 X5.4025 Y44.2512
G01 X5.3947 Y44.2285
G01 X5.3876 Y44.2056
G01 X5.3763 Y44.1648
G01 X5.3549 Y44.0791
G01 X5.3492 Y44.0552
G01 X5.3447 Y44.0337
G01 X5.3407 Y44.0122
G01 X5.3373 Y43.9906
G01 X5.3243 Y43.9032
G01 X5.3213 Y43.8815
G01 X5.3189 Y43.8598
G01 X5.3169 Y43.8366
G01 X5.3154 Y43.8134
G01 X5.3111 Y43.7251
G01 X5.3103 Y43.7026
G01 X5.3100 Y43.6800
G01 X5.3103 Y43.6574
G01 X5.3154 Y43.5466
G01 X5.3169 Y43.5234
G01 X5.3189 Y43.5002
G01 X5.3213 Y43.4785
G01 X5.3243 Y43.4568
G01 X5.3373 Y43.3694
G01 X5.3407 Y43.3478
G01 X5.3447 Y43.3263
G01 X5.3492 Y43.3048
G01 X5.3549 Y43.2809
G01 X5.3763 Y43.1952
G01 X5.3876 Y43.1544
G01 X5.3947 Y43.1315
G01 X5.4025 Y43.1088
G01 X5.4323 Y43.0256
G01 X5.4403 Y43.0042
G01 X5.4488 Y42.9830
G01 X5.4578 Y42.9619
G01 X5.4668 Y42.9422
G01 X5.5046 Y42.8624
G01 X5.5134 Y42.8443
G01 X5.5241 Y42.8235
G01 X5.5354 Y42.8030
G01 X5.5472 Y42.7828
G01 X5.5926 Y42.7070
G01 X5.6042 Y42.6882
G01 X5.6162 Y42.6697
G01 X5.6292 Y42.6506
G01 X5.6427 Y42.6319
G01 X5.6953 Y42.5610
G01 X5.7084 Y42.5438
G01 X5.7219 Y42.5269
G01 X5.7358 Y42.5103
G01 X5.7526 Y42.4912
G01 X5.8119 Y42.4258
G01 X5.8273 Y42.4092
G01 X5.8431 Y42.3931
G01 X5.8592 Y42.3773
G01 X5.9412 Y42.3026
G01 X5.9603 Y42.2858
G01 X5.9769 Y42.2719
G01 X5.9938 Y42.2584
G01 X6.0110 Y42.2453
G01 X6.0819 Y42.1927
G01 X6.1006 Y42.1792
G01 X6.1197 Y42.1662
G01 X6.1382 Y42.1542
G01 X6.1570 Y42.1426
G01 X6.2328 Y42.0972
G01 X6.2530 Y42.0854
G01 X6.2735 Y42.0741
G01 X6.2943 Y42.0634
G01 X6.3124 Y42.0546
G01 X6.3922 Y42.0168
G01 X6.4119 Y42.0078
G01 X6.4330 Y41.9988
G01 X6.4542 Y41.9903
G01 X6.5588 Y41.9525
G01 X6.5815 Y41.9447
G01 X6.6044 Y41.9376
G01 X6.6452 Y41.9263
G01 X6.7309 Y41.9049
G01 X6.7548 Y41.8992
G01 X6.7763 Y41.8947
G01 X6.7978 Y41.8907
G01 X6.8194 Y41.8873
G01 X6.9068 Y41.8743
G01 X6.9285 Y41.8713
G01 X6.9502 Y41.8689
G01 X6.9734 Y41.8669
G01 X6.9966 Y41.8654
G01 X7.0849 Y41.8611
G01 X7.1074 Y41.8603
G01 X7.1300 Y41.8600
G01 X7.1526 Y41.8603
G01 X7.2634 Y41.8654
G01 X7.2866 Y41.8669
G01 X7.3098 Y41.8689
G01 X7.3315 Y41.8713
G01 X7.3532 Y41.8743
G01 X7.4406 Y41.8873
G01 X7.4622 Y41.8907
G01 X7.4837 Y41.8947
G01 X7.5052 Y41.8992
G01 X7.5291 Y41.9049
G01 X7.6148 Y41.9263
G01 X7.6556 Y41.9376
G01 X7.6785 Y41.9447
G01 X7.7012 Y41.9525
G01 X7.7844 Y41.9823
G01 X7.8058 Y41.9903
G01 X7.8270 Y41.9988
G01 X7.8481 Y42.0078
G01 X7.8678 Y42.0168
G01 X7.9476 Y42.0546
G01 X7.9657 Y42.0634
G01 X7.9865 Y42.0741
G01 X8.0070 Y42.0854
G01 X8.0272 Y42.0972
G01 X8.1030 Y42.1426
G01 X8.1218 Y42.1542
G01 X8.1403 Y42.1662
G01 X8.1594 Y42.1792
G01 X8.1781 Y42.1927
G01 X8.2490 Y42.2453
G01 X8.2662 Y42.2584
G01 X8.2831 Y42.2719
G01 X8.2997 Y42.2858
G01 X8.3188 Y42.3026
G01 X8.3842 Y42.3619
G01 X8.4008 Y42.3773
G01 X8.4169 Y42.3931
G01 X8.4327 Y42.4092
G01 X8.5074 Y42.4912
G01 X8.5242 Y42.5103
G01 X8.5381 Y42.5269
G01 X8.5516 Y42.5438
G01 X8.5647 Y42.5610
G01 X8.6173 Y42.6319
G01 X8.6308 Y42.6506
G01 X8.6438 Y42.6697
G01 X8.6558 Y42.6882
G01 X8.6674 Y42.7070
G01 X8.7128 Y42.7828
G01 X8.7246 Y42.8030
G01 X8.7359 Y42.8235
G01 X8.7466 Y42.8443
G01 X8.7554 Y42.8624
G01 X8.7932 Y42.9422
G01 X8.8022 Y42.9619
G01 X8.8112 Y42.9830
G01 X8.8197 Y43.0042
G01 X8.8575 Y43.1088
G01 X8.8653 Y43.1315
G01 X8.8724 Y43.1544
G01 X8.8837 Y43.1952
G01 X8.9051 Y43.2809
G01 X8.9108 Y43.3048
G01 X8.9153 Y43.3263
G01 X8.9193 Y43.3478
G01 X8.9227 Y43.3694
G01 X8.9387 Y43.4785
G01 X8.9411 Y43.5002
G01 X8.9431 Y43.5234
G01 X8.9446 Y43.5466
G01 X8.9497 Y43.6574
G01 X8.9500 Y43.6800
G01 X8.9497 Y43.7026
G01 X8.9489 Y43.7251
G00 Z2.0000
G00 X6.0300 Y49.6600
G01 F60.00
G01 Z-0.0500
G01 F100.00
G01 X6.0301 Y47.8551
G01 X6.0315 Y47.8355
G01 X6.0349 Y47.8161
G01 X6.0401 Y47.7971
G01 X6.0472 Y47.7788
G01 X6.0514 Y47.7699
G01 X6.0585 Y47.7571
G01 X6.0694 Y47.7408
G01 X6.0818 Y47.7257
G01 X6.0957 Y47.7118
G01 X6.1108 Y47.6994
G01 X6.1271 Y47.6885
G01 X6.1443 Y47.6793
G01 X6.1579 Y47.6735
G01 X6.1765 Y47.6673
G01 X6.1909 Y47.6639
G01 X6.2055 Y47.6615
G01 X6.2251 Y47.6601
G01 X8.0300 Y47.6600
G01 X8.0447 Y47.6605
G01 X8.0545 Y47.6615
G01 X8.0739 Y47.6649
G01 X8.0929 Y47.6701
G01 X8.1112 Y47.6772
G01 X8.1287 Y47.6861
G01 X8.1452 Y47.6965
G01 X8.1607 Y47.7086
G01 X8.1679 Y47.7152
G01 X8.1782 Y47.7257
G01 X8.1906 Y47.7408
G01 X8.2015 Y47.7571
G01 X8.2107 Y47.7743
G01 X8.2165 Y47.7879
G01 X8.2227 Y47.8065
G01 X8.2261 Y47.8209
G01 X8.2290 Y47.8404
G01 X8.2299 Y47.8551
G01 X8.2300 Y49.6600
G01 X8.2290 Y49.6796
G01 X8.2278 Y49.6894
G01 X8.2251 Y49.7039
G01 X8.2199 Y49.7229
G01 X8.2128 Y49.7412
G01 X8.2039 Y49.7587
G01 X8.1962 Y49.7712
G01 X8.1906 Y49.7792
G01 X8.1782 Y49.7943
G01 X8.1643 Y49.8082
G01 X8.1492 Y49.8206
G01 X8.1329 Y49.8315
G01 X8.1157 Y49.8407
G01 X8.1021 Y49.8465
G01 X8.0835 Y49.8527
G01 X8.0691 Y49.8561
G01 X8.0545 Y49.8585
G01 X8.0349 Y49.8599
G01 X6.2300 Y49.8600
