(G-CODE GENERATED BY FLATCAM v8.994 - www.flatcam.org - Version Date: 2020/11/7)

(Name: CoilGun_PCB.GM1_cutout_cnc)
(Type: G-code from Geometry)
(Units: MM)

(Created on Monday, 30 May 2022 at 16:18)

(This preprocessor is the default preprocessor used by FlatCAM.)
(It is made to work with MACH3 compatible motion controllers.)

(TOOL DIAMETER: 1.0 mm)
(Feedrate_XY: 200.0 mm/min)
(Feedrate_Z: 60.0 mm/min)
(Feedrate rapids 1500.0 mm/min)

(Z_Cut: -1.7 mm)
(DepthPerCut: 0.6 mm <=>3 passes)
(Z_Move: 2.0 mm)
(Z Start: None mm)
(Z End: 15.0 mm)
(X,Y End: None mm)
(Steps per circle: 64)
(Preprocessor Geometry: default)

(X range:   -0.6251 ...   78.6251  mm)
(Y range:   -0.6251 ...   72.6251  mm)

(Spindle Speed: 15000.0 RPM)
G21
G90
G94

G01 F200.00

M5
G00 Z15.0000
G00 X0.0000 Y0.0000
T1
M6    
(MSG, Change to Tool Dia = 1.0000)
M0
G00 Z15.0000

M03 S15000.0
G01 F200.00
G00 X-0.6251 Y16.6875
G01 F60.00
G01 Z-0.6000
G01 F200.00
G01 X-0.6251 Y0.0000
G01 X-0.6239 Y-0.0368
G01 X-0.6190 Y-0.0856
G01 X-0.6172 Y-0.0978
G01 X-0.6077 Y-0.1459
G01 X-0.6047 Y-0.1578
G01 X-0.5904 Y-0.2047
G01 X-0.5863 Y-0.2163
G01 X-0.5675 Y-0.2616
G01 X-0.5623 Y-0.2727
G01 X-0.5392 Y-0.3160
G01 X-0.5328 Y-0.3265
G01 X-0.5056 Y-0.3673
G01 X-0.4983 Y-0.3772
G01 X-0.4672 Y-0.4151
G01 X-0.4589 Y-0.4242
G01 X-0.4242 Y-0.4589
G01 X-0.4151 Y-0.4672
G01 X-0.3772 Y-0.4983
G01 X-0.3673 Y-0.5056
G01 X-0.3265 Y-0.5328
G01 X-0.3160 Y-0.5392
G01 X-0.2727 Y-0.5623
G01 X-0.2616 Y-0.5675
G01 X-0.2163 Y-0.5863
G01 X-0.2047 Y-0.5904
G01 X-0.1578 Y-0.6047
G01 X-0.1459 Y-0.6077
G01 X-0.0978 Y-0.6172
G01 X-0.0856 Y-0.6190
G01 X-0.0368 Y-0.6239
G01 X0.0000 Y-0.6251
G01 X18.1875 Y-0.6251
G00 X18.1875 Y-0.6251
G01 F60.00
G01 Z-1.2000
G01 F200.00
G01 X0.0000 Y-0.6251
G01 X-0.0368 Y-0.6239
G01 X-0.0856 Y-0.6190
G01 X-0.0978 Y-0.6172
G01 X-0.1459 Y-0.6077
G01 X-0.1578 Y-0.6047
G01 X-0.2047 Y-0.5904
G01 X-0.2163 Y-0.5863
G01 X-0.2616 Y-0.5675
G01 X-0.2727 Y-0.5623
G01 X-0.3160 Y-0.5392
G01 X-0.3265 Y-0.5328
G01 X-0.3673 Y-0.5056
G01 X-0.3772 Y-0.4983
G01 X-0.4151 Y-0.4672
G01 X-0.4242 Y-0.4589
G01 X-0.4589 Y-0.4242
G01 X-0.4672 Y-0.4151
G01 X-0.4983 Y-0.3772
G01 X-0.5056 Y-0.3673
G01 X-0.5328 Y-0.3265
G01 X-0.5392 Y-0.3160
G01 X-0.5623 Y-0.2727
G01 X-0.5675 Y-0.2616
G01 X-0.5863 Y-0.2163
G01 X-0.5904 Y-0.2047
G01 X-0.6047 Y-0.1578
G01 X-0.6077 Y-0.1459
G01 X-0.6172 Y-0.0978
G01 X-0.6190 Y-0.0856
G01 X-0.6239 Y-0.0368
G01 X-0.6251 Y0.0000
G01 X-0.6251 Y16.6875
G00 X-0.6251 Y16.6875
G01 F60.00
G01 Z-1.7000
G01 F200.00
G01 X-0.6251 Y0.0000
G01 X-0.6239 Y-0.0368
G01 X-0.6190 Y-0.0856
G01 X-0.6172 Y-0.0978
G01 X-0.6077 Y-0.1459
G01 X-0.6047 Y-0.1578
G01 X-0.5904 Y-0.2047
G01 X-0.5863 Y-0.2163
G01 X-0.5675 Y-0.2616
G01 X-0.5623 Y-0.2727
G01 X-0.5392 Y-0.3160
G01 X-0.5328 Y-0.3265
G01 X-0.5056 Y-0.3673
G01 X-0.4983 Y-0.3772
G01 X-0.4672 Y-0.4151
G01 X-0.4589 Y-0.4242
G01 X-0.4242 Y-0.4589
G01 X-0.4151 Y-0.4672
G01 X-0.3772 Y-0.4983
G01 X-0.3673 Y-0.5056
G01 X-0.3265 Y-0.5328
G01 X-0.3160 Y-0.5392
G01 X-0.2727 Y-0.5623
G01 X-0.2616 Y-0.5675
G01 X-0.2163 Y-0.5863
G01 X-0.2047 Y-0.5904
G01 X-0.1578 Y-0.6047
G01 X-0.1459 Y-0.6077
G01 X-0.0978 Y-0.6172
G01 X-0.0856 Y-0.6190
G01 X-0.0368 Y-0.6239
G01 X0.0000 Y-0.6251
G01 X18.1875 Y-0.6251
G00 Z2.0000
G00 X-0.6251 Y18.6875
G01 F60.00
G01 Z-0.6000
G01 F200.00
G01 X-0.6251 Y53.3125
G00 X-0.6251 Y53.3125
G01 F60.00
G01 Z-1.2000
G01 F200.00
G01 X-0.6251 Y18.6875
G00 X-0.6251 Y18.6875
G01 F60.00
G01 Z-1.7000
G01 F200.00
G01 X-0.6251 Y53.3125
G00 Z2.0000
G00 X-0.6251 Y55.3125
G01 F60.00
G01 Z-0.6000
G01 F200.00
G01 X-0.6251 Y72.0000
G01 X-0.6239 Y72.0368
G01 X-0.6190 Y72.0856
G01 X-0.6172 Y72.0978
G01 X-0.6077 Y72.1459
G01 X-0.6047 Y72.1578
G01 X-0.5904 Y72.2047
G01 X-0.5863 Y72.2163
G01 X-0.5675 Y72.2616
G01 X-0.5623 Y72.2727
G01 X-0.5392 Y72.3160
G01 X-0.5328 Y72.3265
G01 X-0.5056 Y72.3673
G01 X-0.4983 Y72.3772
G01 X-0.4672 Y72.4151
G01 X-0.4589 Y72.4242
G01 X-0.4242 Y72.4589
G01 X-0.4151 Y72.4672
G01 X-0.3772 Y72.4983
G01 X-0.3673 Y72.5056
G01 X-0.3265 Y72.5328
G01 X-0.3160 Y72.5392
G01 X-0.2727 Y72.5623
G01 X-0.2616 Y72.5675
G01 X-0.2163 Y72.5863
G01 X-0.2047 Y72.5904
G01 X-0.1578 Y72.6047
G01 X-0.1459 Y72.6077
G01 X-0.0978 Y72.6172
G01 X-0.0856 Y72.6190
G01 X-0.0368 Y72.6239
G01 X0.0000 Y72.6251
G01 X18.1875 Y72.6251
G00 X18.1875 Y72.6251
G01 F60.00
G01 Z-1.2000
G01 F200.00
G01 X0.0000 Y72.6251
G01 X-0.0368 Y72.6239
G01 X-0.0856 Y72.6190
G01 X-0.0978 Y72.6172
G01 X-0.1459 Y72.6077
G01 X-0.1578 Y72.6047
G01 X-0.2047 Y72.5904
G01 X-0.2163 Y72.5863
G01 X-0.2616 Y72.5675
G01 X-0.2727 Y72.5623
G01 X-0.3160 Y72.5392
G01 X-0.3265 Y72.5328
G01 X-0.3673 Y72.5056
G01 X-0.3772 Y72.4983
G01 X-0.4151 Y72.4672
G01 X-0.4242 Y72.4589
G01 X-0.4589 Y72.4242
G01 X-0.4672 Y72.4151
G01 X-0.4983 Y72.3772
G01 X-0.5056 Y72.3673
G01 X-0.5328 Y72.3265
G01 X-0.5392 Y72.3160
G01 X-0.5623 Y72.2727
G01 X-0.5675 Y72.2616
G01 X-0.5863 Y72.2163
G01 X-0.5904 Y72.2047
G01 X-0.6047 Y72.1578
G01 X-0.6077 Y72.1459
G01 X-0.6172 Y72.0978
G01 X-0.6190 Y72.0856
G01 X-0.6239 Y72.0368
G01 X-0.6251 Y72.0000
G01 X-0.6251 Y55.3125
G00 X-0.6251 Y55.3125
G01 F60.00
G01 Z-1.7000
G01 F200.00
G01 X-0.6251 Y72.0000
G01 X-0.6239 Y72.0368
G01 X-0.6190 Y72.0856
G01 X-0.6172 Y72.0978
G01 X-0.6077 Y72.1459
G01 X-0.6047 Y72.1578
G01 X-0.5904 Y72.2047
G01 X-0.5863 Y72.2163
G01 X-0.5675 Y72.2616
G01 X-0.5623 Y72.2727
G01 X-0.5392 Y72.3160
G01 X-0.5328 Y72.3265
G01 X-0.5056 Y72.3673
G01 X-0.4983 Y72.3772
G01 X-0.4672 Y72.4151
G01 X-0.4589 Y72.4242
G01 X-0.4242 Y72.4589
G01 X-0.4151 Y72.4672
G01 X-0.3772 Y72.4983
G01 X-0.3673 Y72.5056
G01 X-0.3265 Y72.5328
G01 X-0.3160 Y72.5392
G01 X-0.2727 Y72.5623
G01 X-0.2616 Y72.5675
G01 X-0.2163 Y72.5863
G01 X-0.2047 Y72.5904
G01 X-0.1578 Y72.6047
G01 X-0.1459 Y72.6077
G01 X-0.0978 Y72.6172
G01 X-0.0856 Y72.6190
G01 X-0.0368 Y72.6239
G01 X0.0000 Y72.6251
G01 X18.1875 Y72.6251
G00 Z2.0000
G00 X20.1875 Y72.6251
G01 F60.00
G01 Z-0.6000
G01 F200.00
G01 X57.8125 Y72.6251
G00 X57.8125 Y72.6251
G01 F60.00
G01 Z-1.2000
G01 F200.00
G01 X20.1875 Y72.6251
G00 X20.1875 Y72.6251
G01 F60.00
G01 Z-1.7000
G01 F200.00
G01 X57.8125 Y72.6251
G00 Z2.0000
G00 X59.8125 Y72.6251
G01 F60.00
G01 Z-0.6000
G01 F200.00
G01 X78.0000 Y72.6251
G01 X78.0368 Y72.6239
G01 X78.0856 Y72.6190
G01 X78.0978 Y72.6172
G01 X78.1459 Y72.6077
G01 X78.1578 Y72.6047
G01 X78.2047 Y72.5904
G01 X78.2163 Y72.5863
G01 X78.2616 Y72.5675
G01 X78.2727 Y72.5623
G01 X78.3160 Y72.5392
G01 X78.3265 Y72.5328
G01 X78.3673 Y72.5056
G01 X78.3772 Y72.4983
G01 X78.4151 Y72.4672
G01 X78.4242 Y72.4589
G01 X78.4589 Y72.4242
G01 X78.4672 Y72.4151
G01 X78.4983 Y72.3772
G01 X78.5056 Y72.3673
G01 X78.5328 Y72.3265
G01 X78.5392 Y72.3160
G01 X78.5623 Y72.2727
G01 X78.5675 Y72.2616
G01 X78.5863 Y72.2163
G01 X78.5904 Y72.2047
G01 X78.6047 Y72.1578
G01 X78.6077 Y72.1459
G01 X78.6172 Y72.0978
G01 X78.6190 Y72.0856
G01 X78.6239 Y72.0368
G01 X78.6251 Y72.0000
G01 X78.6251 Y55.3125
G00 X78.6251 Y55.3125
G01 F60.00
G01 Z-1.2000
G01 F200.00
G01 X78.6251 Y72.0000
G01 X78.6239 Y72.0368
G01 X78.6190 Y72.0856
G01 X78.6172 Y72.0978
G01 X78.6077 Y72.1459
G01 X78.6047 Y72.1578
G01 X78.5904 Y72.2047
G01 X78.5863 Y72.2163
G01 X78.5675 Y72.2616
G01 X78.5623 Y72.2727
G01 X78.5392 Y72.3160
G01 X78.5328 Y72.3265
G01 X78.5056 Y72.3673
G01 X78.4983 Y72.3772
G01 X78.4672 Y72.4151
G01 X78.4589 Y72.4242
G01 X78.4242 Y72.4589
G01 X78.4151 Y72.4672
G01 X78.3772 Y72.4983
G01 X78.3673 Y72.5056
G01 X78.3265 Y72.5328
G01 X78.3160 Y72.5392
G01 X78.2727 Y72.5623
G01 X78.2616 Y72.5675
G01 X78.2163 Y72.5863
G01 X78.2047 Y72.5904
G01 X78.1578 Y72.6047
G01 X78.1459 Y72.6077
G01 X78.0978 Y72.6172
G01 X78.0856 Y72.6190
G01 X78.0368 Y72.6239
G01 X78.0000 Y72.6251
G01 X59.8125 Y72.6251
G00 X59.8125 Y72.6251
G01 F60.00
G01 Z-1.7000
G01 F200.00
G01 X78.0000 Y72.6251
G01 X78.0368 Y72.6239
G01 X78.0856 Y72.6190
G01 X78.0978 Y72.6172
G01 X78.1459 Y72.6077
G01 X78.1578 Y72.6047
G01 X78.2047 Y72.5904
G01 X78.2163 Y72.5863
G01 X78.2616 Y72.5675
G01 X78.2727 Y72.5623
G01 X78.3160 Y72.5392
G01 X78.3265 Y72.5328
G01 X78.3673 Y72.5056
G01 X78.3772 Y72.4983
G01 X78.4151 Y72.4672
G01 X78.4242 Y72.4589
G01 X78.4589 Y72.4242
G01 X78.4672 Y72.4151
G01 X78.4983 Y72.3772
G01 X78.5056 Y72.3673
G01 X78.5328 Y72.3265
G01 X78.5392 Y72.3160
G01 X78.5623 Y72.2727
G01 X78.5675 Y72.2616
G01 X78.5863 Y72.2163
G01 X78.5904 Y72.2047
G01 X78.6047 Y72.1578
G01 X78.6077 Y72.1459
G01 X78.6172 Y72.0978
G01 X78.6190 Y72.0856
G01 X78.6239 Y72.0368
G01 X78.6251 Y72.0000
G01 X78.6251 Y55.3125
G00 Z2.0000
G00 X78.6251 Y53.3125
G01 F60.00
G01 Z-0.6000
G01 F200.00
G01 X78.6251 Y18.6875
G00 X78.6251 Y18.6875
G01 F60.00
G01 Z-1.2000
G01 F200.00
G01 X78.6251 Y53.3125
G00 X78.6251 Y53.3125
G01 F60.00
G01 Z-1.7000
G01 F200.00
G01 X78.6251 Y18.6875
G00 Z2.0000
G00 X78.6251 Y16.6875
G01 F60.00
G01 Z-0.6000
G01 F200.00
G01 X78.6251 Y0.0000
G01 X78.6239 Y-0.0368
G01 X78.6190 Y-0.0856
G01 X78.6172 Y-0.0978
G01 X78.6077 Y-0.1459
G01 X78.6047 Y-0.1578
G01 X78.5904 Y-0.2047
G01 X78.5863 Y-0.2163
G01 X78.5675 Y-0.2616
G01 X78.5623 Y-0.2727
G01 X78.5392 Y-0.3160
G01 X78.5328 Y-0.3265
G01 X78.5056 Y-0.3673
G01 X78.4983 Y-0.3772
G01 X78.4672 Y-0.4151
G01 X78.4589 Y-0.4242
G01 X78.4242 Y-0.4589
G01 X78.4151 Y-0.4672
G01 X78.3772 Y-0.4983
G01 X78.3673 Y-0.5056
G01 X78.3265 Y-0.5328
G01 X78.3160 Y-0.5392
G01 X78.2727 Y-0.5623
G01 X78.2616 Y-0.5675
G01 X78.2163 Y-0.5863
G01 X78.2047 Y-0.5904
G01 X78.1578 Y-0.6047
G01 X78.1459 Y-0.6077
G01 X78.0978 Y-0.6172
G01 X78.0856 Y-0.6190
G01 X78.0368 Y-0.6239
G01 X78.0000 Y-0.6251
G01 X59.8125 Y-0.6251
G00 X59.8125 Y-0.6251
G01 F60.00
G01 Z-1.2000
G01 F200.00
G01 X78.0000 Y-0.6251
G01 X78.0368 Y-0.6239
G01 X78.0856 Y-0.6190
G01 X78.0978 Y-0.6172
G01 X78.1459 Y-0.6077
G01 X78.1578 Y-0.6047
G01 X78.2047 Y-0.5904
G01 X78.2163 Y-0.5863
G01 X78.2616 Y-0.5675
G01 X78.2727 Y-0.5623
G01 X78.3160 Y-0.5392
G01 X78.3265 Y-0.5328
G01 X78.3673 Y-0.5056
G01 X78.3772 Y-0.4983
G01 X78.4151 Y-0.4672
G01 X78.4242 Y-0.4589
G01 X78.4589 Y-0.4242
G01 X78.4672 Y-0.4151
G01 X78.4983 Y-0.3772
G01 X78.5056 Y-0.3673
G01 X78.5328 Y-0.3265
G01 X78.5392 Y-0.3160
G01 X78.5623 Y-0.2727
G01 X78.5675 Y-0.2616
G01 X78.5863 Y-0.2163
G01 X78.5904 Y-0.2047
G01 X78.6047 Y-0.1578
G01 X78.6077 Y-0.1459
G01 X78.6172 Y-0.0978
G01 X78.6190 Y-0.0856
G01 X78.6239 Y-0.0368
G01 X78.6251 Y0.0000
G01 X78.6251 Y16.6875
G00 X78.6251 Y16.6875
G01 F60.00
G01 Z-1.7000
G01 F200.00
G01 X78.6251 Y0.0000
G01 X78.6239 Y-0.0368
G01 X78.6190 Y-0.0856
G01 X78.6172 Y-0.0978
G01 X78.6077 Y-0.1459
G01 X78.6047 Y-0.1578
G01 X78.5904 Y-0.2047
G01 X78.5863 Y-0.2163
G01 X78.5675 Y-0.2616
G01 X78.5623 Y-0.2727
G01 X78.5392 Y-0.3160
G01 X78.5328 Y-0.3265
G01 X78.5056 Y-0.3673
G01 X78.4983 Y-0.3772
G01 X78.4672 Y-0.4151
G01 X78.4589 Y-0.4242
G01 X78.4242 Y-0.4589
G01 X78.4151 Y-0.4672
G01 X78.3772 Y-0.4983
G01 X78.3673 Y-0.5056
G01 X78.3265 Y-0.5328
G01 X78.3160 Y-0.5392
G01 X78.2727 Y-0.5623
G01 X78.2616 Y-0.5675
G01 X78.2163 Y-0.5863
G01 X78.2047 Y-0.5904
G01 X78.1578 Y-0.6047
G01 X78.1459 Y-0.6077
G01 X78.0978 Y-0.6172
G01 X78.0856 Y-0.6190
G01 X78.0368 Y-0.6239
G01 X78.0000 Y-0.6251
G01 X59.8125 Y-0.6251
G00 Z2.0000
G00 X57.8125 Y-0.6251
G01 F60.00
G01 Z-0.6000
G01 F200.00
G01 X20.1875 Y-0.6251
G00 X20.1875 Y-0.6251
G01 F60.00
G01 Z-1.2000
G01 F200.00
G01 X57.8125 Y-0.6251
G00 X57.8125 Y-0.6251
G01 F60.00
G01 Z-1.7000
G01 F200.00
G01 X20.1875 Y-0.6251
G00 Z2.0000
M05
G00 Z2.0000
G00 Z15.00


